; G-Code generated by Simplify3D(R) Version 4.0.0
; Mar 16, 2018 at 9:31:51 PM
; Settings Summary
;   processName,Process1
;   applyToModels,L_stepper_axis_hole
;   profileName,Anettina (modified)
;   profileVersion,2018-01-26 14:48:52
;   baseProfile,Default
;   printMaterial,PLA
;   printQuality,Fast
;   printExtruders,
;   extruderName,Extruder
;   extruderToolheadNumber,0
;   extruderDiameter,0.4
;   extruderAutoWidth,0
;   extruderWidth,0.45
;   extrusionMultiplier,1
;   extruderUseRetract,0
;   extruderRetractionDistance,7
;   extruderExtraRestartDistance,0
;   extruderRetractionZLift,0
;   extruderRetractionSpeed,1200
;   extruderUseCoasting,0
;   extruderCoastingDistance,2
;   extruderUseWipe,0
;   extruderWipeDistance,5
;   primaryExtruder,0
;   layerHeight,0.32
;   topSolidLayers,3
;   bottomSolidLayers,3
;   perimeterOutlines,3
;   printPerimetersInsideOut,1
;   startPointOption,2
;   startPointOriginX,0
;   startPointOriginY,0
;   sequentialIslands,0
;   spiralVaseMode,0
;   firstLayerHeightPercentage,100
;   firstLayerWidthPercentage,120
;   firstLayerUnderspeed,0.5
;   useRaft,0
;   raftExtruder,0
;   raftTopLayers,3
;   raftBaseLayers,2
;   raftOffset,3
;   raftSeparationDistance,0.14
;   raftTopInfill,100
;   aboveRaftSpeedMultiplier,0.3
;   useSkirt,1
;   skirtExtruder,0
;   skirtLayers,1
;   skirtOutlines,4
;   skirtOffset,4
;   usePrimePillar,0
;   primePillarExtruder,999
;   primePillarWidth,12
;   primePillarLocation,7
;   primePillarSpeedMultiplier,1
;   useOozeShield,0
;   oozeShieldExtruder,999
;   oozeShieldOffset,2
;   oozeShieldOutlines,1
;   oozeShieldSidewallShape,1
;   oozeShieldSidewallAngle,30
;   oozeShieldSpeedMultiplier,1
;   infillExtruder,0
;   internalInfillPattern,Rectilinear
;   externalInfillPattern,Rectilinear
;   infillPercentage,15
;   outlineOverlapPercentage,20
;   infillExtrusionWidthPercentage,100
;   minInfillLength,5
;   infillLayerInterval,1
;   internalInfillAngles,45,-45
;   overlapInternalInfillAngles,0
;   externalInfillAngles,45,-45
;   generateSupport,0
;   supportExtruder,0
;   supportInfillPercentage,25
;   supportExtraInflation,0
;   supportBaseLayers,1
;   denseSupportExtruder,0
;   denseSupportLayers,0
;   denseSupportInfillPercentage,70
;   supportLayerInterval,1
;   supportHorizontalPartOffset,0.3
;   supportUpperSeparationLayers,1
;   supportLowerSeparationLayers,1
;   supportType,0
;   supportGridSpacing,4
;   maxOverhangAngle,45
;   supportAngles,0
;   temperatureName,Extruder,Heated Bed
;   temperatureNumber,0,0
;   temperatureSetpointCount,1,1
;   temperatureSetpointLayers,1,1
;   temperatureSetpointTemperatures,220,65
;   temperatureStabilizeAtStartup,1,1
;   temperatureHeatedBed,0,1
;   temperatureRelayBetweenLayers,0,0
;   temperatureRelayBetweenLoops,0,0
;   fanLayers,1,2
;   fanSpeeds,0,100
;   blipFanToFullPower,0
;   adjustSpeedForCooling,1
;   minSpeedLayerTime,15
;   minCoolingSpeedSlowdown,20
;   increaseFanForCooling,0
;   minFanLayerTime,45
;   maxCoolingFanSpeed,100
;   increaseFanForBridging,0
;   bridgingFanSpeed,100
;   use5D,1
;   relativeEdistances,0
;   allowEaxisZeroing,1
;   independentExtruderAxes,0
;   includeM10123,0
;   stickySupport,1
;   applyToolheadOffsets,0
;   gcodeXoffset,0
;   gcodeYoffset,0
;   gcodeZoffset,0
;   overrideMachineDefinition,1
;   machineTypeOverride,0
;   strokeXoverride,220
;   strokeYoverride,220
;   strokeZoverride,240
;   originOffsetXoverride,0
;   originOffsetYoverride,0
;   originOffsetZoverride,0
;   homeXdirOverride,-1
;   homeYdirOverride,-1
;   homeZdirOverride,-1
;   flipXoverride,1
;   flipYoverride,-1
;   flipZoverride,1
;   toolheadOffsets,0,0|0,0|0,0|0,0|0,0|0,0
;   overrideFirmwareConfiguration,0
;   firmwareTypeOverride,RepRap (Marlin/Repetier/Sprinter)
;   GPXconfigOverride,r2
;   baudRateOverride,115200
;   overridePrinterModels,0
;   printerModelsOverride
;   startingGcode,G21 ;metric values,G90 ;absolute positioning,M82 ;set extruder to absolute mode,M107 ;start with the fan off,G28 X0 Y0 ;move X/Y to min endstops,G28 Z0 ;move Z to min endstops,G1 Z15.0 F9000 ;move the platform down 15mm,G92 E0 ;zero the extruded length,G1 F200 E3 ;extrude 3mm of feed stock,G92 E0 ;zero the extruded length again,G1 F9000,M117 Printing...
;   layerChangeGcode,
;   retractionGcode,
;   toolChangeGcode,
;   endingGcode,M104 S0 ; turn off extruder,M140 S0 ; turn off bed,G91 ;relative positioning,G1 E-1 F300  ;retract the filament a bit before lifting the nozzle, to release some of the pressure,G1 Z+0.5 E-5 X-20 Y-20 F9000 ;move Z up a bit and retract filament even more,G28 X0 Y0 ;move X/Y to min endstops, so the head is out of the way,G90 ;absolute positioning,G1 Y190 F9000 ;use this line if you want the bed to move to the front. delete if not.,M84 ;steppers off,M107 ; shut off fan,
;   exportFileFormat,gcode
;   celebration,0
;   celebrationSong,Random Song
;   postProcessing,
;   defaultSpeed,3600
;   outlineUnderspeed,0.5
;   solidInfillUnderspeed,0.8
;   supportUnderspeed,0.8
;   rapidXYspeed,4800
;   rapidZspeed,1002
;   minBridgingArea,50
;   bridgingExtraInflation,0
;   bridgingExtrusionMultiplier,1
;   bridgingSpeedMultiplier,1
;   useFixedBridgingAngle,0
;   fixedBridgingAngle,0
;   applyBridgingToPerimeters,0
;   filamentDiameters,1.7|1.7|1.7|1.7|1.7|1.7
;   filamentPricesPerKg,20|20|20|20|20|20
;   filamentDensities,1.25|1.25|1.25|1.25|1.25|1.25
;   useMinPrintHeight,0
;   minPrintHeight,0
;   useMaxPrintHeight,0
;   maxPrintHeight,0
;   useDiaphragm,0
;   diaphragmLayerInterval,20
;   robustSlicing,1
;   mergeAllIntoSolid,0
;   onlyRetractWhenCrossingOutline,1
;   retractBetweenLayers,1
;   useRetractionMinTravel,0
;   retractionMinTravel,3
;   retractWhileWiping,0
;   onlyWipeOutlines,1
;   avoidCrossingOutline,0
;   maxMovementDetourFactor,3
;   toolChangeRetractionDistance,12
;   toolChangeExtraRestartDistance,-0.5
;   toolChangeRetractionSpeed,600
;   externalThinWallType,0
;   internalThinWallType,2
;   thinWallAllowedOverlapPercentage,10
;   singleExtrusionMinLength,1
;   singleExtrusionMinPrintingWidthPercentage,50
;   singleExtrusionMaxPrintingWidthPercentage,200
;   singleExtrusionEndpointExtension,0.2
;   horizontalSizeCompensation,0
G90
M82
M106 S0
M140 S65
M190 S65
M104 S220 T0
M109 S220 T0
G21 ;metric values
G90 ;absolute positioning
M82 ;set extruder to absolute mode
M107 ;start with the fan off
G28 X0 Y0 ;move X/Y to min endstops
G28 Z0 ;move Z to min endstops
G1 Z15.0 F9000 ;move the platform down 15mm
G92 E0 ;zero the extruded length
G1 F200 E3 ;extrude 3mm of feed stock
G92 E0 ;zero the extruded length again
G1 F9000
M117 Printing...
G1 Z0.320 F1002
; process Process1
; layer 1, Z = 0.320
T0
; tool H0.320 W0.540
; skirt
G1 X29.097 Y23.576 F4800
G92 E0
G1 X31.942 Y19.752 E0.3628 F1800
G1 X32.609 Y19.417 E0.4197
G1 X187.390 Y19.417 E12.2032
G1 X188.058 Y19.752 E12.2600
G1 X190.903 Y23.576 E12.6229
G1 X191.032 Y24.311 E12.6797
G1 X145.532 Y175.977 E24.7345
G1 X145.373 Y178.813 E24.9506
G1 X145.369 Y178.857 E24.9540
G1 X145.339 Y179.124 E24.9745
G1 X145.333 Y179.167 E24.9778
G1 X144.724 Y182.749 E25.2544
G1 X144.716 Y182.793 E25.2578
G1 X144.656 Y183.054 E25.2782
G1 X144.645 Y183.097 E25.2816
G1 X143.639 Y186.588 E25.5582
G1 X143.626 Y186.631 E25.5616
G1 X143.537 Y186.884 E25.5820
G1 X143.521 Y186.925 E25.5854
G1 X142.131 Y190.282 E25.8620
G1 X142.113 Y190.322 E25.8653
G1 X141.996 Y190.564 E25.8858
G1 X141.976 Y190.604 E25.8891
G1 X140.219 Y193.783 E26.1657
G1 X140.196 Y193.822 E26.1691
G1 X140.053 Y194.049 E26.1896
G1 X140.029 Y194.086 E26.1929
G1 X137.926 Y197.049 E26.4695
G1 X137.900 Y197.084 E26.4729
G1 X137.732 Y197.294 E26.4933
G1 X137.704 Y197.328 E26.4967
G1 X135.283 Y200.037 E26.7733
G1 X135.252 Y200.069 E26.7767
G1 X135.063 Y200.259 E26.7971
G1 X135.030 Y200.289 E26.8005
G1 X132.321 Y202.710 E27.0771
G1 X132.288 Y202.739 E27.0804
G1 X132.077 Y202.906 E27.1009
G1 X132.042 Y202.933 E27.1043
G1 X129.079 Y205.035 E27.3808
G1 X129.042 Y205.060 E27.3842
G1 X128.815 Y205.203 E27.4047
G1 X128.777 Y205.225 E27.4080
G1 X125.597 Y206.983 E27.6846
G1 X125.558 Y207.003 E27.6880
G1 X125.316 Y207.120 E27.7084
G1 X125.275 Y207.138 E27.7118
G1 X121.919 Y208.528 E27.9884
G1 X121.877 Y208.544 E27.9918
G1 X121.624 Y208.633 E28.0122
G1 X121.582 Y208.646 E28.0156
G1 X118.091 Y209.652 E28.2922
G1 X118.048 Y209.663 E28.2955
G1 X117.786 Y209.722 E28.3160
G1 X117.743 Y209.731 E28.3193
G1 X114.161 Y210.340 E28.5959
G1 X114.117 Y210.346 E28.5993
G1 X113.850 Y210.376 E28.6198
G1 X113.806 Y210.380 E28.6231
G1 X110.178 Y210.583 E28.8997
G1 X110.134 Y210.585 E28.9031
G1 X109.866 Y210.585 E28.9235
G1 X109.822 Y210.583 E28.9269
G1 X106.194 Y210.380 E29.2035
G1 X106.150 Y210.376 E29.2069
G1 X105.883 Y210.346 E29.2273
G1 X105.839 Y210.340 E29.2307
G1 X102.257 Y209.731 E29.5073
G1 X102.214 Y209.722 E29.5106
G1 X101.952 Y209.663 E29.5311
G1 X101.909 Y209.652 E29.5344
G1 X98.418 Y208.646 E29.8110
G1 X98.376 Y208.632 E29.8144
G1 X98.123 Y208.544 E29.8349
G1 X98.081 Y208.528 E29.8382
G1 X94.725 Y207.138 E30.1148
G1 X94.684 Y207.120 E30.1182
G1 X94.442 Y207.003 E30.1386
G1 X94.403 Y206.983 E30.1420
G1 X91.223 Y205.225 E30.4186
G1 X91.185 Y205.203 E30.4219
G1 X90.958 Y205.060 E30.4424
G1 X90.921 Y205.035 E30.4458
G1 X87.958 Y202.933 E30.7224
G1 X87.923 Y202.906 E30.7257
G1 X87.712 Y202.739 E30.7462
G1 X87.679 Y202.710 E30.7495
G1 X84.970 Y200.289 E31.0261
G1 X84.937 Y200.259 E31.0295
G1 X84.748 Y200.069 E31.0500
G1 X84.717 Y200.037 E31.0533
G1 X82.296 Y197.328 E31.3299
G1 X82.268 Y197.294 E31.3333
G1 X82.100 Y197.084 E31.3537
G1 X82.074 Y197.049 E31.3571
G1 X79.971 Y194.086 E31.6337
G1 X79.947 Y194.049 E31.6371
G1 X79.804 Y193.821 E31.6575
G1 X79.781 Y193.783 E31.6609
G1 X78.024 Y190.604 E31.9375
G1 X78.004 Y190.564 E31.9408
G1 X77.887 Y190.322 E31.9613
G1 X77.869 Y190.282 E31.9646
G1 X76.479 Y186.925 E32.2412
G1 X76.463 Y186.884 E32.2446
G1 X76.374 Y186.631 E32.2650
G1 X76.361 Y186.588 E32.2684
G1 X75.355 Y183.097 E32.5450
G1 X75.344 Y183.054 E32.5484
G1 X75.284 Y182.792 E32.5688
G1 X75.275 Y182.749 E32.5722
G1 X74.667 Y179.167 E32.8488
G1 X74.661 Y179.124 E32.8521
G1 X74.631 Y178.857 E32.8726
G1 X74.627 Y178.813 E32.8760
G1 X74.468 Y175.977 E33.0922
G1 X28.968 Y24.311 E45.1469
G1 X29.097 Y23.576 E45.2038
G1 X29.522 Y23.759 F4800
G92 E0
G1 X32.240 Y20.106 E0.3466 F1800
G1 X32.716 Y19.867 E0.3872
G1 X187.284 Y19.867 E12.1544
G1 X187.760 Y20.106 E12.1950
G1 X190.478 Y23.759 E12.5416
G1 X190.570 Y24.284 E12.5822
G1 X145.086 Y175.899 E24.6329
G1 X144.924 Y178.781 E24.8527
G1 X144.921 Y178.813 E24.8551
G1 X144.893 Y179.067 E24.8746
G1 X144.888 Y179.098 E24.8770
G1 X144.282 Y182.668 E25.1526
G1 X144.276 Y182.699 E25.1550
G1 X144.219 Y182.948 E25.1745
G1 X144.211 Y182.979 E25.1769
G1 X143.209 Y186.458 E25.4525
G1 X143.199 Y186.488 E25.4549
G1 X143.114 Y186.730 E25.4744
G1 X143.103 Y186.759 E25.4768
G1 X141.718 Y190.104 E25.7525
G1 X141.705 Y190.133 E25.7549
G1 X141.594 Y190.363 E25.7744
G1 X141.579 Y190.391 E25.7768
G1 X139.828 Y193.560 E26.0524
G1 X139.812 Y193.587 E26.0548
G1 X139.676 Y193.804 E26.0743
G1 X139.658 Y193.830 E26.0767
G1 X137.563 Y196.783 E26.3523
G1 X137.544 Y196.809 E26.3547
G1 X137.384 Y197.009 E26.3742
G1 X137.364 Y197.033 E26.3766
G1 X134.951 Y199.732 E26.6523
G1 X134.930 Y199.755 E26.6547
G1 X134.749 Y199.936 E26.6741
G1 X134.726 Y199.958 E26.6766
G1 X132.026 Y202.371 E26.9522
G1 X132.002 Y202.391 E26.9546
G1 X131.802 Y202.551 E26.9741
G1 X131.777 Y202.570 E26.9765
G1 X128.824 Y204.665 E27.2521
G1 X128.798 Y204.682 E27.2545
G1 X128.581 Y204.818 E27.2740
G1 X128.554 Y204.834 E27.2764
G1 X125.385 Y206.586 E27.5521
G1 X125.357 Y206.600 E27.5545
G1 X125.126 Y206.711 E27.5739
G1 X125.097 Y206.724 E27.5763
G1 X121.752 Y208.110 E27.8520
G1 X121.723 Y208.121 E27.8544
G1 X121.481 Y208.206 E27.8739
G1 X121.451 Y208.215 E27.8763
G1 X117.972 Y209.218 E28.1519
G1 X117.941 Y209.225 E28.1543
G1 X117.692 Y209.282 E28.1738
G1 X117.661 Y209.288 E28.1762
G1 X114.092 Y209.895 E28.4518
G1 X114.060 Y209.899 E28.4542
G1 X113.806 Y209.928 E28.4737
G1 X113.774 Y209.931 E28.4761
G1 X110.160 Y210.134 E28.7518
G1 X110.128 Y210.135 E28.7542
G1 X109.872 Y210.135 E28.7737
G1 X109.840 Y210.134 E28.7761
G1 X106.226 Y209.931 E29.0517
G1 X106.194 Y209.928 E29.0541
G1 X105.940 Y209.899 E29.0736
G1 X105.908 Y209.895 E29.0760
G1 X102.339 Y209.289 E29.3516
G1 X102.308 Y209.282 E29.3540
G1 X102.058 Y209.225 E29.3735
G1 X102.028 Y209.218 E29.3759
G1 X98.549 Y208.215 E29.6516
G1 X98.519 Y208.206 E29.6540
G1 X98.277 Y208.121 E29.6735
G1 X98.248 Y208.110 E29.6759
G1 X94.903 Y206.724 E29.9515
G1 X94.874 Y206.711 E29.9539
G1 X94.643 Y206.600 E29.9734
G1 X94.615 Y206.586 E29.9758
G1 X91.446 Y204.834 E30.2514
G1 X91.419 Y204.818 E30.2538
G1 X91.202 Y204.682 E30.2733
G1 X91.176 Y204.665 E30.2757
G1 X88.223 Y202.570 E30.5514
G1 X88.198 Y202.551 E30.5538
G1 X87.998 Y202.391 E30.5733
G1 X87.974 Y202.371 E30.5757
G1 X85.274 Y199.958 E30.8513
G1 X85.251 Y199.936 E30.8537
G1 X85.070 Y199.755 E30.8732
G1 X85.049 Y199.732 E30.8756
G1 X82.636 Y197.033 E31.1512
G1 X82.616 Y197.009 E31.1536
G1 X82.456 Y196.808 E31.1731
G1 X82.437 Y196.783 E31.1755
G1 X80.342 Y193.830 E31.4512
G1 X80.324 Y193.804 E31.4536
G1 X80.188 Y193.587 E31.4730
G1 X80.172 Y193.560 E31.4754
G1 X78.421 Y190.392 E31.7511
G1 X78.406 Y190.364 E31.7535
G1 X78.295 Y190.133 E31.7730
G1 X78.282 Y190.104 E31.7754
G1 X76.897 Y186.759 E32.0510
G1 X76.886 Y186.730 E32.0534
G1 X76.801 Y186.488 E32.0729
G1 X76.791 Y186.458 E32.0753
G1 X75.789 Y182.979 E32.3509
G1 X75.781 Y182.948 E32.3533
G1 X75.724 Y182.699 E32.3728
G1 X75.718 Y182.668 E32.3752
G1 X75.112 Y179.098 E32.6509
G1 X75.107 Y179.067 E32.6533
G1 X75.079 Y178.813 E32.6728
G1 X75.076 Y178.781 E32.6752
G1 X74.914 Y175.899 E32.8949
G1 X29.430 Y24.284 E44.9456
G1 X29.522 Y23.759 E44.9862
G1 X29.947 Y23.942 F4800
G92 E0
G1 X32.537 Y20.460 E0.3303 F1800
G1 X32.823 Y20.317 E0.3547
G1 X187.177 Y20.317 E12.1057
G1 X187.463 Y20.460 E12.1301
G1 X190.053 Y23.942 E12.4604
G1 X190.109 Y24.257 E12.4848
G1 X144.640 Y175.821 E24.5314
G1 X144.475 Y178.750 E24.7547
G1 X144.474 Y178.768 E24.7562
G1 X144.446 Y179.010 E24.7747
G1 X144.444 Y179.029 E24.7761
G1 X143.839 Y182.586 E25.0508
G1 X143.836 Y182.605 E25.0522
G1 X143.781 Y182.842 E25.0708
G1 X143.777 Y182.860 E25.0722
G1 X142.778 Y186.327 E25.3469
G1 X142.772 Y186.345 E25.3483
G1 X142.692 Y186.575 E25.3669
G1 X142.685 Y186.593 E25.3683
G1 X141.304 Y189.926 E25.6430
G1 X141.297 Y189.943 E25.6444
G1 X141.191 Y190.162 E25.6629
G1 X141.182 Y190.179 E25.6644
G1 X139.437 Y193.337 E25.9391
G1 X139.427 Y193.353 E25.9405
G1 X139.298 Y193.559 E25.9590
G1 X139.287 Y193.575 E25.9605
G1 X137.200 Y196.518 E26.2351
G1 X137.188 Y196.533 E26.2366
G1 X137.036 Y196.723 E26.2551
G1 X137.024 Y196.738 E26.2566
G1 X134.620 Y199.428 E26.5312
G1 X134.607 Y199.442 E26.5327
G1 X134.435 Y199.614 E26.5512
G1 X134.421 Y199.627 E26.5526
G1 X131.731 Y202.031 E26.8273
G1 X131.717 Y202.043 E26.8288
G1 X131.526 Y202.195 E26.8473
G1 X131.511 Y202.206 E26.8487
G1 X128.569 Y204.294 E27.1234
G1 X128.553 Y204.305 E27.1249
G1 X128.347 Y204.434 E27.1434
G1 X128.330 Y204.444 E27.1448
G1 X125.173 Y206.189 E27.4195
G1 X125.156 Y206.198 E27.4209
G1 X124.937 Y206.303 E27.4395
G1 X124.919 Y206.311 E27.4409
G1 X121.586 Y207.692 E27.7156
G1 X121.568 Y207.698 E27.7170
G1 X121.338 Y207.779 E27.7356
G1 X121.320 Y207.785 E27.7370
G1 X117.853 Y208.783 E28.0117
G1 X117.835 Y208.788 E28.0131
G1 X117.598 Y208.842 E28.0316
G1 X117.579 Y208.846 E28.0331
G1 X114.022 Y209.450 E28.3077
G1 X114.004 Y209.453 E28.3092
G1 X113.762 Y209.480 E28.3277
G1 X113.743 Y209.482 E28.3292
G1 X110.141 Y209.684 E28.6038
G1 X110.122 Y209.685 E28.6053
G1 X109.878 Y209.685 E28.6238
G1 X109.859 Y209.684 E28.6253
G1 X106.257 Y209.482 E28.8999
G1 X106.238 Y209.480 E28.9014
G1 X105.996 Y209.453 E28.9199
G1 X105.978 Y209.450 E28.9213
G1 X102.421 Y208.846 E29.1960
G1 X102.402 Y208.842 E29.1975
G1 X102.165 Y208.788 E29.2160
G1 X102.146 Y208.783 E29.2174
G1 X98.679 Y207.785 E29.4921
G1 X98.661 Y207.779 E29.4935
G1 X98.432 Y207.698 E29.5121
