; G-Code generated by Simplify3D(R) Version 4.0.0
; Mar 29, 2018 at 8:27:57 PM
; Settings Summary
;   processName,Process1
;   applyToModels,part_2_33-5,part_2_33-5(2)
;   profileName,Anettina (modified)
;   profileVersion,2018-01-26 14:48:52
;   baseProfile,Default
;   printMaterial,PLA
;   printQuality,Fast
;   printExtruders,
;   extruderName,Extruder
;   extruderToolheadNumber,0
;   extruderDiameter,0.4
;   extruderAutoWidth,0
;   extruderWidth,0.45
;   extrusionMultiplier,1
;   extruderUseRetract,1
;   extruderRetractionDistance,7
;   extruderExtraRestartDistance,0
;   extruderRetractionZLift,0
;   extruderRetractionSpeed,1200
;   extruderUseCoasting,1
;   extruderCoastingDistance,2
;   extruderUseWipe,1
;   extruderWipeDistance,5
;   primaryExtruder,0
;   layerHeight,0.24
;   topSolidLayers,3
;   bottomSolidLayers,3
;   perimeterOutlines,3
;   printPerimetersInsideOut,1
;   startPointOption,2
;   startPointOriginX,0
;   startPointOriginY,0
;   sequentialIslands,0
;   spiralVaseMode,0
;   firstLayerHeightPercentage,100
;   firstLayerWidthPercentage,120
;   firstLayerUnderspeed,0.5
;   useRaft,0
;   raftExtruder,0
;   raftTopLayers,3
;   raftBaseLayers,2
;   raftOffset,3
;   raftSeparationDistance,0.14
;   raftTopInfill,100
;   aboveRaftSpeedMultiplier,0.3
;   useSkirt,1
;   skirtExtruder,0
;   skirtLayers,1
;   skirtOutlines,4
;   skirtOffset,4
;   usePrimePillar,0
;   primePillarExtruder,999
;   primePillarWidth,12
;   primePillarLocation,7
;   primePillarSpeedMultiplier,1
;   useOozeShield,0
;   oozeShieldExtruder,999
;   oozeShieldOffset,2
;   oozeShieldOutlines,1
;   oozeShieldSidewallShape,1
;   oozeShieldSidewallAngle,30
;   oozeShieldSpeedMultiplier,1
;   infillExtruder,0
;   internalInfillPattern,Rectilinear
;   externalInfillPattern,Rectilinear
;   infillPercentage,15
;   outlineOverlapPercentage,20
;   infillExtrusionWidthPercentage,100
;   minInfillLength,5
;   infillLayerInterval,1
;   internalInfillAngles,45,-45
;   overlapInternalInfillAngles,0
;   externalInfillAngles,45,-45
;   generateSupport,0
;   supportExtruder,0
;   supportInfillPercentage,25
;   supportExtraInflation,0
;   supportBaseLayers,1
;   denseSupportExtruder,0
;   denseSupportLayers,0
;   denseSupportInfillPercentage,70
;   supportLayerInterval,1
;   supportHorizontalPartOffset,0.3
;   supportUpperSeparationLayers,1
;   supportLowerSeparationLayers,1
;   supportType,0
;   supportGridSpacing,4
;   maxOverhangAngle,45
;   supportAngles,0
;   temperatureName,Extruder,Heated Bed
;   temperatureNumber,0,0
;   temperatureSetpointCount,1,1
;   temperatureSetpointLayers,1,1
;   temperatureSetpointTemperatures,200,60
;   temperatureStabilizeAtStartup,1,1
;   temperatureHeatedBed,0,1
;   temperatureRelayBetweenLayers,0,0
;   temperatureRelayBetweenLoops,0,0
;   fanLayers,1,2
;   fanSpeeds,0,100
;   blipFanToFullPower,0
;   adjustSpeedForCooling,1
;   minSpeedLayerTime,15
;   minCoolingSpeedSlowdown,20
;   increaseFanForCooling,0
;   minFanLayerTime,45
;   maxCoolingFanSpeed,100
;   increaseFanForBridging,0
;   bridgingFanSpeed,100
;   use5D,1
;   relativeEdistances,0
;   allowEaxisZeroing,1
;   independentExtruderAxes,0
;   includeM10123,0
;   stickySupport,1
;   applyToolheadOffsets,0
;   gcodeXoffset,0
;   gcodeYoffset,0
;   gcodeZoffset,0
;   overrideMachineDefinition,1
;   machineTypeOverride,0
;   strokeXoverride,220
;   strokeYoverride,220
;   strokeZoverride,240
;   originOffsetXoverride,0
;   originOffsetYoverride,0
;   originOffsetZoverride,0
;   homeXdirOverride,-1
;   homeYdirOverride,-1
;   homeZdirOverride,-1
;   flipXoverride,1
;   flipYoverride,-1
;   flipZoverride,1
;   toolheadOffsets,0,0|0,0|0,0|0,0|0,0|0,0
;   overrideFirmwareConfiguration,0
;   firmwareTypeOverride,RepRap (Marlin/Repetier/Sprinter)
;   GPXconfigOverride,r2
;   baudRateOverride,115200
;   overridePrinterModels,0
;   printerModelsOverride
;   startingGcode,G21 ;metric values,G90 ;absolute positioning,M82 ;set extruder to absolute mode,M107 ;start with the fan off,G28 X0 Y0 ;move X/Y to min endstops,G28 Z0 ;move Z to min endstops,G1 Z15.0 F9000 ;move the platform down 15mm,G92 E0 ;zero the extruded length,G1 F200 E3 ;extrude 3mm of feed stock,G92 E0 ;zero the extruded length again,G1 F9000,M117 Printing...
;   layerChangeGcode,
;   retractionGcode,
;   toolChangeGcode,
;   endingGcode,M104 S0 ; turn off extruder,M140 S0 ; turn off bed,G91 ;relative positioning,G1 E-1 F300  ;retract the filament a bit before lifting the nozzle, to release some of the pressure,G1 Z+0.5 E-5 X-20 Y-20 F9000 ;move Z up a bit and retract filament even more,G28 X0 Y0 ;move X/Y to min endstops, so the head is out of the way,G90 ;absolute positioning,G1 Y190 F9000 ;use this line if you want the bed to move to the front. delete if not.,M84 ;steppers off,M107 ; shut off fan,
;   exportFileFormat,gcode
;   celebration,0
;   celebrationSong,Random Song
;   postProcessing,
;   defaultSpeed,3600
;   outlineUnderspeed,0.5
;   solidInfillUnderspeed,0.8
;   supportUnderspeed,0.8
;   rapidXYspeed,4800
;   rapidZspeed,1002
;   minBridgingArea,50
;   bridgingExtraInflation,0
;   bridgingExtrusionMultiplier,1
;   bridgingSpeedMultiplier,1
;   useFixedBridgingAngle,0
;   fixedBridgingAngle,0
;   applyBridgingToPerimeters,0
;   filamentDiameters,1.7|1.7|1.7|1.7|1.7|1.7
;   filamentPricesPerKg,20|20|20|20|20|20
;   filamentDensities,1.25|1.25|1.25|1.25|1.25|1.25
;   useMinPrintHeight,0
;   minPrintHeight,0
;   useMaxPrintHeight,0
;   maxPrintHeight,0
;   useDiaphragm,0
;   diaphragmLayerInterval,20
;   robustSlicing,1
;   mergeAllIntoSolid,0
;   onlyRetractWhenCrossingOutline,1
;   retractBetweenLayers,1
;   useRetractionMinTravel,0
;   retractionMinTravel,3
;   retractWhileWiping,0
;   onlyWipeOutlines,1
;   avoidCrossingOutline,0
;   maxMovementDetourFactor,3
;   toolChangeRetractionDistance,12
;   toolChangeExtraRestartDistance,-0.5
;   toolChangeRetractionSpeed,600
;   externalThinWallType,0
;   internalThinWallType,2
;   thinWallAllowedOverlapPercentage,10
;   singleExtrusionMinLength,1
;   singleExtrusionMinPrintingWidthPercentage,50
;   singleExtrusionMaxPrintingWidthPercentage,200
;   singleExtrusionEndpointExtension,0.2
;   horizontalSizeCompensation,0
G90
M82
M106 S0
M140 S60
M190 S60
M104 S200 T0
M109 S200 T0
G21 ;metric values
G90 ;absolute positioning
M82 ;set extruder to absolute mode
M107 ;start with the fan off
G28 X0 Y0 ;move X/Y to min endstops
G28 Z0 ;move Z to min endstops
G1 Z15.0 F9000 ;move the platform down 15mm
G92 E0 ;zero the extruded length
G1 F200 E3 ;extrude 3mm of feed stock
G92 E0 ;zero the extruded length again
G1 F9000
M117 Printing...
G92 E0
G1 E-7.0000 F1200
G1 Z0.240 F1002
; process Process1
; layer 1, Z = 0.240
T0
; tool H0.240 W0.540
; skirt
G1 X78.314 Y51.134 F4800
G1 E0.0000 F360
G92 E0
G1 X78.461 Y50.931 E0.0143 F1800
G1 X78.486 Y50.898 E0.0167
G1 X80.851 Y47.978 E0.2312
G1 X80.878 Y47.947 E0.2336
G1 X81.046 Y47.761 E0.2479
G1 X81.074 Y47.731 E0.2502
G1 X83.731 Y45.074 E0.4648
G1 X83.761 Y45.046 E0.4671
G1 X83.947 Y44.878 E0.4814
G1 X83.978 Y44.851 E0.4838
G1 X86.898 Y42.486 E0.6983
G1 X86.931 Y42.461 E0.7007
G1 X87.134 Y42.314 E0.7150
G1 X87.168 Y42.291 E0.7173
G1 X90.319 Y40.244 E0.9319
G1 X90.354 Y40.223 E0.9342
G1 X90.571 Y40.097 E0.9485
G1 X90.607 Y40.078 E0.9509
G1 X93.955 Y38.372 E1.1654
G1 X93.992 Y38.354 E1.1678
G1 X94.221 Y38.252 E1.1821
G1 X94.259 Y38.236 E1.1844
G1 X97.767 Y36.890 E1.3990
G1 X97.806 Y36.876 E1.4013
G1 X98.044 Y36.799 E1.4156
G1 X98.084 Y36.787 E1.4180
G1 X101.713 Y35.815 E1.6325
G1 X101.753 Y35.805 E1.6349
G1 X101.998 Y35.753 E1.6492
G1 X102.039 Y35.745 E1.6515
G1 X105.750 Y35.158 E1.8661
G1 X105.791 Y35.152 E1.8684
G1 X106.040 Y35.126 E1.8827
G1 X106.081 Y35.123 E1.8851
G1 X109.833 Y34.926 E2.0996
G1 X109.875 Y34.925 E2.1020
G1 X110.125 Y34.925 E2.1163
G1 X110.167 Y34.926 E2.1187
G1 X113.919 Y35.123 E2.3332
G1 X113.960 Y35.126 E2.3355
G1 X114.209 Y35.152 E2.3499
G1 X114.250 Y35.158 E2.3522
G1 X117.961 Y35.745 E2.5667
G1 X118.002 Y35.753 E2.5691
G1 X118.247 Y35.805 E2.5834
G1 X118.287 Y35.815 E2.5858
G1 X121.916 Y36.787 E2.8003
G1 X121.956 Y36.799 E2.8026
G1 X122.194 Y36.876 E2.8170
G1 X122.233 Y36.890 E2.8193
G1 X125.741 Y38.236 E3.0338
G1 X125.779 Y38.252 E3.0362
G1 X126.008 Y38.354 E3.0505
G1 X126.045 Y38.372 E3.0529
G1 X129.393 Y40.078 E3.2674
G1 X129.429 Y40.097 E3.2697
G1 X129.646 Y40.223 E3.2841
G1 X129.681 Y40.244 E3.2864
G1 X132.832 Y42.291 E3.5009
G1 X132.866 Y42.314 E3.5033
G1 X133.069 Y42.461 E3.5176
G1 X133.102 Y42.486 E3.5200
G1 X136.022 Y44.851 E3.7345
G1 X136.053 Y44.878 E3.7369
G1 X136.239 Y45.045 E3.7512
G1 X136.269 Y45.074 E3.7535
G1 X138.926 Y47.731 E3.9681
G1 X138.954 Y47.761 E3.9704
G1 X139.122 Y47.947 E3.9847
G1 X139.149 Y47.978 E3.9871
G1 X141.514 Y50.898 E4.2016
G1 X141.539 Y50.931 E4.2040
G1 X141.686 Y51.134 E4.2183
G1 X141.709 Y51.168 E4.2206
G1 X143.756 Y54.319 E4.4352
G1 X143.777 Y54.354 E4.4375
G1 X143.903 Y54.571 E4.4518
G1 X143.922 Y54.607 E4.4542
G1 X145.628 Y57.955 E4.6687
G1 X145.646 Y57.992 E4.6711
G1 X145.748 Y58.221 E4.6854
G1 X145.764 Y58.259 E4.6877
G1 X147.110 Y61.767 E4.9023
G1 X147.124 Y61.806 E4.9046
G1 X147.201 Y62.044 E4.9189
G1 X147.213 Y62.084 E4.9213
G1 X148.185 Y65.713 E5.1358
G1 X148.195 Y65.753 E5.1382
G1 X148.247 Y65.998 E5.1525
G1 X148.255 Y66.039 E5.1548
G1 X148.842 Y69.750 E5.3694
G1 X148.848 Y69.791 E5.3717
G1 X148.874 Y70.040 E5.3860
G1 X148.877 Y70.081 E5.3884
G1 X149.074 Y73.833 E5.6029
G1 X149.075 Y73.875 E5.6053
G1 X149.075 Y74.125 E5.6196
G1 X149.074 Y74.167 E5.6220
G1 X148.877 Y77.919 E5.8365
G1 X148.874 Y77.960 E5.8388
G1 X148.848 Y78.209 E5.8532
G1 X148.842 Y78.250 E5.8555
G1 X148.255 Y81.961 E6.0700
G1 X148.247 Y82.002 E6.0724
G1 X148.195 Y82.247 E6.0867
G1 X148.185 Y82.287 E6.0891
G1 X147.213 Y85.916 E6.3036
G1 X147.201 Y85.956 E6.3059
G1 X147.124 Y86.194 E6.3203
G1 X147.110 Y86.233 E6.3226
G1 X145.764 Y89.741 E6.5371
G1 X145.748 Y89.779 E6.5395
G1 X145.646 Y90.008 E6.5538
G1 X145.628 Y90.045 E6.5562
G1 X143.922 Y93.393 E6.7707
G1 X143.903 Y93.429 E6.7730
G1 X143.777 Y93.646 E6.7874
G1 X143.756 Y93.681 E6.7897
G1 X141.709 Y96.832 E7.0042
G1 X141.686 Y96.866 E7.0066
G1 X141.539 Y97.069 E7.0209
G1 X141.513 Y97.102 E7.0233
G1 X139.149 Y100.022 E7.2378
G1 X139.122 Y100.053 E7.2402
G1 X138.954 Y100.239 E7.2545
G1 X138.926 Y100.269 E7.2568
G1 X136.269 Y102.926 E7.4714
G1 X136.239 Y102.955 E7.4737
G1 X136.053 Y103.122 E7.4880
G1 X136.022 Y103.149 E7.4904
G1 X133.102 Y105.514 E7.7049
G1 X133.069 Y105.539 E7.7073
G1 X132.866 Y105.686 E7.7216
G1 X132.832 Y105.709 E7.7239
G1 X129.681 Y107.756 E7.9385
G1 X129.646 Y107.777 E7.9408
G1 X129.429 Y107.903 E7.9551
G1 X129.393 Y107.922 E7.9575
G1 X126.045 Y109.628 E8.1720
G1 X126.008 Y109.646 E8.1744
G1 X125.779 Y109.748 E8.1887
G1 X125.741 Y109.764 E8.1910
G1 X125.125 Y110.000 E8.2287
G1 X125.741 Y110.236 E8.2664
G1 X125.779 Y110.252 E8.2687
G1 X126.008 Y110.354 E8.2830
G1 X126.045 Y110.372 E8.2854
G1 X129.393 Y112.078 E8.4999
G1 X129.429 Y112.097 E8.5023
G1 X129.646 Y112.223 E8.5166
G1 X129.681 Y112.244 E8.5190
G1 X132.832 Y114.291 E8.7335
G1 X132.866 Y114.314 E8.7358
G1 X133.069 Y114.461 E8.7502
G1 X133.102 Y114.486 E8.7525
G1 X136.022 Y116.851 E8.9670
G1 X136.053 Y116.878 E8.9694
G1 X136.239 Y117.045 E8.9837
G1 X136.269 Y117.074 E8.9861
G1 X138.926 Y119.731 E9.2006
G1 X138.954 Y119.761 E9.2029
G1 X139.122 Y119.947 E9.2173
G1 X139.149 Y119.978 E9.2196
G1 X141.514 Y122.898 E9.4341
G1 X141.539 Y122.931 E9.4365
G1 X141.686 Y123.134 E9.4508
G1 X141.709 Y123.168 E9.4532
G1 X143.756 Y126.319 E9.6677
G1 X143.777 Y126.354 E9.6701
G1 X143.903 Y126.571 E9.6844
G1 X143.922 Y126.607 E9.6867
G1 X145.628 Y129.955 E9.9013
G1 X145.646 Y129.992 E9.9036
G1 X145.748 Y130.221 E9.9179
G1 X145.764 Y130.259 E9.9203
G1 X147.110 Y133.767 E10.1348
G1 X147.124 Y133.806 E10.1372
G1 X147.201 Y134.044 E10.1515
G1 X147.213 Y134.084 E10.1538
G1 X148.185 Y137.713 E10.3684
G1 X148.195 Y137.753 E10.3707
G1 X148.247 Y137.998 E10.3850
G1 X148.255 Y138.039 E10.3874
G1 X148.842 Y141.750 E10.6019
G1 X148.848 Y141.791 E10.6043
G1 X148.874 Y142.040 E10.6186
G1 X148.877 Y142.081 E10.6209
G1 X149.074 Y145.833 E10.8355
G1 X149.075 Y145.875 E10.8378
G1 X149.075 Y146.125 E10.8521
G1 X149.074 Y146.167 E10.8545
G1 X148.877 Y149.919 E11.0690
G1 X148.874 Y149.960 E11.0714
G1 X148.848 Y150.209 E11.0857
G1 X148.842 Y150.250 E11.0880
G1 X148.255 Y153.961 E11.3026
G1 X148.247 Y154.002 E11.3049
G1 X148.195 Y154.247 E11.3192
G1 X148.185 Y154.287 E11.3216
G1 X147.213 Y157.916 E11.5361
G1 X147.201 Y157.956 E11.5385
G1 X147.124 Y158.194 E11.5528
G1 X147.110 Y158.233 E11.5551
G1 X145.764 Y161.741 E11.7697
G1 X145.748 Y161.779 E11.7720
G1 X145.646 Y162.008 E11.7863
G1 X145.628 Y162.045 E11.7887
G1 X143.922 Y165.393 E12.0032
G1 X143.903 Y165.429 E12.0056
G1 X143.777 Y165.646 E12.0199
G1 X143.756 Y165.681 E12.0223
G1 X141.709 Y168.832 E12.2368
G1 X141.686 Y168.866 E12.2391
G1 X141.539 Y169.069 E12.2535
G1 X141.513 Y169.102 E12.2558
G1 X139.149 Y172.022 E12.4703
G1 X139.122 Y172.053 E12.4727
G1 X138.954 Y172.239 E12.4870
G1 X138.926 Y172.269 E12.4894
G1 X136.269 Y174.926 E12.7039
G1 X136.239 Y174.955 E12.7062
G1 X136.053 Y175.122 E12.7206
G1 X136.022 Y175.149 E12.7229
G1 X133.102 Y177.514 E12.9374
G1 X133.069 Y177.539 E12.9398
G1 X132.866 Y177.686 E12.9541
G1 X132.832 Y177.709 E12.9565
G1 X129.681 Y179.756 E13.1710
G1 X129.646 Y179.777 E13.1734
G1 X129.429 Y179.903 E13.1877
G1 X129.393 Y179.922 E13.1900
G1 X126.045 Y181.628 E13.4046
G1 X126.008 Y181.646 E13.4069
G1 X125.779 Y181.748 E13.4212
G1 X125.741 Y181.764 E13.4236
G1 X122.233 Y183.110 E13.6381
G1 X122.194 Y183.124 E13.6405
G1 X121.956 Y183.201 E13.6548
G1 X121.916 Y183.213 E13.6571
G1 X118.287 Y184.185 E13.8717
G1 X118.247 Y184.195 E13.8740
G1 X118.002 Y184.247 E13.8883
G1 X117.961 Y184.255 E13.8907
G1 X114.250 Y184.842 E14.1052
G1 X114.209 Y184.848 E14.1076
G1 X113.960 Y184.874 E14.1219
G1 X113.919 Y184.877 E14.1242
G1 X110.167 Y185.074 E14.3388
G1 X110.125 Y185.075 E14.3411
G1 X109.875 Y185.075 E14.3554
G1 X109.833 Y185.074 E14.3578
G1 X106.081 Y184.877 E14.5723
G1 X106.040 Y184.874 E14.5747
G1 X105.791 Y184.848 E14.5890
G1 X105.750 Y184.842 E14.5913
G1 X102.039 Y184.255 E14.8059
G1 X101.998 Y184.247 E14.8082
G1 X101.753 Y184.195 E14.8225
G1 X101.713 Y184.185 E14.8249
G1 X98.084 Y183.213 E15.0394
G1 X98.044 Y183.201 E15.0418
G1 X97.806 Y183.124 E15.0561
G1 X97.767 Y183.110 E15.0584
G1 X94.259 Y181.764 E15.2730
G1 X94.221 Y181.748 E15.2753
G1 X93.992 Y181.646 E15.2896
G1 X93.955 Y181.628 E15.2920
G1 X90.607 Y179.922 E15.5065
G1 X90.571 Y179.903 E15.5089
G1 X90.354 Y179.777 E15.5232
G1 X90.319 Y179.756 E15.5256
G1 X87.168 Y177.709 E15.7401
G1 X87.134 Y177.686 E15.7424
G1 X86.931 Y177.539 E15.7568
G1 X86.898 Y177.514 E15.7591
G1 X83.978 Y175.149 E15.9736
G1 X83.947 Y175.122 E15.9760
G1 X83.761 Y174.954 E15.9903
G1 X83.731 Y174.926 E15.9927
G1 X81.074 Y172.269 E16.2072
G1 X81.046 Y172.239 E16.2095
G1 X80.878 Y172.053 E16.2239
G1 X80.851 Y172.022 E16.2262
G1 X78.486 Y169.102 E16.4407
G1 X78.461 Y169.069 E16.4431
G1 X78.314 Y168.866 E16.4574
G1 X78.291 Y168.832 E16.4598
G1 X76.244 Y165.681 E16.6743
G1 X76.223 Y165.646 E16.6767
G1 X76.097 Y165.429 E16.6910
G1 X76.078 Y165.393 E16.6933
G1 X74.372 Y162.045 E16.9078
G1 X74.354 Y162.008 E16.9102
G1 X74.252 Y161.779 E16.9245
G1 X74.236 Y161.741 E16.9269
G1 X72.890 Y158.233 E17.1414
G1 X72.876 Y158.194 E17.1438
G1 X72.799 Y157.956 E17.1581
G1 X72.787 Y157.916 E17.1604
G1 X71.815 Y154.287 E17.3750
G1 X71.805 Y154.247 E17.3773
G1 X71.753 Y154.002 E17.3916
G1 X71.745 Y153.961 E17.3940
G1 X71.158 Y150.250 E17.6085
G1 X71.152 Y150.209 E17.6109
G1 X71.126 Y149.960 E17.6252
G1 X71.123 Y149.919 E17.6275
G1 X70.926 Y146.167 E17.8421
G1 X70.925 Y146.125 E17.8444
G1 X70.925 Y145.875 E17.8587
G1 X70.926 Y145.833 E17.8611
G1 X71.123 Y142.081 E18.0756
G1 X71.126 Y142.040 E18.0780
G1 X71.152 Y141.791 E18.0923
G1 X71.158 Y141.750 E18.0946
G1 X71.745 Y138.039 E18.3092
G1 X71.753 Y137.998 E18.3115
G1 X71.805 Y137.753 E18.3258
G1 X71.815 Y137.713 E18.3282
G1 X72.787 Y134.084 E18.5427
