; G-Code generated by Simplify3D(R) Version 4.0.0
; Mar 29, 2018 at 4:27:10 PM
; Settings Summary
;   processName,Process1
;   applyToModels,part_1,part_2,part_1(2),part_2(2)
;   profileName,Anettina (modified)
;   profileVersion,2018-01-26 14:48:52
;   baseProfile,Default
;   printMaterial,PLA
;   printQuality,Fast
;   printExtruders,
;   extruderName,Extruder
;   extruderToolheadNumber,0
;   extruderDiameter,0.4
;   extruderAutoWidth,0
;   extruderWidth,0.45
;   extrusionMultiplier,1
;   extruderUseRetract,1
;   extruderRetractionDistance,7
;   extruderExtraRestartDistance,0
;   extruderRetractionZLift,0
;   extruderRetractionSpeed,1200
;   extruderUseCoasting,1
;   extruderCoastingDistance,2
;   extruderUseWipe,1
;   extruderWipeDistance,5
;   primaryExtruder,0
;   layerHeight,0.24
;   topSolidLayers,3
;   bottomSolidLayers,3
;   perimeterOutlines,3
;   printPerimetersInsideOut,1
;   startPointOption,2
;   startPointOriginX,0
;   startPointOriginY,0
;   sequentialIslands,0
;   spiralVaseMode,0
;   firstLayerHeightPercentage,100
;   firstLayerWidthPercentage,120
;   firstLayerUnderspeed,0.5
;   useRaft,0
;   raftExtruder,0
;   raftTopLayers,3
;   raftBaseLayers,2
;   raftOffset,3
;   raftSeparationDistance,0.14
;   raftTopInfill,100
;   aboveRaftSpeedMultiplier,0.3
;   useSkirt,1
;   skirtExtruder,0
;   skirtLayers,1
;   skirtOutlines,4
;   skirtOffset,4
;   usePrimePillar,0
;   primePillarExtruder,999
;   primePillarWidth,12
;   primePillarLocation,7
;   primePillarSpeedMultiplier,1
;   useOozeShield,0
;   oozeShieldExtruder,999
;   oozeShieldOffset,2
;   oozeShieldOutlines,1
;   oozeShieldSidewallShape,1
;   oozeShieldSidewallAngle,30
;   oozeShieldSpeedMultiplier,1
;   infillExtruder,0
;   internalInfillPattern,Rectilinear
;   externalInfillPattern,Rectilinear
;   infillPercentage,15
;   outlineOverlapPercentage,20
;   infillExtrusionWidthPercentage,100
;   minInfillLength,5
;   infillLayerInterval,1
;   internalInfillAngles,45,-45
;   overlapInternalInfillAngles,0
;   externalInfillAngles,45,-45
;   generateSupport,0
;   supportExtruder,0
;   supportInfillPercentage,25
;   supportExtraInflation,0
;   supportBaseLayers,1
;   denseSupportExtruder,0
;   denseSupportLayers,0
;   denseSupportInfillPercentage,70
;   supportLayerInterval,1
;   supportHorizontalPartOffset,0.3
;   supportUpperSeparationLayers,1
;   supportLowerSeparationLayers,1
;   supportType,0
;   supportGridSpacing,4
;   maxOverhangAngle,45
;   supportAngles,0
;   temperatureName,Extruder,Heated Bed
;   temperatureNumber,0,0
;   temperatureSetpointCount,1,1
;   temperatureSetpointLayers,1,1
;   temperatureSetpointTemperatures,200,60
;   temperatureStabilizeAtStartup,1,1
;   temperatureHeatedBed,0,1
;   temperatureRelayBetweenLayers,0,0
;   temperatureRelayBetweenLoops,0,0
;   fanLayers,1,2
;   fanSpeeds,0,100
;   blipFanToFullPower,0
;   adjustSpeedForCooling,1
;   minSpeedLayerTime,15
;   minCoolingSpeedSlowdown,20
;   increaseFanForCooling,0
;   minFanLayerTime,45
;   maxCoolingFanSpeed,100
;   increaseFanForBridging,0
;   bridgingFanSpeed,100
;   use5D,1
;   relativeEdistances,0
;   allowEaxisZeroing,1
;   independentExtruderAxes,0
;   includeM10123,0
;   stickySupport,1
;   applyToolheadOffsets,0
;   gcodeXoffset,0
;   gcodeYoffset,0
;   gcodeZoffset,0
;   overrideMachineDefinition,1
;   machineTypeOverride,0
;   strokeXoverride,220
;   strokeYoverride,220
;   strokeZoverride,240
;   originOffsetXoverride,0
;   originOffsetYoverride,0
;   originOffsetZoverride,0
;   homeXdirOverride,-1
;   homeYdirOverride,-1
;   homeZdirOverride,-1
;   flipXoverride,1
;   flipYoverride,-1
;   flipZoverride,1
;   toolheadOffsets,0,0|0,0|0,0|0,0|0,0|0,0
;   overrideFirmwareConfiguration,0
;   firmwareTypeOverride,RepRap (Marlin/Repetier/Sprinter)
;   GPXconfigOverride,r2
;   baudRateOverride,115200
;   overridePrinterModels,0
;   printerModelsOverride
;   startingGcode,G21 ;metric values,G90 ;absolute positioning,M82 ;set extruder to absolute mode,M107 ;start with the fan off,G28 X0 Y0 ;move X/Y to min endstops,G28 Z0 ;move Z to min endstops,G1 Z15.0 F9000 ;move the platform down 15mm,G92 E0 ;zero the extruded length,G1 F200 E3 ;extrude 3mm of feed stock,G92 E0 ;zero the extruded length again,G1 F9000,M117 Printing...
;   layerChangeGcode,
;   retractionGcode,
;   toolChangeGcode,
;   endingGcode,M104 S0 ; turn off extruder,M140 S0 ; turn off bed,G91 ;relative positioning,G1 E-1 F300  ;retract the filament a bit before lifting the nozzle, to release some of the pressure,G1 Z+0.5 E-5 X-20 Y-20 F9000 ;move Z up a bit and retract filament even more,G28 X0 Y0 ;move X/Y to min endstops, so the head is out of the way,G90 ;absolute positioning,G1 Y190 F9000 ;use this line if you want the bed to move to the front. delete if not.,M84 ;steppers off,M107 ; shut off fan,
;   exportFileFormat,gcode
;   celebration,0
;   celebrationSong,Random Song
;   postProcessing,
;   defaultSpeed,3600
;   outlineUnderspeed,0.5
;   solidInfillUnderspeed,0.8
;   supportUnderspeed,0.8
;   rapidXYspeed,4800
;   rapidZspeed,1002
;   minBridgingArea,50
;   bridgingExtraInflation,0
;   bridgingExtrusionMultiplier,1
;   bridgingSpeedMultiplier,1
;   useFixedBridgingAngle,0
;   fixedBridgingAngle,0
;   applyBridgingToPerimeters,0
;   filamentDiameters,1.7|1.7|1.7|1.7|1.7|1.7
;   filamentPricesPerKg,20|20|20|20|20|20
;   filamentDensities,1.25|1.25|1.25|1.25|1.25|1.25
;   useMinPrintHeight,0
;   minPrintHeight,0
;   useMaxPrintHeight,0
;   maxPrintHeight,0
;   useDiaphragm,0
;   diaphragmLayerInterval,20
;   robustSlicing,1
;   mergeAllIntoSolid,0
;   onlyRetractWhenCrossingOutline,1
;   retractBetweenLayers,1
;   useRetractionMinTravel,0
;   retractionMinTravel,3
;   retractWhileWiping,0
;   onlyWipeOutlines,1
;   avoidCrossingOutline,0
;   maxMovementDetourFactor,3
;   toolChangeRetractionDistance,12
;   toolChangeExtraRestartDistance,-0.5
;   toolChangeRetractionSpeed,600
;   externalThinWallType,0
;   internalThinWallType,2
;   thinWallAllowedOverlapPercentage,10
;   singleExtrusionMinLength,1
;   singleExtrusionMinPrintingWidthPercentage,50
;   singleExtrusionMaxPrintingWidthPercentage,200
;   singleExtrusionEndpointExtension,0.2
;   horizontalSizeCompensation,0
G90
M82
M106 S0
M140 S60
M190 S60
M104 S200 T0
M109 S200 T0
G21 ;metric values
G90 ;absolute positioning
M82 ;set extruder to absolute mode
M107 ;start with the fan off
G28 X0 Y0 ;move X/Y to min endstops
G28 Z0 ;move Z to min endstops
G1 Z15.0 F9000 ;move the platform down 15mm
G92 E0 ;zero the extruded length
G1 F200 E3 ;extrude 3mm of feed stock
G92 E0 ;zero the extruded length again
G1 F9000
M117 Printing...
G92 E0
G1 E-7.0000 F1200
G1 Z0.240 F1002
; process Process1
; layer 1, Z = 0.240
T0
; tool H0.240 W0.540
; skirt
G1 X50.482 Y49.466 F4800
G1 E0.0000 F360
G92 E0
G1 X53.280 Y47.200 E0.2056 F1800
G1 X53.313 Y47.175 E0.2079
G1 X53.515 Y47.028 E0.2222
G1 X53.549 Y47.004 E0.2246
G1 X56.569 Y45.043 E0.4302
G1 X56.604 Y45.022 E0.4325
G1 X56.821 Y44.896 E0.4468
G1 X56.857 Y44.877 E0.4492
G1 X60.065 Y43.242 E0.6547
G1 X60.102 Y43.225 E0.6571
G1 X60.331 Y43.123 E0.6714
G1 X60.369 Y43.107 E0.6738
G1 X63.731 Y41.817 E0.8793
G1 X63.769 Y41.803 E0.8817
G1 X64.008 Y41.725 E0.8960
G1 X64.047 Y41.714 E0.8984
G1 X67.525 Y40.782 E1.1039
G1 X67.565 Y40.772 E1.1063
G1 X67.810 Y40.720 E1.1206
G1 X67.851 Y40.713 E1.1229
G1 X71.407 Y40.149 E1.3285
G1 X71.448 Y40.144 E1.3309
G1 X71.697 Y40.118 E1.3452
G1 X71.738 Y40.114 E1.3475
G1 X75.333 Y39.926 E1.5531
G1 X75.375 Y39.925 E1.5554
G1 X75.625 Y39.925 E1.5698
G1 X75.667 Y39.926 E1.5721
G1 X79.262 Y40.114 E1.7777
G1 X79.303 Y40.118 E1.7800
G1 X79.552 Y40.144 E1.7944
G1 X79.593 Y40.149 E1.7967
G1 X83.149 Y40.713 E2.0023
G1 X83.190 Y40.720 E2.0046
G1 X83.435 Y40.772 E2.0189
G1 X83.475 Y40.782 E2.0213
G1 X86.953 Y41.714 E2.2269
G1 X86.992 Y41.725 E2.2292
G1 X87.231 Y41.803 E2.2435
G1 X87.269 Y41.817 E2.2459
G1 X90.631 Y43.107 E2.4514
G1 X90.669 Y43.123 E2.4538
G1 X90.898 Y43.225 E2.4681
G1 X90.935 Y43.242 E2.4705
G1 X94.143 Y44.877 E2.6760
G1 X94.179 Y44.896 E2.6784
G1 X94.396 Y45.022 E2.6927
G1 X94.431 Y45.043 E2.6951
G1 X97.451 Y47.004 E2.9006
G1 X97.485 Y47.028 E2.9030
G1 X97.687 Y47.175 E2.9173
G1 X97.720 Y47.200 E2.9197
G1 X100.518 Y49.466 E3.1252
G1 X100.549 Y49.492 E3.1276
G1 X100.736 Y49.660 E3.1419
G1 X100.766 Y49.689 E3.1442
G1 X103.311 Y52.234 E3.3498
G1 X103.340 Y52.264 E3.3522
G1 X103.508 Y52.451 E3.3665
G1 X103.534 Y52.482 E3.3688
G1 X105.800 Y55.280 E3.5744
G1 X105.825 Y55.313 E3.5767
G1 X105.972 Y55.515 E3.5911
G1 X105.996 Y55.549 E3.5934
G1 X107.957 Y58.569 E3.7990
G1 X107.978 Y58.604 E3.8013
G1 X108.104 Y58.821 E3.8157
G1 X108.123 Y58.857 E3.8180
G1 X109.758 Y62.065 E4.0236
G1 X109.775 Y62.102 E4.0259
G1 X109.877 Y62.331 E4.0402
G1 X109.893 Y62.369 E4.0426
G1 X110.000 Y62.648 E4.0596
G1 X110.107 Y62.369 E4.0766
G1 X110.123 Y62.331 E4.0790
G1 X110.225 Y62.102 E4.0933
G1 X110.242 Y62.065 E4.0956
G1 X111.877 Y58.857 E4.3012
G1 X111.896 Y58.821 E4.3036
G1 X112.022 Y58.604 E4.3179
G1 X112.043 Y58.569 E4.3202
G1 X114.004 Y55.549 E4.5258
G1 X114.027 Y55.515 E4.5281
G1 X114.175 Y55.313 E4.5425
G1 X114.200 Y55.280 E4.5448
G1 X116.466 Y52.482 E4.7504
G1 X116.492 Y52.451 E4.7527
G1 X116.660 Y52.264 E4.7670
G1 X116.689 Y52.234 E4.7694
G1 X119.234 Y49.689 E4.9750
G1 X119.264 Y49.660 E4.9773
G1 X119.451 Y49.492 E4.9916
G1 X119.482 Y49.466 E4.9940
G1 X122.280 Y47.200 E5.1996
G1 X122.313 Y47.175 E5.2019
G1 X122.515 Y47.028 E5.2162
G1 X122.549 Y47.004 E5.2186
G1 X125.569 Y45.043 E5.4241
G1 X125.604 Y45.022 E5.4265
G1 X125.821 Y44.896 E5.4408
G1 X125.857 Y44.877 E5.4432
G1 X129.065 Y43.242 E5.6487
G1 X129.102 Y43.225 E5.6511
G1 X129.331 Y43.123 E5.6654
G1 X129.369 Y43.107 E5.6678
G1 X132.731 Y41.817 E5.8733
G1 X132.769 Y41.803 E5.8757
G1 X133.008 Y41.725 E5.8900
G1 X133.047 Y41.714 E5.8923
G1 X136.525 Y40.782 E6.0979
G1 X136.565 Y40.772 E6.1003
G1 X136.810 Y40.720 E6.1146
G1 X136.851 Y40.713 E6.1169
G1 X140.407 Y40.149 E6.3225
G1 X140.448 Y40.144 E6.3248
G1 X140.697 Y40.118 E6.3392
G1 X140.738 Y40.114 E6.3415
G1 X144.333 Y39.926 E6.5471
G1 X144.375 Y39.925 E6.5494
G1 X144.625 Y39.925 E6.5638
G1 X144.667 Y39.926 E6.5661
G1 X148.262 Y40.114 E6.7717
G1 X148.303 Y40.118 E6.7740
G1 X148.552 Y40.144 E6.7883
G1 X148.593 Y40.149 E6.7907
G1 X152.149 Y40.713 E6.9963
G1 X152.190 Y40.720 E6.9986
G1 X152.435 Y40.772 E7.0129
G1 X152.475 Y40.782 E7.0153
G1 X155.953 Y41.714 E7.2208
G1 X155.992 Y41.725 E7.2232
G1 X156.231 Y41.803 E7.2375
G1 X156.269 Y41.817 E7.2399
G1 X159.631 Y43.107 E7.4454
G1 X159.669 Y43.123 E7.4478
G1 X159.898 Y43.225 E7.4621
G1 X159.935 Y43.242 E7.4645
G1 X163.143 Y44.877 E7.6700
G1 X163.179 Y44.896 E7.6724
G1 X163.396 Y45.022 E7.6867
G1 X163.431 Y45.043 E7.6891
G1 X166.451 Y47.004 E7.8946
G1 X166.485 Y47.027 E7.8970
G1 X166.687 Y47.175 E7.9113
G1 X166.720 Y47.200 E7.9136
G1 X169.518 Y49.466 E8.1192
G1 X169.549 Y49.492 E8.1216
G1 X169.736 Y49.660 E8.1359
G1 X169.766 Y49.689 E8.1382
G1 X172.311 Y52.234 E8.3438
G1 X172.340 Y52.264 E8.3461
G1 X172.508 Y52.451 E8.3605
G1 X172.534 Y52.482 E8.3628
G1 X174.800 Y55.280 E8.5684
G1 X174.825 Y55.313 E8.5707
G1 X174.972 Y55.515 E8.5851
G1 X174.996 Y55.549 E8.5874
G1 X176.957 Y58.569 E8.7930
G1 X176.978 Y58.604 E8.7953
G1 X177.104 Y58.821 E8.8096
G1 X177.123 Y58.857 E8.8120
G1 X178.758 Y62.065 E9.0176
G1 X178.775 Y62.102 E9.0199
G1 X178.877 Y62.331 E9.0342
G1 X178.893 Y62.369 E9.0366
G1 X180.183 Y65.731 E9.2421
G1 X180.197 Y65.769 E9.2445
G1 X180.275 Y66.008 E9.2588
G1 X180.286 Y66.047 E9.2612
G1 X181.218 Y69.525 E9.4667
G1 X181.228 Y69.565 E9.4691
G1 X181.280 Y69.810 E9.4834
G1 X181.287 Y69.851 E9.4858
G1 X181.851 Y73.407 E9.6913
G1 X181.856 Y73.448 E9.6937
G1 X181.882 Y73.697 E9.7080
G1 X181.886 Y73.738 E9.7103
G1 X182.074 Y77.333 E9.9159
G1 X182.075 Y77.375 E9.9183
G1 X182.075 Y77.625 E9.9326
G1 X182.074 Y77.667 E9.9349
G1 X181.886 Y81.262 E10.1405
G1 X181.882 Y81.303 E10.1429
G1 X181.856 Y81.552 E10.1572
G1 X181.851 Y81.593 E10.1595
G1 X181.287 Y85.149 E10.3651
G1 X181.280 Y85.190 E10.3674
G1 X181.228 Y85.435 E10.3818
G1 X181.218 Y85.475 E10.3841
G1 X180.286 Y88.953 E10.5897
G1 X180.275 Y88.992 E10.5920
G1 X180.197 Y89.231 E10.6063
G1 X180.183 Y89.269 E10.6087
G1 X178.893 Y92.630 E10.8143
G1 X178.877 Y92.669 E10.8166
G1 X178.775 Y92.898 E10.8309
G1 X178.758 Y92.935 E10.8333
G1 X177.123 Y96.143 E11.0389
G1 X177.104 Y96.179 E11.0412
G1 X176.978 Y96.396 E11.0555
G1 X176.957 Y96.431 E11.0579
G1 X174.996 Y99.451 E11.2634
G1 X174.972 Y99.485 E11.2658
G1 X174.825 Y99.687 E11.2801
G1 X174.800 Y99.720 E11.2825
G1 X172.534 Y102.518 E11.4880
G1 X172.508 Y102.549 E11.4904
G1 X172.340 Y102.736 E11.5047
G1 X172.311 Y102.766 E11.5071
G1 X169.766 Y105.311 E11.7126
G1 X169.736 Y105.340 E11.7150
G1 X169.549 Y105.508 E11.7293
G1 X169.518 Y105.534 E11.7316
G1 X166.720 Y107.800 E11.9372
G1 X166.687 Y107.825 E11.9396
G1 X166.485 Y107.972 E11.9539
G1 X166.451 Y107.996 E11.9562
G1 X163.431 Y109.957 E12.1618
G1 X163.396 Y109.978 E12.1641
G1 X163.179 Y110.104 E12.1785
G1 X163.143 Y110.123 E12.1808
G1 X159.935 Y111.758 E12.3864
G1 X159.898 Y111.775 E12.3887
G1 X159.669 Y111.877 E12.4031
G1 X159.631 Y111.893 E12.4054
G1 X156.269 Y113.183 E12.6110
G1 X156.231 Y113.197 E12.6133
G1 X155.992 Y113.275 E12.6276
G1 X155.953 Y113.286 E12.6300
G1 X155.662 Y113.364 E12.6471
G1 X156.143 Y113.609 E12.6779
G1 X156.179 Y113.628 E12.6803
G1 X156.396 Y113.754 E12.6946
G1 X156.431 Y113.775 E12.6969
G1 X159.275 Y115.622 E12.8905
G1 X159.309 Y115.645 E12.8929
G1 X159.512 Y115.793 E12.9072
G1 X159.545 Y115.818 E12.9096
G1 X162.180 Y117.952 E13.1032
G1 X162.211 Y117.979 E13.1055
G1 X162.397 Y118.147 E13.1199
G1 X162.427 Y118.175 E13.1222
G1 X164.825 Y120.573 E13.3158
G1 X164.854 Y120.603 E13.3182
G1 X165.021 Y120.789 E13.3325
G1 X165.048 Y120.820 E13.3348
G1 X167.182 Y123.455 E13.5285
G1 X167.207 Y123.488 E13.5308
G1 X167.354 Y123.691 E13.5451
G1 X167.378 Y123.725 E13.5475
G1 X169.225 Y126.569 E13.7411
G1 X169.246 Y126.604 E13.7435
G1 X169.372 Y126.821 E13.7578
G1 X169.391 Y126.857 E13.7601
G1 X170.931 Y129.879 E13.9537
G1 X170.948 Y129.916 E13.9561
G1 X171.050 Y130.145 E13.9704
G1 X171.066 Y130.183 E13.9728
G1 X172.281 Y133.349 E14.1664
G1 X172.295 Y133.388 E14.1687
G1 X172.373 Y133.626 E14.1830
G1 X172.384 Y133.665 E14.1854
G1 X173.262 Y136.941 E14.3790
G1 X173.272 Y136.981 E14.3814
G1 X173.324 Y137.226 E14.3957
G1 X173.331 Y137.267 E14.3980
G1 X173.862 Y140.616 E14.5916
G1 X173.867 Y140.657 E14.5940
G1 X173.893 Y140.906 E14.6083
G1 X173.896 Y140.947 E14.6107
G1 X174.074 Y144.333 E14.8043
G1 X174.075 Y144.375 E14.8066
G1 X174.075 Y144.625 E14.8209
G1 X174.074 Y144.667 E14.8233
G1 X173.896 Y148.053 E15.0169
G1 X173.893 Y148.094 E15.0193
G1 X173.867 Y148.343 E15.0336
G1 X173.862 Y148.384 E15.0359
G1 X173.331 Y151.733 E15.2295
G1 X173.324 Y151.774 E15.2319
G1 X173.272 Y152.019 E15.2462
G1 X173.262 Y152.059 E15.2486
G1 X172.384 Y155.334 E15.4422
G1 X172.373 Y155.374 E15.4445
G1 X172.295 Y155.612 E15.4588
G1 X172.281 Y155.651 E15.4612
G1 X171.066 Y158.817 E15.6548
G1 X171.050 Y158.855 E15.6572
G1 X170.948 Y159.084 E15.6715
G1 X170.931 Y159.121 E15.6738
G1 X169.391 Y162.143 E15.8674
G1 X169.372 Y162.179 E15.8698
G1 X169.246 Y162.396 E15.8841
G1 X169.225 Y162.431 E15.8865
G1 X167.378 Y165.275 E16.0801
G1 X167.355 Y165.309 E16.0824
G1 X167.207 Y165.512 E16.0967
G1 X167.182 Y165.545 E16.0991
G1 X165.048 Y168.180 E16.2927
G1 X165.021 Y168.211 E16.2951
G1 X164.853 Y168.397 E16.3094
G1 X164.825 Y168.427 E16.3117
G1 X162.427 Y170.825 E16.5054
G1 X162.397 Y170.853 E16.5077
G1 X162.211 Y171.021 E16.5220
G1 X162.180 Y171.048 E16.5244
G1 X159.545 Y173.182 E16.7180
G1 X159.512 Y173.207 E16.7203
G1 X159.309 Y173.355 E16.7347
G1 X159.275 Y173.378 E16.7370
G1 X156.431 Y175.225 E16.9306
G1 X156.396 Y175.246 E16.9330
G1 X156.179 Y175.372 E16.9473
G1 X156.143 Y175.391 E16.9496
G1 X153.121 Y176.931 E17.1433
G1 X153.084 Y176.948 E17.1456
G1 X152.855 Y177.050 E17.1599
G1 X152.817 Y177.066 E17.1623
G1 X149.651 Y178.281 E17.3559
G1 X149.612 Y178.295 E17.3583
G1 X149.374 Y178.373 E17.3726
