; G-Code generated by Simplify3D(R) Version 4.0.0
; Apr 3, 2018 at 2:29:54 PM
; Settings Summary
;   processName,Process1
;   applyToModels,wire_threads_h10
;   profileName,Anettina (modified)
;   profileVersion,2018-01-26 14:48:52
;   baseProfile,Default
;   printMaterial,PLA
;   printQuality,Fast
;   printExtruders,
;   extruderName,Extruder
;   extruderToolheadNumber,0
;   extruderDiameter,0.4
;   extruderAutoWidth,0
;   extruderWidth,0.45
;   extrusionMultiplier,1
;   extruderUseRetract,1
;   extruderRetractionDistance,7
;   extruderExtraRestartDistance,0
;   extruderRetractionZLift,0
;   extruderRetractionSpeed,1200
;   extruderUseCoasting,1
;   extruderCoastingDistance,2
;   extruderUseWipe,1
;   extruderWipeDistance,5
;   primaryExtruder,0
;   layerHeight,0.2
;   topSolidLayers,3
;   bottomSolidLayers,3
;   perimeterOutlines,3
;   printPerimetersInsideOut,1
;   startPointOption,2
;   startPointOriginX,0
;   startPointOriginY,0
;   sequentialIslands,0
;   spiralVaseMode,0
;   firstLayerHeightPercentage,100
;   firstLayerWidthPercentage,120
;   firstLayerUnderspeed,0.5
;   useRaft,0
;   raftExtruder,0
;   raftTopLayers,3
;   raftBaseLayers,2
;   raftOffset,3
;   raftSeparationDistance,0.14
;   raftTopInfill,100
;   aboveRaftSpeedMultiplier,0.3
;   useSkirt,1
;   skirtExtruder,0
;   skirtLayers,1
;   skirtOutlines,4
;   skirtOffset,4
;   usePrimePillar,0
;   primePillarExtruder,999
;   primePillarWidth,12
;   primePillarLocation,7
;   primePillarSpeedMultiplier,1
;   useOozeShield,0
;   oozeShieldExtruder,999
;   oozeShieldOffset,2
;   oozeShieldOutlines,1
;   oozeShieldSidewallShape,1
;   oozeShieldSidewallAngle,30
;   oozeShieldSpeedMultiplier,1
;   infillExtruder,0
;   internalInfillPattern,Rectilinear
;   externalInfillPattern,Rectilinear
;   infillPercentage,15
;   outlineOverlapPercentage,20
;   infillExtrusionWidthPercentage,100
;   minInfillLength,5
;   infillLayerInterval,1
;   internalInfillAngles,45,-45
;   overlapInternalInfillAngles,0
;   externalInfillAngles,45,-45
;   generateSupport,0
;   supportExtruder,0
;   supportInfillPercentage,25
;   supportExtraInflation,0
;   supportBaseLayers,1
;   denseSupportExtruder,0
;   denseSupportLayers,0
;   denseSupportInfillPercentage,70
;   supportLayerInterval,1
;   supportHorizontalPartOffset,0.3
;   supportUpperSeparationLayers,1
;   supportLowerSeparationLayers,1
;   supportType,0
;   supportGridSpacing,4
;   maxOverhangAngle,45
;   supportAngles,0
;   temperatureName,Extruder,Heated Bed
;   temperatureNumber,0,0
;   temperatureSetpointCount,1,1
;   temperatureSetpointLayers,1,1
;   temperatureSetpointTemperatures,200,60
;   temperatureStabilizeAtStartup,1,1
;   temperatureHeatedBed,0,1
;   temperatureRelayBetweenLayers,0,0
;   temperatureRelayBetweenLoops,0,0
;   fanLayers,1,2
;   fanSpeeds,0,100
;   blipFanToFullPower,0
;   adjustSpeedForCooling,1
;   minSpeedLayerTime,15
;   minCoolingSpeedSlowdown,20
;   increaseFanForCooling,0
;   minFanLayerTime,45
;   maxCoolingFanSpeed,100
;   increaseFanForBridging,0
;   bridgingFanSpeed,100
;   use5D,1
;   relativeEdistances,0
;   allowEaxisZeroing,1
;   independentExtruderAxes,0
;   includeM10123,0
;   stickySupport,1
;   applyToolheadOffsets,0
;   gcodeXoffset,0
;   gcodeYoffset,0
;   gcodeZoffset,0
;   overrideMachineDefinition,1
;   machineTypeOverride,0
;   strokeXoverride,220
;   strokeYoverride,220
;   strokeZoverride,240
;   originOffsetXoverride,0
;   originOffsetYoverride,0
;   originOffsetZoverride,0
;   homeXdirOverride,-1
;   homeYdirOverride,-1
;   homeZdirOverride,-1
;   flipXoverride,1
;   flipYoverride,-1
;   flipZoverride,1
;   toolheadOffsets,0,0|0,0|0,0|0,0|0,0|0,0
;   overrideFirmwareConfiguration,0
;   firmwareTypeOverride,RepRap (Marlin/Repetier/Sprinter)
;   GPXconfigOverride,r2
;   baudRateOverride,115200
;   overridePrinterModels,0
;   printerModelsOverride
;   startingGcode,G21 ;metric values,G90 ;absolute positioning,M82 ;set extruder to absolute mode,M107 ;start with the fan off,G28 X0 Y0 ;move X/Y to min endstops,G28 Z0 ;move Z to min endstops,G1 Z15.0 F9000 ;move the platform down 15mm,G92 E0 ;zero the extruded length,G1 F200 E3 ;extrude 3mm of feed stock,G92 E0 ;zero the extruded length again,G1 F9000,M117 Printing...
;   layerChangeGcode,
;   retractionGcode,
;   toolChangeGcode,
;   endingGcode,M104 S0 ; turn off extruder,M140 S0 ; turn off bed,G91 ;relative positioning,G1 E-1 F300  ;retract the filament a bit before lifting the nozzle, to release some of the pressure,G1 Z+0.5 E-5 X-20 Y-20 F9000 ;move Z up a bit and retract filament even more,G28 X0 Y0 ;move X/Y to min endstops, so the head is out of the way,G90 ;absolute positioning,G1 Y190 F9000 ;use this line if you want the bed to move to the front. delete if not.,M84 ;steppers off,M107 ; shut off fan,
;   exportFileFormat,gcode
;   celebration,0
;   celebrationSong,Random Song
;   postProcessing,
;   defaultSpeed,3600
;   outlineUnderspeed,0.5
;   solidInfillUnderspeed,0.8
;   supportUnderspeed,0.8
;   rapidXYspeed,4800
;   rapidZspeed,1002
;   minBridgingArea,50
;   bridgingExtraInflation,0
;   bridgingExtrusionMultiplier,1
;   bridgingSpeedMultiplier,1
;   useFixedBridgingAngle,0
;   fixedBridgingAngle,0
;   applyBridgingToPerimeters,0
;   filamentDiameters,1.7|1.7|1.7|1.7|1.7|1.7
;   filamentPricesPerKg,20|20|20|20|20|20
;   filamentDensities,1.25|1.25|1.25|1.25|1.25|1.25
;   useMinPrintHeight,0
;   minPrintHeight,0
;   useMaxPrintHeight,0
;   maxPrintHeight,0
;   useDiaphragm,0
;   diaphragmLayerInterval,20
;   robustSlicing,1
;   mergeAllIntoSolid,0
;   onlyRetractWhenCrossingOutline,1
;   retractBetweenLayers,1
;   useRetractionMinTravel,0
;   retractionMinTravel,3
;   retractWhileWiping,0
;   onlyWipeOutlines,1
;   avoidCrossingOutline,0
;   maxMovementDetourFactor,3
;   toolChangeRetractionDistance,12
;   toolChangeExtraRestartDistance,-0.5
;   toolChangeRetractionSpeed,600
;   externalThinWallType,0
;   internalThinWallType,2
;   thinWallAllowedOverlapPercentage,10
;   singleExtrusionMinLength,1
;   singleExtrusionMinPrintingWidthPercentage,50
;   singleExtrusionMaxPrintingWidthPercentage,200
;   singleExtrusionEndpointExtension,0.2
;   horizontalSizeCompensation,0
G90
M82
M106 S0
M140 S60
M190 S60
M104 S200 T0
M109 S200 T0
G21 ;metric values
G90 ;absolute positioning
M82 ;set extruder to absolute mode
M107 ;start with the fan off
G28 X0 Y0 ;move X/Y to min endstops
G28 Z0 ;move Z to min endstops
G1 Z15.0 F9000 ;move the platform down 15mm
G92 E0 ;zero the extruded length
G1 F200 E3 ;extrude 3mm of feed stock
G92 E0 ;zero the extruded length again
G1 F9000
M117 Printing...
G92 E0
G1 E-7.0000 F1200
G1 Z0.200 F1002
; process Process1
; layer 1, Z = 0.200
T0
; tool H0.200 W0.540
; skirt
G1 X84.664 Y86.479 F4800
G1 E0.0000 F360
G92 E0
G1 X84.692 Y86.449 E0.0019 F1800
G1 X86.899 Y84.282 E0.1491
G1 X86.928 Y84.256 E0.1510
G1 X87.104 Y84.099 E0.1622
G1 X87.133 Y84.074 E0.1640
G1 X89.539 Y82.138 E0.3110
G1 X89.570 Y82.114 E0.3128
G1 X89.760 Y81.976 E0.3240
G1 X89.792 Y81.954 E0.3259
G1 X92.376 Y80.263 E0.4728
G1 X92.409 Y80.242 E0.4746
G1 X92.612 Y80.123 E0.4858
G1 X92.646 Y80.104 E0.4877
G1 X95.384 Y78.676 E0.6346
G1 X95.419 Y78.659 E0.6365
G1 X95.633 Y78.560 E0.6477
G1 X95.668 Y78.545 E0.6495
G1 X98.533 Y77.392 E0.7965
G1 X98.569 Y77.378 E0.7983
G1 X98.792 Y77.301 E0.8095
G1 X98.829 Y77.289 E0.8114
G1 X101.793 Y76.423 E0.9583
G1 X101.831 Y76.413 E0.9601
G1 X102.060 Y76.359 E0.9714
G1 X102.098 Y76.350 E0.9732
G1 X105.133 Y75.780 E1.1201
G1 X105.171 Y75.774 E1.1220
G1 X105.405 Y75.742 E1.1332
G1 X105.443 Y75.737 E1.1350
G1 X108.519 Y75.468 E1.2820
G1 X108.558 Y75.466 E1.2838
G1 X108.793 Y75.457 E1.2950
G1 X108.832 Y75.456 E1.2969
G1 X111.920 Y75.490 E1.4438
G1 X111.959 Y75.491 E1.4457
G1 X112.194 Y75.506 E1.4569
G1 X112.233 Y75.509 E1.4587
G1 X115.303 Y75.846 E1.6057
G1 X115.341 Y75.851 E1.6075
G1 X115.574 Y75.889 E1.6187
G1 X115.612 Y75.896 E1.6206
G1 X118.643 Y76.535 E1.7680
G1 X118.681 Y76.544 E1.7698
G1 X118.912 Y76.605 E1.7812
G1 X118.949 Y76.616 E1.7830
G1 X121.952 Y77.570 E1.9329
G1 X121.988 Y77.582 E1.9348
G1 X122.208 Y77.664 E1.9459
G1 X122.244 Y77.678 E1.9478
G1 X125.152 Y78.927 E2.0984
G1 X125.183 Y78.941 E2.0999
G1 X125.366 Y79.028 E2.1096
G1 X125.395 Y79.043 E2.1112
G1 X128.395 Y80.644 E2.2730
G1 X128.433 Y80.665 E2.2750
G1 X128.656 Y80.801 E2.2874
G1 X128.692 Y80.824 E2.2895
G1 X131.525 Y82.759 E2.4527
G1 X131.560 Y82.784 E2.4548
G1 X131.767 Y82.942 E2.4672
G1 X131.800 Y82.969 E2.4692
G1 X134.411 Y85.205 E2.6328
G1 X134.443 Y85.233 E2.6348
G1 X134.631 Y85.413 E2.6472
G1 X134.661 Y85.444 E2.6492
G1 X137.017 Y87.952 E2.8130
G1 X137.045 Y87.984 E2.8150
G1 X137.213 Y88.183 E2.8274
G1 X137.239 Y88.217 E2.8294
G1 X139.311 Y90.969 E2.9933
G1 X139.336 Y91.004 E2.9953
G1 X139.480 Y91.219 E3.0077
G1 X139.503 Y91.255 E3.0097
G1 X141.267 Y94.219 E3.1738
G1 X141.287 Y94.256 E3.1758
G1 X141.408 Y94.486 E3.1882
G1 X141.427 Y94.524 E3.1902
G1 X142.860 Y97.664 E3.3545
G1 X142.877 Y97.704 E3.3565
G1 X142.972 Y97.945 E3.3688
G1 X142.986 Y97.985 E3.3708
G1 X144.074 Y101.265 E3.5353
G1 X144.086 Y101.306 E3.5373
G1 X144.154 Y101.556 E3.5496
G1 X144.164 Y101.597 E3.5516
G1 X144.892 Y104.979 E3.7163
G1 X144.900 Y105.021 E3.7183
G1 X144.941 Y105.276 E3.7306
G1 X144.946 Y105.318 E3.7326
G1 X145.306 Y108.763 E3.8974
G1 X145.309 Y108.805 E3.8994
G1 X145.322 Y109.063 E3.9117
G1 X145.323 Y109.106 E3.9137
G1 X145.310 Y112.575 E4.0788
G1 X145.309 Y112.618 E4.0808
G1 X145.294 Y112.880 E4.0933
G1 X145.290 Y112.922 E4.0954
G1 X144.887 Y116.468 E4.2651
G1 X144.881 Y116.510 E4.2672
G1 X144.838 Y116.766 E4.2795
G1 X144.829 Y116.807 E4.2815
G1 X144.447 Y118.507 E4.3644
G1 X144.445 Y118.516 E4.3649
G1 X144.431 Y118.574 E4.3677
G1 X144.429 Y118.583 E4.3681
G1 X143.815 Y121.027 E4.4881
G1 X143.799 Y121.083 E4.4908
G1 X143.689 Y121.415 E4.5074
G1 X143.669 Y121.469 E4.5102
G1 X142.398 Y124.543 E4.6685
G1 X142.382 Y124.579 E4.6703
G1 X142.281 Y124.792 E4.6816
G1 X142.264 Y124.827 E4.6834
G1 X140.809 Y127.549 E4.8303
G1 X140.791 Y127.581 E4.8320
G1 X140.679 Y127.769 E4.8424
G1 X140.660 Y127.799 E4.8441
G1 X139.100 Y130.170 E4.9791
G1 X139.079 Y130.200 E4.9809
G1 X138.949 Y130.379 E4.9914
G1 X138.927 Y130.408 E4.9932
G1 X136.979 Y132.843 E5.1415
G1 X136.954 Y132.872 E5.1434
G1 X136.801 Y133.046 E5.1544
G1 X136.775 Y133.074 E5.1562
G1 X134.631 Y135.279 E5.3025
G1 X134.605 Y135.305 E5.3043
G1 X134.445 Y135.455 E5.3147
G1 X134.418 Y135.479 E5.3165
G1 X132.261 Y137.324 E5.4515
G1 X132.233 Y137.348 E5.4532
G1 X132.057 Y137.484 E5.4638
G1 X132.028 Y137.506 E5.4656
G1 X129.485 Y139.301 E5.6137
G1 X129.453 Y139.322 E5.6155
G1 X129.256 Y139.447 E5.6266
G1 X129.223 Y139.467 E5.6284
G1 X126.516 Y141.008 E5.7766
G1 X126.482 Y141.026 E5.7785
G1 X126.274 Y141.132 E5.7896
G1 X126.239 Y141.148 E5.7914
G1 X123.396 Y142.417 E5.9395
G1 X123.361 Y142.431 E5.9413
G1 X123.143 Y142.516 E5.9525
G1 X123.107 Y142.529 E5.9543
G1 X120.156 Y143.514 E6.1023
G1 X120.120 Y143.525 E6.1041
G1 X119.894 Y143.588 E6.1153
G1 X119.857 Y143.598 E6.1171
G1 X116.827 Y144.289 E6.2649
G1 X116.790 Y144.297 E6.2668
G1 X116.559 Y144.338 E6.2779
G1 X116.521 Y144.343 E6.2798
G1 X113.441 Y144.735 E6.4275
G1 X113.403 Y144.739 E6.4293
G1 X113.169 Y144.758 E6.4405
G1 X113.130 Y144.760 E6.4423
G1 X110.030 Y144.848 E6.5899
G1 X109.992 Y144.849 E6.5917
G1 X109.759 Y144.844 E6.6028
G1 X109.721 Y144.842 E6.6046
G1 X106.683 Y144.633 E6.7495
G1 X106.648 Y144.630 E6.7512
G1 X106.432 Y144.605 E6.7615
G1 X106.396 Y144.600 E6.7632
G1 X103.722 Y144.170 E6.8921
G1 X103.688 Y144.164 E6.8937
G1 X103.486 Y144.122 E6.9036
G1 X103.453 Y144.114 E6.9052
G1 X100.797 Y143.448 E7.0355
G1 X100.762 Y143.439 E7.0372
G1 X100.554 Y143.376 E7.0475
G1 X100.520 Y143.365 E7.0492
G1 X97.729 Y142.389 E7.1899
G1 X97.695 Y142.376 E7.1917
G1 X97.490 Y142.294 E7.2022
G1 X97.457 Y142.280 E7.2039
G1 X94.724 Y141.031 E7.3468
G1 X94.694 Y141.016 E7.3484
G1 X94.511 Y140.923 E7.3582
G1 X94.482 Y140.907 E7.3598
G1 X91.520 Y139.235 E7.5216
G1 X91.483 Y139.212 E7.5237
G1 X91.263 Y139.072 E7.5361
G1 X91.227 Y139.047 E7.5382
G1 X88.443 Y137.045 E7.7013
G1 X88.409 Y137.019 E7.7034
G1 X88.205 Y136.855 E7.7158
G1 X88.172 Y136.827 E7.7179
G1 X85.623 Y134.533 E7.8811
G1 X85.592 Y134.504 E7.8831
G1 X85.407 Y134.318 E7.8956
G1 X85.377 Y134.287 E7.8976
G1 X83.094 Y131.729 E8.0608
G1 X83.066 Y131.696 E8.0628
G1 X82.902 Y131.491 E8.0753
G1 X82.877 Y131.457 E8.0773
G1 X80.885 Y128.665 E8.2405
G1 X80.861 Y128.629 E8.2425
G1 X80.721 Y128.408 E8.2550
G1 X80.699 Y128.371 E8.2570
G1 X79.024 Y125.379 E8.4202
G1 X79.004 Y125.341 E8.4223
G1 X78.889 Y125.106 E8.4347
G1 X78.871 Y125.066 E8.4368
G1 X77.533 Y121.909 E8.5999
G1 X77.517 Y121.869 E8.6020
G1 X77.428 Y121.623 E8.6144
G1 X77.415 Y121.582 E8.6165
G1 X76.429 Y118.297 E8.7797
G1 X76.418 Y118.256 E8.7817
G1 X76.356 Y118.001 E8.7942
G1 X76.347 Y117.959 E8.7962
G1 X75.725 Y114.587 E8.9594
G1 X75.719 Y114.544 E8.9614
G1 X75.685 Y114.285 E8.9739
G1 X75.681 Y114.242 E8.9759
G1 X75.431 Y110.821 E9.1391
G1 X75.429 Y110.778 E9.1412
G1 X75.424 Y110.517 E9.1536
G1 X75.424 Y110.474 E9.1557
G1 X75.548 Y107.046 E9.3189
G1 X75.551 Y107.003 E9.3209
G1 X75.575 Y106.743 E9.3334
G1 X75.580 Y106.700 E9.3354
G1 X76.077 Y103.306 E9.4986
G1 X76.085 Y103.264 E9.5007
G1 X76.137 Y103.007 E9.5131
G1 X76.147 Y102.965 E9.5152
G1 X77.011 Y99.646 E9.6784
G1 X77.023 Y99.605 E9.6804
G1 X77.103 Y99.356 E9.6929
G1 X77.117 Y99.315 E9.6949
G1 X78.339 Y96.110 E9.8581
G1 X78.355 Y96.070 E9.8602
G1 X78.462 Y95.831 E9.8726
G1 X78.480 Y95.792 E9.8747
G1 X80.044 Y92.739 E10.0379
G1 X80.065 Y92.701 E10.0399
G1 X80.197 Y92.475 E10.0524
G1 X80.220 Y92.438 E10.0544
G1 X82.107 Y89.575 E10.2176
G1 X82.132 Y89.540 E10.2197
G1 X82.286 Y89.331 E10.2321
G1 X82.313 Y89.297 E10.2341
G1 X83.378 Y88.010 E10.3136
G1 X84.470 Y86.691 F1800
G1 X84.497 Y86.661 F1800
G1 X84.664 Y86.479 F1800
G1 X84.991 Y86.787 F4800
G92 E0
G1 X85.011 Y86.767 E0.0014 F1800
G1 X87.211 Y84.607 E0.1480
G1 X87.231 Y84.588 E0.1494
G1 X87.399 Y84.439 E0.1600
G1 X87.420 Y84.421 E0.1614
G1 X89.817 Y82.492 E0.3078
G1 X89.839 Y82.475 E0.3091
G1 X90.020 Y82.343 E0.3198
G1 X90.043 Y82.327 E0.3211
G1 X92.618 Y80.642 E0.4675
G1 X92.641 Y80.628 E0.4688
G1 X92.835 Y80.514 E0.4795
G1 X92.859 Y80.501 E0.4808
G1 X95.587 Y79.077 E0.6272
G1 X95.612 Y79.065 E0.6285
G1 X95.816 Y78.971 E0.6392
G1 X95.841 Y78.960 E0.6405
G1 X98.696 Y77.811 E0.7869
G1 X98.722 Y77.802 E0.7883
G1 X98.934 Y77.728 E0.7989
G1 X98.960 Y77.720 E0.8003
G1 X101.914 Y76.857 E0.9467
G1 X101.941 Y76.850 E0.9480
G1 X102.159 Y76.798 E0.9587
G1 X102.186 Y76.792 E0.9600
G1 X105.211 Y76.223 E1.1064
G1 X105.238 Y76.219 E1.1077
G1 X105.460 Y76.188 E1.1184
G1 X105.488 Y76.185 E1.1197
G1 X108.553 Y75.917 E1.2661
G1 X108.581 Y75.915 E1.2675
G1 X108.805 Y75.906 E1.2781
G1 X108.833 Y75.906 E1.2795
G1 X111.910 Y75.940 E1.4259
G1 X111.937 Y75.941 E1.4272
G1 X112.162 Y75.954 E1.4379
G1 X112.189 Y75.957 E1.4392
G1 X115.248 Y76.293 E1.5856
G1 X115.275 Y76.297 E1.5869
G1 X115.497 Y76.332 E1.5976
G1 X115.525 Y76.337 E1.5989
G1 X118.544 Y76.974 E1.7458
G1 X118.572 Y76.981 E1.7471
G1 X118.791 Y77.039 E1.7579
G1 X118.818 Y77.047 E1.7593
G1 X121.810 Y77.997 E1.9086
G1 X121.836 Y78.006 E1.9100
G1 X122.046 Y78.084 E1.9206
G1 X122.071 Y78.094 E1.9219
G1 X124.971 Y79.338 E2.0720
G1 X124.992 Y79.348 E2.0731
G1 X125.166 Y79.432 E2.0823
G1 X125.188 Y79.443 E2.0835
G1 X128.178 Y81.038 E2.2447
G1 X128.205 Y81.053 E2.2462
G1 X128.418 Y81.182 E2.2580
G1 X128.443 Y81.199 E2.2595
G1 X131.266 Y83.127 E2.4221
G1 X131.291 Y83.145 E2.4236
G1 X131.488 Y83.296 E2.4354
G1 X131.512 Y83.315 E2.4369
G1 X134.114 Y85.543 E2.5999
G1 X134.136 Y85.563 E2.6013
G1 X134.316 Y85.735 E2.6131
G1 X134.338 Y85.756 E2.6146
G1 X136.685 Y88.256 E2.7777
G1 X136.705 Y88.279 E2.7792
G1 X136.865 Y88.469 E2.7910
G1 X136.884 Y88.492 E2.7924
G1 X138.948 Y91.234 E2.9557
G1 X138.965 Y91.259 E2.9572
G1 X139.103 Y91.465 E2.9690
G1 X139.120 Y91.491 E2.9704
G1 X140.877 Y94.444 E3.1339
G1 X140.892 Y94.470 E3.1354
G1 X141.006 Y94.689 E3.1471
G1 X141.020 Y94.717 E3.1486
G1 X142.449 Y97.846 E3.3123
