; G-Code generated by Simplify3D(R) Version 4.0.0
; Apr 3, 2018 at 8:12:18 PM
; Settings Summary
;   processName,Process1
;   applyToModels,wire_threads_rev3
;   profileName,Anettina (modified)
;   profileVersion,2018-01-26 14:48:52
;   baseProfile,Default
;   printMaterial,PLA
;   printQuality,Fast
;   printExtruders,
;   extruderName,Extruder
;   extruderToolheadNumber,0
;   extruderDiameter,0.4
;   extruderAutoWidth,0
;   extruderWidth,0.45
;   extrusionMultiplier,1
;   extruderUseRetract,1
;   extruderRetractionDistance,7
;   extruderExtraRestartDistance,0
;   extruderRetractionZLift,0
;   extruderRetractionSpeed,1200
;   extruderUseCoasting,1
;   extruderCoastingDistance,2
;   extruderUseWipe,1
;   extruderWipeDistance,5
;   primaryExtruder,0
;   layerHeight,0.2
;   topSolidLayers,3
;   bottomSolidLayers,3
;   perimeterOutlines,3
;   printPerimetersInsideOut,1
;   startPointOption,2
;   startPointOriginX,0
;   startPointOriginY,0
;   sequentialIslands,0
;   spiralVaseMode,0
;   firstLayerHeightPercentage,100
;   firstLayerWidthPercentage,120
;   firstLayerUnderspeed,0.5
;   useRaft,0
;   raftExtruder,0
;   raftTopLayers,3
;   raftBaseLayers,2
;   raftOffset,3
;   raftSeparationDistance,0.14
;   raftTopInfill,100
;   aboveRaftSpeedMultiplier,0.3
;   useSkirt,1
;   skirtExtruder,0
;   skirtLayers,1
;   skirtOutlines,4
;   skirtOffset,4
;   usePrimePillar,0
;   primePillarExtruder,999
;   primePillarWidth,12
;   primePillarLocation,7
;   primePillarSpeedMultiplier,1
;   useOozeShield,0
;   oozeShieldExtruder,999
;   oozeShieldOffset,2
;   oozeShieldOutlines,1
;   oozeShieldSidewallShape,1
;   oozeShieldSidewallAngle,30
;   oozeShieldSpeedMultiplier,1
;   infillExtruder,0
;   internalInfillPattern,Rectilinear
;   externalInfillPattern,Rectilinear
;   infillPercentage,15
;   outlineOverlapPercentage,20
;   infillExtrusionWidthPercentage,100
;   minInfillLength,5
;   infillLayerInterval,1
;   internalInfillAngles,45,-45
;   overlapInternalInfillAngles,0
;   externalInfillAngles,45,-45
;   generateSupport,0
;   supportExtruder,0
;   supportInfillPercentage,25
;   supportExtraInflation,0
;   supportBaseLayers,1
;   denseSupportExtruder,0
;   denseSupportLayers,0
;   denseSupportInfillPercentage,70
;   supportLayerInterval,1
;   supportHorizontalPartOffset,0.3
;   supportUpperSeparationLayers,1
;   supportLowerSeparationLayers,1
;   supportType,0
;   supportGridSpacing,4
;   maxOverhangAngle,45
;   supportAngles,0
;   temperatureName,Extruder,Heated Bed
;   temperatureNumber,0,0
;   temperatureSetpointCount,1,1
;   temperatureSetpointLayers,1,1
;   temperatureSetpointTemperatures,200,60
;   temperatureStabilizeAtStartup,1,1
;   temperatureHeatedBed,0,1
;   temperatureRelayBetweenLayers,0,0
;   temperatureRelayBetweenLoops,0,0
;   fanLayers,1,2
;   fanSpeeds,0,100
;   blipFanToFullPower,0
;   adjustSpeedForCooling,1
;   minSpeedLayerTime,15
;   minCoolingSpeedSlowdown,20
;   increaseFanForCooling,0
;   minFanLayerTime,45
;   maxCoolingFanSpeed,100
;   increaseFanForBridging,0
;   bridgingFanSpeed,100
;   use5D,1
;   relativeEdistances,0
;   allowEaxisZeroing,1
;   independentExtruderAxes,0
;   includeM10123,0
;   stickySupport,1
;   applyToolheadOffsets,0
;   gcodeXoffset,0
;   gcodeYoffset,0
;   gcodeZoffset,0
;   overrideMachineDefinition,1
;   machineTypeOverride,0
;   strokeXoverride,220
;   strokeYoverride,220
;   strokeZoverride,240
;   originOffsetXoverride,0
;   originOffsetYoverride,0
;   originOffsetZoverride,0
;   homeXdirOverride,-1
;   homeYdirOverride,-1
;   homeZdirOverride,-1
;   flipXoverride,1
;   flipYoverride,-1
;   flipZoverride,1
;   toolheadOffsets,0,0|0,0|0,0|0,0|0,0|0,0
;   overrideFirmwareConfiguration,0
;   firmwareTypeOverride,RepRap (Marlin/Repetier/Sprinter)
;   GPXconfigOverride,r2
;   baudRateOverride,115200
;   overridePrinterModels,0
;   printerModelsOverride
;   startingGcode,G21 ;metric values,G90 ;absolute positioning,M82 ;set extruder to absolute mode,M107 ;start with the fan off,G28 X0 Y0 ;move X/Y to min endstops,G28 Z0 ;move Z to min endstops,G1 Z15.0 F9000 ;move the platform down 15mm,G92 E0 ;zero the extruded length,G1 F200 E3 ;extrude 3mm of feed stock,G92 E0 ;zero the extruded length again,G1 F9000,M117 Printing...
;   layerChangeGcode,
;   retractionGcode,
;   toolChangeGcode,
;   endingGcode,M104 S0 ; turn off extruder,M140 S0 ; turn off bed,G91 ;relative positioning,G1 E-1 F300  ;retract the filament a bit before lifting the nozzle, to release some of the pressure,G1 Z+0.5 E-5 X-20 Y-20 F9000 ;move Z up a bit and retract filament even more,G28 X0 Y0 ;move X/Y to min endstops, so the head is out of the way,G90 ;absolute positioning,G1 Y190 F9000 ;use this line if you want the bed to move to the front. delete if not.,M84 ;steppers off,M107 ; shut off fan,
;   exportFileFormat,gcode
;   celebration,0
;   celebrationSong,Random Song
;   postProcessing,
;   defaultSpeed,3600
;   outlineUnderspeed,0.5
;   solidInfillUnderspeed,0.8
;   supportUnderspeed,0.8
;   rapidXYspeed,4800
;   rapidZspeed,1002
;   minBridgingArea,50
;   bridgingExtraInflation,0
;   bridgingExtrusionMultiplier,1
;   bridgingSpeedMultiplier,1
;   useFixedBridgingAngle,0
;   fixedBridgingAngle,0
;   applyBridgingToPerimeters,0
;   filamentDiameters,1.7|1.7|1.7|1.7|1.7|1.7
;   filamentPricesPerKg,20|20|20|20|20|20
;   filamentDensities,1.25|1.25|1.25|1.25|1.25|1.25
;   useMinPrintHeight,0
;   minPrintHeight,0
;   useMaxPrintHeight,0
;   maxPrintHeight,0
;   useDiaphragm,0
;   diaphragmLayerInterval,20
;   robustSlicing,1
;   mergeAllIntoSolid,0
;   onlyRetractWhenCrossingOutline,1
;   retractBetweenLayers,1
;   useRetractionMinTravel,0
;   retractionMinTravel,3
;   retractWhileWiping,0
;   onlyWipeOutlines,1
;   avoidCrossingOutline,0
;   maxMovementDetourFactor,3
;   toolChangeRetractionDistance,12
;   toolChangeExtraRestartDistance,-0.5
;   toolChangeRetractionSpeed,600
;   externalThinWallType,0
;   internalThinWallType,2
;   thinWallAllowedOverlapPercentage,10
;   singleExtrusionMinLength,1
;   singleExtrusionMinPrintingWidthPercentage,50
;   singleExtrusionMaxPrintingWidthPercentage,200
;   singleExtrusionEndpointExtension,0.2
;   horizontalSizeCompensation,0
G90
M82
M106 S0
M140 S60
M190 S60
M104 S200 T0
M109 S200 T0
G21 ;metric values
G90 ;absolute positioning
M82 ;set extruder to absolute mode
M107 ;start with the fan off
G28 X0 Y0 ;move X/Y to min endstops
G28 Z0 ;move Z to min endstops
G1 Z15.0 F9000 ;move the platform down 15mm
G92 E0 ;zero the extruded length
G1 F200 E3 ;extrude 3mm of feed stock
G92 E0 ;zero the extruded length again
G1 F9000
M117 Printing...
G92 E0
G1 E-7.0000 F1200
G1 Z0.200 F1002
; process Process1
; layer 1, Z = 0.200
T0
; tool H0.200 W0.540
; skirt
G1 X85.728 Y85.369 F4800
G1 E0.0000 F360
G92 E0
G1 X85.902 Y85.198 E0.0116 F1800
G1 X85.932 Y85.171 E0.0135
G1 X88.333 Y83.049 E0.1660
G1 X88.364 Y83.023 E0.1679
G1 X88.555 Y82.871 E0.1796
G1 X88.588 Y82.847 E0.1815
G1 X91.193 Y80.981 E0.3339
G1 X91.226 Y80.959 E0.3358
G1 X91.432 Y80.827 E0.3475
G1 X91.466 Y80.806 E0.3494
G1 X94.248 Y79.216 E0.5019
G1 X94.284 Y79.197 E0.5038
G1 X94.502 Y79.086 E0.5154
G1 X94.538 Y79.069 E0.5173
G1 X97.468 Y77.771 E0.6698
G1 X97.505 Y77.755 E0.6717
G1 X97.733 Y77.668 E0.6833
G1 X97.771 Y77.654 E0.6852
G1 X100.818 Y76.661 E0.8377
G1 X100.856 Y76.650 E0.8396
G1 X101.092 Y76.586 E0.8513
G1 X101.131 Y76.576 E0.8532
G1 X104.263 Y75.899 E1.0057
G1 X104.303 Y75.892 E1.0076
G1 X104.544 Y75.852 E1.0192
G1 X104.584 Y75.847 E1.0211
G1 X107.769 Y75.492 E1.1736
G1 X107.809 Y75.489 E1.1755
G1 X108.053 Y75.474 E1.1871
G1 X108.093 Y75.473 E1.1890
G1 X111.297 Y75.445 E1.3415
G1 X111.337 Y75.445 E1.3434
G1 X111.582 Y75.456 E1.3550
G1 X111.622 Y75.459 E1.3570
G1 X114.813 Y75.757 E1.5095
G1 X114.853 Y75.762 E1.5114
G1 X115.097 Y75.798 E1.5231
G1 X115.137 Y75.805 E1.5251
G1 X118.338 Y76.441 E1.6803
G1 X118.379 Y76.451 E1.6824
G1 X118.631 Y76.515 E1.6947
G1 X118.673 Y76.527 E1.6968
G1 X122.063 Y77.594 E1.8659
G1 X122.105 Y77.609 E1.8680
G1 X122.359 Y77.705 E1.8809
G1 X122.400 Y77.722 E1.8831
G1 X125.650 Y79.167 E2.0523
G1 X125.690 Y79.186 E2.0544
G1 X125.927 Y79.307 E2.0670
G1 X125.965 Y79.328 E2.0691
G1 X128.891 Y81.041 E2.2304
G1 X128.923 Y81.061 E2.2322
G1 X129.113 Y81.185 E2.2430
G1 X129.144 Y81.206 E2.2448
G1 X131.213 Y82.698 E2.3662
G1 X131.237 Y82.715 E2.3676
G1 X131.380 Y82.826 E2.3762
G1 X131.403 Y82.845 E2.3776
G1 X133.445 Y84.565 E2.5047
G1 X133.467 Y84.585 E2.5061
G1 X133.598 Y84.704 E2.5145
G1 X133.619 Y84.724 E2.5159
G1 X136.129 Y87.178 E2.6829
G1 X136.160 Y87.210 E2.6850
G1 X136.343 Y87.410 E2.6979
G1 X136.372 Y87.443 E2.7000
G1 X138.619 Y90.202 E2.8693
G1 X138.646 Y90.237 E2.8714
G1 X138.805 Y90.455 E2.8843
G1 X138.830 Y90.492 E2.8864
G1 X140.758 Y93.496 E3.0562
G1 X140.781 Y93.534 E3.0583
G1 X140.914 Y93.768 E3.0712
G1 X140.935 Y93.808 E3.0733
G1 X142.516 Y97.014 E3.2434
G1 X142.535 Y97.054 E3.2455
G1 X142.640 Y97.302 E3.2583
G1 X142.656 Y97.343 E3.2604
G1 X143.870 Y100.712 E3.4308
G1 X143.883 Y100.754 E3.4329
G1 X143.960 Y101.012 E3.4457
G1 X143.972 Y101.054 E3.4478
G1 X144.801 Y104.543 E3.6184
G1 X144.810 Y104.586 E3.6205
G1 X144.858 Y104.851 E3.6333
G1 X144.864 Y104.894 E3.6354
G1 X145.299 Y108.463 E3.8064
G1 X145.304 Y108.508 E3.8086
G1 X145.321 Y108.782 E3.8216
G1 X145.323 Y108.827 E3.8238
G1 X145.348 Y112.575 E4.0021
G1 X145.347 Y112.619 E4.0042
G1 X145.334 Y112.886 E4.0170
G1 X145.331 Y112.930 E4.0191
G1 X145.150 Y114.642 E4.1010
G1 X145.149 Y114.652 E4.1014
G1 X145.142 Y114.710 E4.1042
G1 X145.141 Y114.720 E4.1047
G1 X144.840 Y117.027 E4.2154
G1 X144.836 Y117.052 E4.2166
G1 X144.811 Y117.205 E4.2240
G1 X144.807 Y117.230 E4.2252
G1 X144.694 Y117.803 E4.2530
G1 X144.685 Y117.845 E4.2550
G1 X144.619 Y118.103 E4.2677
G1 X144.607 Y118.145 E4.2698
G1 X143.599 Y121.341 E4.4292
G1 X143.586 Y121.379 E4.4312
G1 X143.500 Y121.609 E4.4428
G1 X143.485 Y121.646 E4.4447
G1 X142.197 Y124.629 E4.5993
G1 X142.180 Y124.665 E4.6012
G1 X142.074 Y124.882 E4.6127
G1 X142.055 Y124.917 E4.6146
G1 X140.477 Y127.747 E4.7688
G1 X140.457 Y127.781 E4.7707
G1 X140.329 Y127.986 E4.7822
G1 X140.307 Y128.019 E4.7841
G1 X138.455 Y130.673 E4.9380
G1 X138.431 Y130.705 E4.9399
G1 X138.282 Y130.896 E4.9515
G1 X138.257 Y130.927 E4.9533
G1 X136.149 Y133.376 E5.1071
G1 X136.122 Y133.406 E5.1090
G1 X135.955 Y133.581 E5.1206
G1 X135.926 Y133.610 E5.1225
G1 X133.585 Y135.830 E5.2760
G1 X133.555 Y135.856 E5.2779
G1 X133.371 Y136.015 E5.2895
G1 X133.340 Y136.040 E5.2914
G1 X130.788 Y138.009 E5.4447
G1 X130.756 Y138.033 E5.4466
G1 X130.556 Y138.171 E5.4582
G1 X130.522 Y138.193 E5.4601
G1 X127.785 Y139.893 E5.6134
G1 X127.749 Y139.914 E5.6154
G1 X127.530 Y140.035 E5.6273
G1 X127.493 Y140.054 E5.6293
G1 X124.442 Y141.530 E5.7906
G1 X124.400 Y141.549 E5.7927
G1 X124.146 Y141.655 E5.8058
G1 X124.103 Y141.671 E5.8080
G1 X120.262 Y143.011 E6.0016
G1 X120.229 Y143.022 E6.0032
G1 X120.026 Y143.082 E6.0133
G1 X119.993 Y143.091 E6.0149
G1 X116.902 Y143.872 E6.1666
G1 X116.863 Y143.881 E6.1685
G1 X116.623 Y143.929 E6.1802
G1 X116.583 Y143.936 E6.1821
G1 X113.410 Y144.400 E6.3347
G1 X113.370 Y144.405 E6.3366
G1 X113.125 Y144.428 E6.3483
G1 X113.084 Y144.431 E6.3503
G1 X109.824 Y144.569 E6.5055
G1 X109.781 Y144.569 E6.5076
G1 X109.521 Y144.566 E6.5199
G1 X109.478 Y144.565 E6.5220
G1 X105.932 Y144.329 E6.6911
G1 X105.888 Y144.325 E6.6932
G1 X105.618 Y144.291 E6.7061
G1 X105.574 Y144.285 E6.7083
G1 X102.072 Y143.648 E6.8776
G1 X102.028 Y143.639 E6.8797
G1 X101.764 Y143.575 E6.8927
G1 X101.721 Y143.564 E6.8948
G1 X98.314 Y142.535 E7.0641
G1 X98.272 Y142.521 E7.0663
G1 X98.016 Y142.428 E7.0792
G1 X97.975 Y142.411 E7.0813
G1 X94.706 Y141.004 E7.2506
G1 X94.666 Y140.985 E7.2528
G1 X94.423 Y140.864 E7.2657
G1 X94.384 Y140.842 E7.2678
G1 X91.295 Y139.074 E7.4371
G1 X91.257 Y139.051 E7.4393
G1 X91.030 Y138.903 E7.4522
G1 X90.993 Y138.877 E7.4543
G1 X88.125 Y136.771 E7.6236
G1 X88.089 Y136.743 E7.6258
G1 X87.880 Y136.571 E7.6387
G1 X87.846 Y136.541 E7.6408
G1 X85.235 Y134.124 E7.8101
G1 X85.203 Y134.093 E7.8122
G1 X85.015 Y133.897 E7.8252
G1 X84.985 Y133.864 E7.8273
G1 X82.664 Y131.167 E7.9966
G1 X82.636 Y131.132 E7.9987
G1 X82.471 Y130.917 E8.0116
G1 X82.444 Y130.880 E8.0138
G1 X80.444 Y127.938 E8.1831
G1 X80.420 Y127.900 E8.1852
G1 X80.280 Y127.667 E8.1981
G1 X80.258 Y127.628 E8.2002
G1 X78.603 Y124.478 E8.3695
G1 X78.583 Y124.438 E8.3717
G1 X78.471 Y124.191 E8.3846
G1 X78.454 Y124.150 E8.3867
G1 X77.166 Y120.833 E8.5560
G1 X77.151 Y120.791 E8.5582
G1 X77.067 Y120.532 E8.5711
G1 X77.054 Y120.490 E8.5732
G1 X76.150 Y117.048 E8.7425
G1 X76.140 Y117.004 E8.7446
G1 X76.086 Y116.738 E8.7576
G1 X76.078 Y116.694 E8.7597
G1 X75.569 Y113.172 E8.9290
G1 X75.564 Y113.128 E8.9311
G1 X75.541 Y112.857 E8.9441
G1 X75.538 Y112.813 E8.9462
G1 X75.431 Y109.255 E9.1155
G1 X75.431 Y109.211 E9.1176
G1 X75.438 Y108.939 E9.1306
G1 X75.441 Y108.895 E9.1327
G1 X75.737 Y105.348 E9.3020
G1 X75.742 Y105.304 E9.3042
G1 X75.780 Y105.035 E9.3171
G1 X75.787 Y104.991 E9.3192
G1 X76.483 Y101.500 E9.4885
G1 X76.493 Y101.457 E9.4907
G1 X76.561 Y101.194 E9.5036
G1 X76.573 Y101.151 E9.5057
G1 X77.660 Y97.762 E9.6751
G1 X77.674 Y97.719 E9.6772
G1 X77.772 Y97.466 E9.6901
G1 X77.789 Y97.425 E9.6922
G1 X79.252 Y94.181 E9.8616
G1 X79.271 Y94.141 E9.8637
G1 X79.396 Y93.902 E9.8765
G1 X79.417 Y93.863 E9.8786
G1 X81.205 Y90.854 E10.0452
G1 X81.228 Y90.818 E10.0472
G1 X81.370 Y90.605 E10.0593
G1 X81.394 Y90.571 E10.0614
G1 X83.319 Y88.002 E10.2141
G1 X83.344 Y87.971 E10.2160
G1 X83.501 Y87.783 E10.2276
G1 X83.527 Y87.753 E10.2295
G1 X84.371 Y86.838 E10.2887
G1 X85.700 Y85.398 F1800
G1 X85.728 Y85.369 F1800
G1 X86.047 Y85.687 F4800
G92 E0
G1 X86.213 Y85.524 E0.0111 F1800
G1 X86.234 Y85.504 E0.0125
G1 X88.627 Y83.390 E0.1644
G1 X88.649 Y83.372 E0.1657
G1 X88.831 Y83.227 E0.1768
G1 X88.854 Y83.209 E0.1782
G1 X91.450 Y81.351 E0.3301
G1 X91.474 Y81.334 E0.3315
G1 X91.670 Y81.209 E0.3426
G1 X91.695 Y81.194 E0.3439
G1 X94.467 Y79.609 E0.4958
G1 X94.492 Y79.596 E0.4972
G1 X94.700 Y79.490 E0.5083
G1 X94.726 Y79.478 E0.5097
G1 X97.645 Y78.184 E0.6616
G1 X97.671 Y78.173 E0.6630
G1 X97.889 Y78.090 E0.6740
G1 X97.916 Y78.080 E0.6754
G1 X100.952 Y77.091 E0.8273
G1 X100.979 Y77.083 E0.8287
G1 X101.204 Y77.022 E0.8398
G1 X101.232 Y77.015 E0.8412
G1 X104.353 Y76.340 E0.9931
G1 X104.381 Y76.335 E0.9944
G1 X104.611 Y76.297 E1.0055
G1 X104.639 Y76.293 E1.0069
G1 X107.813 Y75.940 E1.1588
G1 X107.841 Y75.938 E1.1602
G1 X108.074 Y75.924 E1.1713
G1 X108.103 Y75.923 E1.1726
G1 X111.295 Y75.895 E1.3246
G1 X111.324 Y75.895 E1.3259
G1 X111.557 Y75.905 E1.3370
G1 X111.585 Y75.907 E1.3384
G1 X114.765 Y76.205 E1.4903
G1 X114.794 Y76.208 E1.4917
G1 X115.026 Y76.242 E1.5029
G1 X115.055 Y76.247 E1.5043
G1 X118.244 Y76.881 E1.6590
G1 X118.274 Y76.888 E1.6604
G1 X118.514 Y76.949 E1.6722
G1 X118.543 Y76.958 E1.6737
G1 X121.921 Y78.021 E1.8422
G1 X121.952 Y78.032 E1.8437
G1 X122.194 Y78.123 E1.8560
G1 X122.223 Y78.135 E1.8575
G1 X125.462 Y79.575 E2.0262
G1 X125.490 Y79.589 E2.0277
G1 X125.716 Y79.705 E2.0397
G1 X125.743 Y79.720 E2.0412
G1 X128.659 Y81.427 E2.2020
G1 X128.682 Y81.441 E2.2033
G1 X128.863 Y81.559 E2.2136
G1 X128.885 Y81.574 E2.2148
G1 X130.947 Y83.060 E2.3358
G1 X130.964 Y83.073 E2.3368
G1 X131.100 Y83.179 E2.3450
G1 X131.116 Y83.192 E2.3460
G1 X133.152 Y84.907 E2.4726
G1 X133.167 Y84.920 E2.4736
G1 X133.293 Y85.034 E2.4817
G1 X133.308 Y85.048 E2.4826
G1 X135.810 Y87.495 E2.6492
G1 X135.832 Y87.518 E2.6507
G1 X136.006 Y87.708 E2.6630
G1 X136.027 Y87.732 E2.6645
G1 X138.266 Y90.481 E2.8331
G1 X138.286 Y90.506 E2.8347
G1 X138.437 Y90.714 E2.8469
G1 X138.454 Y90.741 E2.8484
G1 X140.376 Y93.733 E3.0176
G1 X140.393 Y93.760 E3.0192
G1 X140.519 Y93.984 E3.0314
G1 X140.534 Y94.012 E3.0329
G1 X142.110 Y97.207 E3.2024
G1 X142.123 Y97.236 E3.2039
G1 X142.223 Y97.472 E3.2161
G1 X142.235 Y97.502 E3.2176
G1 X143.444 Y100.859 E3.3874
G1 X143.454 Y100.889 E3.3889
G1 X143.527 Y101.134 E3.4011
G1 X143.535 Y101.165 E3.4026
G1 X144.362 Y104.641 E3.5726
G1 X144.368 Y104.672 E3.5741
G1 X144.414 Y104.924 E3.5863
