; G-Code generated by Simplify3D(R) Version 4.0.0
; Mar 23, 2018 at 8:28:38 PM
; Settings Summary
;   processName,Process1
;   applyToModels,L_wheels_rev1
;   profileName,Anettina (modified)
;   profileVersion,2018-01-26 14:48:52
;   baseProfile,Default
;   printMaterial,PLA
;   printQuality,Fast
;   printExtruders,
;   extruderName,Extruder
;   extruderToolheadNumber,0
;   extruderDiameter,0.4
;   extruderAutoWidth,0
;   extruderWidth,0.45
;   extrusionMultiplier,1
;   extruderUseRetract,1
;   extruderRetractionDistance,7
;   extruderExtraRestartDistance,0
;   extruderRetractionZLift,0
;   extruderRetractionSpeed,1200
;   extruderUseCoasting,1
;   extruderCoastingDistance,2
;   extruderUseWipe,1
;   extruderWipeDistance,5
;   primaryExtruder,0
;   layerHeight,0.32
;   topSolidLayers,3
;   bottomSolidLayers,3
;   perimeterOutlines,3
;   printPerimetersInsideOut,1
;   startPointOption,2
;   startPointOriginX,0
;   startPointOriginY,0
;   sequentialIslands,0
;   spiralVaseMode,0
;   firstLayerHeightPercentage,100
;   firstLayerWidthPercentage,120
;   firstLayerUnderspeed,0.5
;   useRaft,0
;   raftExtruder,0
;   raftTopLayers,3
;   raftBaseLayers,2
;   raftOffset,3
;   raftSeparationDistance,0.14
;   raftTopInfill,100
;   aboveRaftSpeedMultiplier,0.3
;   useSkirt,1
;   skirtExtruder,0
;   skirtLayers,1
;   skirtOutlines,4
;   skirtOffset,4
;   usePrimePillar,0
;   primePillarExtruder,999
;   primePillarWidth,12
;   primePillarLocation,7
;   primePillarSpeedMultiplier,1
;   useOozeShield,0
;   oozeShieldExtruder,999
;   oozeShieldOffset,2
;   oozeShieldOutlines,1
;   oozeShieldSidewallShape,1
;   oozeShieldSidewallAngle,30
;   oozeShieldSpeedMultiplier,1
;   infillExtruder,0
;   internalInfillPattern,Rectilinear
;   externalInfillPattern,Rectilinear
;   infillPercentage,15
;   outlineOverlapPercentage,20
;   infillExtrusionWidthPercentage,100
;   minInfillLength,5
;   infillLayerInterval,1
;   internalInfillAngles,45,-45
;   overlapInternalInfillAngles,0
;   externalInfillAngles,45,-45
;   generateSupport,0
;   supportExtruder,0
;   supportInfillPercentage,25
;   supportExtraInflation,0
;   supportBaseLayers,1
;   denseSupportExtruder,0
;   denseSupportLayers,0
;   denseSupportInfillPercentage,70
;   supportLayerInterval,1
;   supportHorizontalPartOffset,0.3
;   supportUpperSeparationLayers,1
;   supportLowerSeparationLayers,1
;   supportType,0
;   supportGridSpacing,4
;   maxOverhangAngle,45
;   supportAngles,0
;   temperatureName,Extruder,Heated Bed
;   temperatureNumber,0,0
;   temperatureSetpointCount,1,1
;   temperatureSetpointLayers,1,1
;   temperatureSetpointTemperatures,200,60
;   temperatureStabilizeAtStartup,1,1
;   temperatureHeatedBed,0,1
;   temperatureRelayBetweenLayers,0,0
;   temperatureRelayBetweenLoops,0,0
;   fanLayers,1,2
;   fanSpeeds,0,100
;   blipFanToFullPower,0
;   adjustSpeedForCooling,1
;   minSpeedLayerTime,15
;   minCoolingSpeedSlowdown,20
;   increaseFanForCooling,0
;   minFanLayerTime,45
;   maxCoolingFanSpeed,100
;   increaseFanForBridging,0
;   bridgingFanSpeed,100
;   use5D,1
;   relativeEdistances,0
;   allowEaxisZeroing,1
;   independentExtruderAxes,0
;   includeM10123,0
;   stickySupport,1
;   applyToolheadOffsets,0
;   gcodeXoffset,0
;   gcodeYoffset,0
;   gcodeZoffset,0
;   overrideMachineDefinition,1
;   machineTypeOverride,0
;   strokeXoverride,220
;   strokeYoverride,220
;   strokeZoverride,240
;   originOffsetXoverride,0
;   originOffsetYoverride,0
;   originOffsetZoverride,0
;   homeXdirOverride,-1
;   homeYdirOverride,-1
;   homeZdirOverride,-1
;   flipXoverride,1
;   flipYoverride,-1
;   flipZoverride,1
;   toolheadOffsets,0,0|0,0|0,0|0,0|0,0|0,0
;   overrideFirmwareConfiguration,0
;   firmwareTypeOverride,RepRap (Marlin/Repetier/Sprinter)
;   GPXconfigOverride,r2
;   baudRateOverride,115200
;   overridePrinterModels,0
;   printerModelsOverride
;   startingGcode,G21 ;metric values,G90 ;absolute positioning,M82 ;set extruder to absolute mode,M107 ;start with the fan off,G28 X0 Y0 ;move X/Y to min endstops,G28 Z0 ;move Z to min endstops,G1 Z15.0 F9000 ;move the platform down 15mm,G92 E0 ;zero the extruded length,G1 F200 E3 ;extrude 3mm of feed stock,G92 E0 ;zero the extruded length again,G1 F9000,M117 Printing...
;   layerChangeGcode,
;   retractionGcode,
;   toolChangeGcode,
;   endingGcode,M104 S0 ; turn off extruder,M140 S0 ; turn off bed,G91 ;relative positioning,G1 E-1 F300  ;retract the filament a bit before lifting the nozzle, to release some of the pressure,G1 Z+0.5 E-5 X-20 Y-20 F9000 ;move Z up a bit and retract filament even more,G28 X0 Y0 ;move X/Y to min endstops, so the head is out of the way,G90 ;absolute positioning,G1 Y190 F9000 ;use this line if you want the bed to move to the front. delete if not.,M84 ;steppers off,M107 ; shut off fan,
;   exportFileFormat,gcode
;   celebration,0
;   celebrationSong,Random Song
;   postProcessing,
;   defaultSpeed,3600
;   outlineUnderspeed,0.5
;   solidInfillUnderspeed,0.8
;   supportUnderspeed,0.8
;   rapidXYspeed,4800
;   rapidZspeed,1002
;   minBridgingArea,50
;   bridgingExtraInflation,0
;   bridgingExtrusionMultiplier,1
;   bridgingSpeedMultiplier,1
;   useFixedBridgingAngle,0
;   fixedBridgingAngle,0
;   applyBridgingToPerimeters,0
;   filamentDiameters,1.7|1.7|1.7|1.7|1.7|1.7
;   filamentPricesPerKg,20|20|20|20|20|20
;   filamentDensities,1.25|1.25|1.25|1.25|1.25|1.25
;   useMinPrintHeight,0
;   minPrintHeight,0
;   useMaxPrintHeight,0
;   maxPrintHeight,0
;   useDiaphragm,0
;   diaphragmLayerInterval,20
;   robustSlicing,1
;   mergeAllIntoSolid,0
;   onlyRetractWhenCrossingOutline,1
;   retractBetweenLayers,1
;   useRetractionMinTravel,0
;   retractionMinTravel,3
;   retractWhileWiping,0
;   onlyWipeOutlines,1
;   avoidCrossingOutline,0
;   maxMovementDetourFactor,3
;   toolChangeRetractionDistance,12
;   toolChangeExtraRestartDistance,-0.5
;   toolChangeRetractionSpeed,600
;   externalThinWallType,0
;   internalThinWallType,2
;   thinWallAllowedOverlapPercentage,10
;   singleExtrusionMinLength,1
;   singleExtrusionMinPrintingWidthPercentage,50
;   singleExtrusionMaxPrintingWidthPercentage,200
;   singleExtrusionEndpointExtension,0.2
;   horizontalSizeCompensation,0
G90
M82
M106 S0
M140 S60
M190 S60
M104 S200 T0
M109 S200 T0
G21 ;metric values
G90 ;absolute positioning
M82 ;set extruder to absolute mode
M107 ;start with the fan off
G28 X0 Y0 ;move X/Y to min endstops
G28 Z0 ;move Z to min endstops
G1 Z15.0 F9000 ;move the platform down 15mm
G92 E0 ;zero the extruded length
G1 F200 E3 ;extrude 3mm of feed stock
G92 E0 ;zero the extruded length again
G1 F9000
M117 Printing...
G92 E0
G1 E-7.0000 F1200
G1 Z0.320 F1002
; process Process1
; layer 1, Z = 0.320
T0
; tool H0.320 W0.540
; skirt
G1 X29.105 Y23.305 F4800
G1 E0.0000 F360
G92 E0
G1 X31.950 Y19.481 E0.3628 F1800
G1 X32.617 Y19.146 E0.4197
G1 X187.383 Y19.146 E12.2020
G1 X188.050 Y19.481 E12.2589
G1 X190.895 Y23.305 E12.6217
G1 X191.025 Y24.040 E12.6786
G1 X145.529 Y175.691 E24.7321
G1 X145.370 Y178.526 E24.9483
G1 X145.366 Y178.570 E24.9517
G1 X145.336 Y178.837 E24.9721
G1 X145.330 Y178.881 E24.9755
G1 X144.722 Y182.463 E25.2520
G1 X144.713 Y182.506 E25.2554
G1 X144.653 Y182.768 E25.2758
G1 X144.642 Y182.811 E25.2792
G1 X143.636 Y186.301 E25.5558
G1 X143.623 Y186.344 E25.5592
G1 X143.534 Y186.597 E25.5796
G1 X143.518 Y186.638 E25.5830
G1 X142.128 Y189.995 E25.8595
G1 X142.110 Y190.035 E25.8629
G1 X141.994 Y190.277 E25.8833
G1 X141.973 Y190.316 E25.8867
G1 X140.216 Y193.496 E26.1633
G1 X140.194 Y193.534 E26.1666
G1 X140.051 Y193.761 E26.1871
G1 X140.026 Y193.798 E26.1905
G1 X137.924 Y196.761 E26.4670
G1 X137.897 Y196.796 E26.4704
G1 X137.730 Y197.006 E26.4909
G1 X137.701 Y197.040 E26.4942
G1 X135.281 Y199.749 E26.7708
G1 X135.250 Y199.781 E26.7741
G1 X135.060 Y199.971 E26.7946
G1 X135.028 Y200.001 E26.7980
G1 X132.319 Y202.422 E27.0745
G1 X132.286 Y202.451 E27.0779
G1 X132.076 Y202.618 E27.0983
G1 X132.040 Y202.645 E27.1017
G1 X129.077 Y204.747 E27.3783
G1 X129.041 Y204.771 E27.3816
G1 X128.813 Y204.914 E27.4021
G1 X128.775 Y204.937 E27.4055
G1 X125.596 Y206.694 E27.6820
G1 X125.556 Y206.714 E27.6854
G1 X125.314 Y206.831 E27.7058
G1 X125.274 Y206.849 E27.7092
G1 X121.918 Y208.239 E27.9858
G1 X121.876 Y208.255 E27.9891
G1 X121.623 Y208.344 E28.0096
G1 X121.581 Y208.357 E28.0130
G1 X118.090 Y209.363 E28.2895
G1 X118.047 Y209.374 E28.2929
G1 X117.785 Y209.434 E28.3133
G1 X117.742 Y209.442 E28.3167
G1 X114.160 Y210.051 E28.5933
G1 X114.117 Y210.057 E28.5966
G1 X113.850 Y210.087 E28.6171
G1 X113.806 Y210.091 E28.6205
G1 X110.179 Y210.294 E28.8970
G1 X110.134 Y210.296 E28.9004
G1 X109.866 Y210.296 E28.9208
G1 X109.822 Y210.294 E28.9242
G1 X106.194 Y210.091 E29.2008
G1 X106.150 Y210.087 E29.2041
G1 X105.883 Y210.057 E29.2246
G1 X105.840 Y210.051 E29.2280
G1 X102.258 Y209.442 E29.5045
G1 X102.215 Y209.434 E29.5079
G1 X101.953 Y209.374 E29.5283
G1 X101.910 Y209.363 E29.5317
G1 X98.419 Y208.357 E29.8083
G1 X98.377 Y208.344 E29.8116
G1 X98.124 Y208.255 E29.8321
G1 X98.082 Y208.239 E29.8355
G1 X94.726 Y206.849 E30.1120
G1 X94.686 Y206.831 E30.1154
G1 X94.444 Y206.714 E30.1358
G1 X94.404 Y206.694 E30.1392
G1 X91.225 Y204.937 E30.4158
G1 X91.187 Y204.914 E30.4191
G1 X90.959 Y204.771 E30.4396
G1 X90.922 Y204.747 E30.4429
G1 X87.960 Y202.645 E30.7195
G1 X87.924 Y202.618 E30.7229
G1 X87.714 Y202.451 E30.7433
G1 X87.681 Y202.422 E30.7467
G1 X84.972 Y200.001 E31.0233
G1 X84.940 Y199.971 E31.0266
G1 X84.750 Y199.781 E31.0471
G1 X84.719 Y199.749 E31.0504
G1 X82.299 Y197.040 E31.3270
G1 X82.270 Y197.006 E31.3304
G1 X82.103 Y196.796 E31.3508
G1 X82.076 Y196.761 E31.3542
G1 X79.974 Y193.798 E31.6308
G1 X79.949 Y193.761 E31.6341
G1 X79.806 Y193.534 E31.6546
G1 X79.784 Y193.496 E31.6579
G1 X78.027 Y190.316 E31.9345
G1 X78.006 Y190.277 E31.9379
G1 X77.890 Y190.035 E31.9583
G1 X77.872 Y189.995 E31.9617
G1 X76.481 Y186.638 E32.2383
G1 X76.466 Y186.597 E32.2416
G1 X76.377 Y186.344 E32.2621
G1 X76.364 Y186.301 E32.2654
G1 X75.358 Y182.811 E32.5420
G1 X75.347 Y182.768 E32.5454
G1 X75.287 Y182.506 E32.5658
G1 X75.278 Y182.463 E32.5692
G1 X74.670 Y178.881 E32.8458
G1 X74.664 Y178.837 E32.8491
G1 X74.634 Y178.570 E32.8696
G1 X74.630 Y178.526 E32.8729
G1 X74.471 Y175.691 E33.0891
G1 X29.335 Y25.240 E45.0473
G1 X28.975 Y24.040 F1800
G1 X29.105 Y23.305 F1800
G1 X29.529 Y23.488 F4800
G92 E0
G1 X32.247 Y19.835 E0.3466 F1800
G1 X32.724 Y19.596 E0.3872
G1 X187.276 Y19.596 E12.1533
G1 X187.753 Y19.835 E12.1939
G1 X190.471 Y23.488 E12.5405
G1 X190.563 Y24.013 E12.5811
G1 X145.083 Y175.613 E24.6306
G1 X144.921 Y178.495 E24.8503
G1 X144.918 Y178.526 E24.8527
G1 X144.890 Y178.781 E24.8722
G1 X144.885 Y178.812 E24.8746
G1 X144.279 Y182.381 E25.1502
G1 X144.273 Y182.412 E25.1526
G1 X144.216 Y182.661 E25.1721
G1 X144.208 Y182.692 E25.1745
G1 X143.206 Y186.171 E25.4501
G1 X143.196 Y186.201 E25.4525
G1 X143.112 Y186.443 E25.4720
G1 X143.100 Y186.472 E25.4744
G1 X141.715 Y189.817 E25.7500
G1 X141.702 Y189.845 E25.7524
G1 X141.591 Y190.076 E25.7719
G1 X141.577 Y190.104 E25.7743
G1 X139.825 Y193.273 E26.0499
G1 X139.809 Y193.300 E26.0523
G1 X139.673 Y193.517 E26.0718
G1 X139.656 Y193.543 E26.0742
G1 X137.561 Y196.495 E26.3499
G1 X137.542 Y196.521 E26.3523
G1 X137.382 Y196.721 E26.3717
G1 X137.362 Y196.745 E26.3741
G1 X134.949 Y199.444 E26.6498
G1 X134.928 Y199.467 E26.6522
G1 X134.747 Y199.648 E26.6716
G1 X134.724 Y199.670 E26.6740
G1 X132.024 Y202.082 E26.9497
G1 X132.000 Y202.103 E26.9521
G1 X131.800 Y202.262 E26.9715
G1 X131.775 Y202.281 E26.9740
G1 X128.822 Y204.376 E27.2496
G1 X128.796 Y204.394 E27.2520
G1 X128.579 Y204.530 E27.2715
G1 X128.552 Y204.546 E27.2739
G1 X125.383 Y206.297 E27.5495
G1 X125.355 Y206.312 E27.5519
G1 X125.125 Y206.423 E27.5714
G1 X125.096 Y206.436 E27.5738
G1 X121.751 Y207.821 E27.8494
G1 X121.722 Y207.832 E27.8518
G1 X121.480 Y207.917 E27.8713
G1 X121.450 Y207.926 E27.8737
G1 X117.971 Y208.929 E28.1493
G1 X117.941 Y208.936 E28.1517
G1 X117.691 Y208.993 E28.1712
G1 X117.660 Y209.000 E28.1736
G1 X114.091 Y209.606 E28.4492
G1 X114.060 Y209.610 E28.4516
G1 X113.806 Y209.639 E28.4711
G1 X113.774 Y209.642 E28.4735
G1 X110.160 Y209.845 E28.7491
G1 X110.128 Y209.846 E28.7515
G1 X109.872 Y209.846 E28.7710
G1 X109.840 Y209.845 E28.7734
G1 X106.226 Y209.642 E29.0490
G1 X106.194 Y209.639 E29.0514
G1 X105.940 Y209.610 E29.0709
G1 X105.909 Y209.606 E29.0733
G1 X102.340 Y209.000 E29.3489
G1 X102.309 Y208.993 E29.3513
G1 X102.059 Y208.936 E29.3708
G1 X102.029 Y208.929 E29.3732
G1 X98.550 Y207.926 E29.6488
G1 X98.520 Y207.917 E29.6512
G1 X98.278 Y207.832 E29.6707
G1 X98.249 Y207.821 E29.6731
G1 X94.904 Y206.436 E29.9487
G1 X94.875 Y206.423 E29.9511
G1 X94.645 Y206.312 E29.9706
G1 X94.616 Y206.297 E29.9730
G1 X91.448 Y204.546 E30.2486
G1 X91.421 Y204.530 E30.2510
G1 X91.204 Y204.394 E30.2705
G1 X91.178 Y204.376 E30.2729
G1 X88.225 Y202.281 E30.5485
G1 X88.200 Y202.262 E30.5509
G1 X88.000 Y202.103 E30.5704
G1 X87.976 Y202.082 E30.5728
G1 X85.276 Y199.670 E30.8484
G1 X85.253 Y199.648 E30.8508
G1 X85.072 Y199.467 E30.8703
G1 X85.051 Y199.444 E30.8727
G1 X82.638 Y196.745 E31.1483
G1 X82.618 Y196.721 E31.1507
G1 X82.458 Y196.521 E31.1702
G1 X82.439 Y196.495 E31.1726
G1 X80.344 Y193.543 E31.4482
G1 X80.327 Y193.517 E31.4506
G1 X80.191 Y193.300 E31.4701
G1 X80.175 Y193.273 E31.4725
G1 X78.423 Y190.104 E31.7481
G1 X78.409 Y190.076 E31.7505
G1 X78.298 Y189.845 E31.7700
G1 X78.285 Y189.817 E31.7724
G1 X76.900 Y186.472 E32.0480
G1 X76.888 Y186.443 E32.0504
G1 X76.804 Y186.201 E32.0699
G1 X76.794 Y186.171 E32.0723
G1 X75.792 Y182.692 E32.3479
G1 X75.784 Y182.661 E32.3503
G1 X75.727 Y182.412 E32.3698
G1 X75.721 Y182.381 E32.3722
G1 X75.115 Y178.812 E32.6479
G1 X75.110 Y178.781 E32.6503
G1 X75.082 Y178.526 E32.6697
G1 X75.079 Y178.495 E32.6721
G1 X74.917 Y175.613 E32.8919
G1 X29.858 Y25.418 E44.8297
G1 X29.437 Y24.013 F1800
G1 X29.529 Y23.488 F1800
G1 X29.954 Y23.671 F4800
G92 E0
G1 X32.544 Y20.189 E0.3303 F1800
G1 X32.830 Y20.046 E0.3547
G1 X187.170 Y20.046 E12.1046
G1 X187.456 Y20.189 E12.1289
G1 X190.046 Y23.671 E12.4593
G1 X190.101 Y23.986 E12.4836
G1 X144.637 Y175.535 E24.5291
G1 X144.472 Y178.463 E24.7524
G1 X144.471 Y178.482 E24.7538
G1 X144.443 Y178.724 E24.7723
G1 X144.441 Y178.743 E24.7738
G1 X143.836 Y182.299 E25.0484
G1 X143.833 Y182.318 E25.0499
G1 X143.779 Y182.555 E25.0684
G1 X143.774 Y182.574 E25.0698
G1 X142.775 Y186.040 E25.3445
G1 X142.769 Y186.058 E25.3459
G1 X142.689 Y186.288 E25.3645
G1 X142.682 Y186.306 E25.3659
G1 X141.302 Y189.639 E25.6405
G1 X141.294 Y189.656 E25.6420
G1 X141.188 Y189.875 E25.6605
G1 X141.180 Y189.892 E25.6620
G1 X139.435 Y193.049 E25.9366
G1 X139.425 Y193.066 E25.9380
G1 X139.295 Y193.272 E25.9566
G1 X139.285 Y193.288 E25.9580
G1 X137.197 Y196.230 E26.2327
G1 X137.186 Y196.245 E26.2341
G1 X137.034 Y196.435 E26.2526
G1 X137.022 Y196.450 E26.2541
G1 X134.618 Y199.140 E26.5287
G1 X134.605 Y199.153 E26.5302
G1 X134.433 Y199.326 E26.5487
G1 X134.419 Y199.339 E26.5501
G1 X131.729 Y201.743 E26.8248
G1 X131.715 Y201.755 E26.8262
G1 X131.524 Y201.906 E26.8448
G1 X131.509 Y201.918 E26.8462
G1 X128.567 Y204.006 E27.1208
G1 X128.551 Y204.016 E27.1223
G1 X128.345 Y204.146 E27.1408
G1 X128.329 Y204.155 E27.1423
G1 X125.171 Y205.900 E27.4169
G1 X125.155 Y205.909 E27.4183
G1 X124.935 Y206.014 E27.4369
G1 X124.918 Y206.022 E27.4383
G1 X121.585 Y207.403 E27.7130
G1 X121.567 Y207.410 E27.7144
G1 X121.338 Y207.490 E27.7329
G1 X121.319 Y207.496 E27.7344
G1 X117.853 Y208.494 E28.0090
G1 X117.835 Y208.499 E28.0105
G1 X117.597 Y208.553 E28.0290
G1 X117.579 Y208.557 E28.0304
G1 X114.022 Y209.161 E28.3051
G1 X114.003 Y209.164 E28.3065
G1 X113.761 Y209.191 E28.3251
G1 X113.743 Y209.193 E28.3265
G1 X110.141 Y209.395 E28.6011
G1 X110.122 Y209.396 E28.6026
G1 X109.878 Y209.396 E28.6211
G1 X109.859 Y209.395 E28.6226
G1 X106.257 Y209.193 E28.8972
G1 X106.239 Y209.191 E28.8987
G1 X105.997 Y209.164 E28.9172
G1 X105.978 Y209.161 E28.9186
G1 X102.421 Y208.557 E29.1933
G1 X102.403 Y208.553 E29.1947
G1 X102.165 Y208.499 E29.2132
G1 X102.147 Y208.494 E29.2147
G1 X98.680 Y207.496 E29.4893
