; G-Code generated by Simplify3D(R) Version 4.0.0
; Mar 24, 2018 at 6:26:33 PM
; Settings Summary
;   processName,Process1
;   applyToModels,axis_lock,axis_lock(2)
;   profileName,Anettina (modified)
;   profileVersion,2018-01-26 14:48:52
;   baseProfile,Default
;   printMaterial,PLA
;   printQuality,Fast
;   printExtruders,
;   extruderName,Extruder
;   extruderToolheadNumber,0
;   extruderDiameter,0.4
;   extruderAutoWidth,0
;   extruderWidth,0.45
;   extrusionMultiplier,1
;   extruderUseRetract,1
;   extruderRetractionDistance,7
;   extruderExtraRestartDistance,0
;   extruderRetractionZLift,0
;   extruderRetractionSpeed,1200
;   extruderUseCoasting,1
;   extruderCoastingDistance,2
;   extruderUseWipe,1
;   extruderWipeDistance,5
;   primaryExtruder,0
;   layerHeight,0.32
;   topSolidLayers,3
;   bottomSolidLayers,3
;   perimeterOutlines,3
;   printPerimetersInsideOut,1
;   startPointOption,2
;   startPointOriginX,0
;   startPointOriginY,0
;   sequentialIslands,0
;   spiralVaseMode,0
;   firstLayerHeightPercentage,100
;   firstLayerWidthPercentage,120
;   firstLayerUnderspeed,0.5
;   useRaft,0
;   raftExtruder,0
;   raftTopLayers,3
;   raftBaseLayers,2
;   raftOffset,3
;   raftSeparationDistance,0.14
;   raftTopInfill,100
;   aboveRaftSpeedMultiplier,0.3
;   useSkirt,1
;   skirtExtruder,0
;   skirtLayers,1
;   skirtOutlines,4
;   skirtOffset,4
;   usePrimePillar,0
;   primePillarExtruder,999
;   primePillarWidth,12
;   primePillarLocation,7
;   primePillarSpeedMultiplier,1
;   useOozeShield,0
;   oozeShieldExtruder,999
;   oozeShieldOffset,2
;   oozeShieldOutlines,1
;   oozeShieldSidewallShape,1
;   oozeShieldSidewallAngle,30
;   oozeShieldSpeedMultiplier,1
;   infillExtruder,0
;   internalInfillPattern,Rectilinear
;   externalInfillPattern,Rectilinear
;   infillPercentage,15
;   outlineOverlapPercentage,20
;   infillExtrusionWidthPercentage,100
;   minInfillLength,5
;   infillLayerInterval,1
;   internalInfillAngles,45,-45
;   overlapInternalInfillAngles,0
;   externalInfillAngles,45,-45
;   generateSupport,0
;   supportExtruder,0
;   supportInfillPercentage,25
;   supportExtraInflation,0
;   supportBaseLayers,1
;   denseSupportExtruder,0
;   denseSupportLayers,0
;   denseSupportInfillPercentage,70
;   supportLayerInterval,1
;   supportHorizontalPartOffset,0.3
;   supportUpperSeparationLayers,1
;   supportLowerSeparationLayers,1
;   supportType,0
;   supportGridSpacing,4
;   maxOverhangAngle,45
;   supportAngles,0
;   temperatureName,Extruder,Heated Bed
;   temperatureNumber,0,0
;   temperatureSetpointCount,1,1
;   temperatureSetpointLayers,1,1
;   temperatureSetpointTemperatures,200,60
;   temperatureStabilizeAtStartup,1,1
;   temperatureHeatedBed,0,1
;   temperatureRelayBetweenLayers,0,0
;   temperatureRelayBetweenLoops,0,0
;   fanLayers,1,2
;   fanSpeeds,0,100
;   blipFanToFullPower,0
;   adjustSpeedForCooling,1
;   minSpeedLayerTime,15
;   minCoolingSpeedSlowdown,20
;   increaseFanForCooling,0
;   minFanLayerTime,45
;   maxCoolingFanSpeed,100
;   increaseFanForBridging,0
;   bridgingFanSpeed,100
;   use5D,1
;   relativeEdistances,0
;   allowEaxisZeroing,1
;   independentExtruderAxes,0
;   includeM10123,0
;   stickySupport,1
;   applyToolheadOffsets,0
;   gcodeXoffset,0
;   gcodeYoffset,0
;   gcodeZoffset,0
;   overrideMachineDefinition,1
;   machineTypeOverride,0
;   strokeXoverride,220
;   strokeYoverride,220
;   strokeZoverride,240
;   originOffsetXoverride,0
;   originOffsetYoverride,0
;   originOffsetZoverride,0
;   homeXdirOverride,-1
;   homeYdirOverride,-1
;   homeZdirOverride,-1
;   flipXoverride,1
;   flipYoverride,-1
;   flipZoverride,1
;   toolheadOffsets,0,0|0,0|0,0|0,0|0,0|0,0
;   overrideFirmwareConfiguration,0
;   firmwareTypeOverride,RepRap (Marlin/Repetier/Sprinter)
;   GPXconfigOverride,r2
;   baudRateOverride,115200
;   overridePrinterModels,0
;   printerModelsOverride
;   startingGcode,G21 ;metric values,G90 ;absolute positioning,M82 ;set extruder to absolute mode,M107 ;start with the fan off,G28 X0 Y0 ;move X/Y to min endstops,G28 Z0 ;move Z to min endstops,G1 Z15.0 F9000 ;move the platform down 15mm,G92 E0 ;zero the extruded length,G1 F200 E3 ;extrude 3mm of feed stock,G92 E0 ;zero the extruded length again,G1 F9000,M117 Printing...
;   layerChangeGcode,
;   retractionGcode,
;   toolChangeGcode,
;   endingGcode,M104 S0 ; turn off extruder,M140 S0 ; turn off bed,G91 ;relative positioning,G1 E-1 F300  ;retract the filament a bit before lifting the nozzle, to release some of the pressure,G1 Z+0.5 E-5 X-20 Y-20 F9000 ;move Z up a bit and retract filament even more,G28 X0 Y0 ;move X/Y to min endstops, so the head is out of the way,G90 ;absolute positioning,G1 Y190 F9000 ;use this line if you want the bed to move to the front. delete if not.,M84 ;steppers off,M107 ; shut off fan,
;   exportFileFormat,gcode
;   celebration,0
;   celebrationSong,Random Song
;   postProcessing,
;   defaultSpeed,3600
;   outlineUnderspeed,0.5
;   solidInfillUnderspeed,0.8
;   supportUnderspeed,0.8
;   rapidXYspeed,4800
;   rapidZspeed,1002
;   minBridgingArea,50
;   bridgingExtraInflation,0
;   bridgingExtrusionMultiplier,1
;   bridgingSpeedMultiplier,1
;   useFixedBridgingAngle,0
;   fixedBridgingAngle,0
;   applyBridgingToPerimeters,0
;   filamentDiameters,1.7|1.7|1.7|1.7|1.7|1.7
;   filamentPricesPerKg,20|20|20|20|20|20
;   filamentDensities,1.25|1.25|1.25|1.25|1.25|1.25
;   useMinPrintHeight,0
;   minPrintHeight,0
;   useMaxPrintHeight,0
;   maxPrintHeight,0
;   useDiaphragm,0
;   diaphragmLayerInterval,20
;   robustSlicing,1
;   mergeAllIntoSolid,0
;   onlyRetractWhenCrossingOutline,1
;   retractBetweenLayers,1
;   useRetractionMinTravel,0
;   retractionMinTravel,3
;   retractWhileWiping,0
;   onlyWipeOutlines,1
;   avoidCrossingOutline,0
;   maxMovementDetourFactor,3
;   toolChangeRetractionDistance,12
;   toolChangeExtraRestartDistance,-0.5
;   toolChangeRetractionSpeed,600
;   externalThinWallType,0
;   internalThinWallType,2
;   thinWallAllowedOverlapPercentage,10
;   singleExtrusionMinLength,1
;   singleExtrusionMinPrintingWidthPercentage,50
;   singleExtrusionMaxPrintingWidthPercentage,200
;   singleExtrusionEndpointExtension,0.2
;   horizontalSizeCompensation,0
G90
M82
M106 S0
M140 S60
M190 S60
M104 S200 T0
M109 S200 T0
G21 ;metric values
G90 ;absolute positioning
M82 ;set extruder to absolute mode
M107 ;start with the fan off
G28 X0 Y0 ;move X/Y to min endstops
G28 Z0 ;move Z to min endstops
G1 Z15.0 F9000 ;move the platform down 15mm
G92 E0 ;zero the extruded length
G1 F200 E3 ;extrude 3mm of feed stock
G92 E0 ;zero the extruded length again
G1 F9000
M117 Printing...
G92 E0
G1 E-7.0000 F1200
G1 Z0.320 F1002
; process Process1
; layer 1, Z = 0.320
T0
; tool H0.320 W0.540
; skirt
G1 X93.825 Y92.601 F4800
G1 E0.0000 F360
G92 E0
G1 X94.712 Y91.772 E0.0924 F1800
G1 X94.753 Y91.737 E0.0965
G1 X95.006 Y91.530 E0.1214
G1 X95.049 Y91.498 E0.1255
G1 X96.041 Y90.797 E0.2180
G1 X96.086 Y90.768 E0.2221
G1 X96.366 Y90.598 E0.2470
G1 X96.413 Y90.572 E0.2511
G1 X97.491 Y90.013 E0.3435
G1 X97.539 Y89.990 E0.3476
G1 X97.839 Y89.860 E0.3725
G1 X97.889 Y89.840 E0.3766
G1 X99.033 Y89.433 E0.4690
G1 X99.085 Y89.417 E0.4731
G1 X99.400 Y89.329 E0.4980
G1 X99.452 Y89.316 E0.5021
G1 X100.641 Y89.069 E0.5946
G1 X100.694 Y89.060 E0.5987
G1 X101.018 Y89.015 E0.6236
G1 X101.071 Y89.010 E0.6277
G1 X102.201 Y88.932 E0.7139
G1 X102.228 Y88.931 E0.7159
G1 X102.391 Y88.925 E0.7284
G1 X102.418 Y88.925 E0.7304
G1 X117.582 Y88.925 E1.8848
G1 X117.609 Y88.925 E1.8868
G1 X117.772 Y88.931 E1.8993
G1 X117.799 Y88.932 E1.9013
G1 X118.929 Y89.010 E1.9875
G1 X118.982 Y89.015 E1.9916
G1 X119.306 Y89.060 E2.0165
G1 X119.359 Y89.069 E2.0206
G1 X120.548 Y89.316 E2.1131
G1 X120.600 Y89.329 E2.1172
G1 X120.915 Y89.417 E2.1421
G1 X120.967 Y89.433 E2.1462
G1 X122.111 Y89.840 E2.2386
G1 X122.161 Y89.860 E2.2427
G1 X122.461 Y89.990 E2.2676
G1 X122.509 Y90.013 E2.2717
G1 X123.587 Y90.572 E2.3641
G1 X123.634 Y90.598 E2.3682
G1 X123.914 Y90.768 E2.3931
G1 X123.959 Y90.797 E2.3972
G1 X124.951 Y91.498 E2.4897
G1 X124.994 Y91.530 E2.4938
G1 X125.247 Y91.737 E2.5187
G1 X125.288 Y91.772 E2.5228
G1 X126.175 Y92.601 E2.6152
G1 X126.213 Y92.639 E2.6193
G1 X126.436 Y92.878 E2.6442
G1 X126.472 Y92.918 E2.6483
G1 X127.238 Y93.860 E2.7407
G1 X127.271 Y93.903 E2.7448
G1 X127.459 Y94.170 E2.7697
G1 X127.489 Y94.215 E2.7738
G1 X128.120 Y95.253 E2.8663
G1 X128.146 Y95.300 E2.8704
G1 X128.296 Y95.590 E2.8953
G1 X128.320 Y95.639 E2.8993
G1 X128.803 Y96.752 E2.9918
G1 X128.823 Y96.802 E2.9959
G1 X128.933 Y97.110 E3.0208
G1 X128.949 Y97.162 E3.0249
G1 X129.276 Y98.331 E3.1173
G1 X129.289 Y98.383 E3.1214
G1 X129.356 Y98.703 E3.1463
G1 X129.365 Y98.756 E3.1504
G1 X129.530 Y99.959 E3.2428
G1 X129.536 Y100.013 E3.2469
G1 X129.558 Y100.339 E3.2718
G1 X129.560 Y100.393 E3.2759
G1 X129.560 Y101.607 E3.3684
G1 X129.558 Y101.661 E3.3725
G1 X129.536 Y101.987 E3.3974
G1 X129.530 Y102.041 E3.4015
G1 X129.365 Y103.244 E3.4939
G1 X129.356 Y103.297 E3.4980
G1 X129.289 Y103.617 E3.5229
G1 X129.276 Y103.669 E3.5270
G1 X128.949 Y104.838 E3.6194
G1 X128.933 Y104.890 E3.6235
G1 X128.823 Y105.198 E3.6484
G1 X128.803 Y105.248 E3.6525
G1 X128.320 Y106.361 E3.7450
G1 X128.296 Y106.410 E3.7491
G1 X128.146 Y106.700 E3.7740
G1 X128.120 Y106.747 E3.7781
G1 X127.489 Y107.785 E3.8705
G1 X127.459 Y107.830 E3.8746
G1 X127.271 Y108.097 E3.8995
G1 X127.238 Y108.140 E3.9036
G1 X126.472 Y109.082 E3.9960
G1 X126.436 Y109.122 E4.0001
G1 X126.213 Y109.361 E4.0250
G1 X126.175 Y109.399 E4.0291
G1 X125.532 Y110.000 E4.0961
G1 X126.175 Y110.601 E4.1631
G1 X126.213 Y110.639 E4.1672
G1 X126.436 Y110.878 E4.1921
G1 X126.472 Y110.918 E4.1962
G1 X127.238 Y111.860 E4.2886
G1 X127.271 Y111.903 E4.2927
G1 X127.459 Y112.170 E4.3176
G1 X127.489 Y112.215 E4.3217
G1 X128.120 Y113.253 E4.4141
G1 X128.146 Y113.299 E4.4182
G1 X128.296 Y113.590 E4.4432
G1 X128.320 Y113.639 E4.4472
G1 X128.803 Y114.752 E4.5397
G1 X128.823 Y114.802 E4.5438
G1 X128.933 Y115.110 E4.5687
G1 X128.949 Y115.162 E4.5728
G1 X129.276 Y116.331 E4.6652
G1 X129.289 Y116.383 E4.6693
G1 X129.356 Y116.703 E4.6942
G1 X129.365 Y116.756 E4.6983
G1 X129.530 Y117.959 E4.7907
G1 X129.536 Y118.013 E4.7948
G1 X129.558 Y118.339 E4.8197
G1 X129.560 Y118.393 E4.8238
G1 X129.560 Y119.607 E4.9163
G1 X129.558 Y119.661 E4.9204
G1 X129.536 Y119.987 E4.9453
G1 X129.530 Y120.041 E4.9494
G1 X129.365 Y121.244 E5.0418
G1 X129.356 Y121.297 E5.0459
G1 X129.289 Y121.617 E5.0708
G1 X129.276 Y121.669 E5.0749
G1 X128.949 Y122.838 E5.1673
G1 X128.933 Y122.890 E5.1714
G1 X128.823 Y123.198 E5.1963
G1 X128.803 Y123.248 E5.2004
G1 X128.320 Y124.361 E5.2928
G1 X128.296 Y124.410 E5.2969
G1 X128.146 Y124.700 E5.3219
G1 X128.120 Y124.747 E5.3259
G1 X127.489 Y125.785 E5.4184
G1 X127.459 Y125.830 E5.4225
G1 X127.271 Y126.097 E5.4474
G1 X127.238 Y126.140 E5.4515
G1 X126.472 Y127.082 E5.5439
G1 X126.436 Y127.122 E5.5480
G1 X126.213 Y127.361 E5.5729
G1 X126.175 Y127.399 E5.5770
G1 X125.288 Y128.228 E5.6694
G1 X125.247 Y128.263 E5.6735
G1 X124.994 Y128.470 E5.6984
G1 X124.951 Y128.502 E5.7025
G1 X123.959 Y129.203 E5.7950
G1 X123.914 Y129.232 E5.7991
G1 X123.634 Y129.402 E5.8240
G1 X123.587 Y129.428 E5.8281
G1 X122.509 Y129.987 E5.9205
G1 X122.461 Y130.010 E5.9246
G1 X122.161 Y130.140 E5.9495
G1 X122.111 Y130.160 E5.9536
G1 X120.967 Y130.567 E6.0460
G1 X120.915 Y130.583 E6.0501
G1 X120.600 Y130.671 E6.0750
G1 X120.548 Y130.684 E6.0791
G1 X119.359 Y130.931 E6.1716
G1 X119.306 Y130.940 E6.1756
G1 X118.982 Y130.985 E6.2005
G1 X118.929 Y130.990 E6.2046
G1 X117.799 Y131.068 E6.2909
G1 X117.772 Y131.069 E6.2929
G1 X117.609 Y131.075 E6.3054
G1 X117.582 Y131.075 E6.3074
G1 X102.418 Y131.075 E7.4618
G1 X102.391 Y131.075 E7.4639
G1 X102.228 Y131.069 E7.4763
G1 X102.201 Y131.068 E7.4783
G1 X101.071 Y130.990 E7.5646
G1 X101.018 Y130.985 E7.5687
G1 X100.694 Y130.940 E7.5936
G1 X100.641 Y130.931 E7.5976
G1 X99.452 Y130.684 E7.6901
G1 X99.400 Y130.671 E7.6942
G1 X99.085 Y130.583 E7.7191
G1 X99.033 Y130.567 E7.7232
G1 X97.889 Y130.160 E7.8156
G1 X97.839 Y130.140 E7.8197
G1 X97.539 Y130.010 E7.8446
G1 X97.491 Y129.987 E7.8487
G1 X96.413 Y129.428 E7.9411
G1 X96.366 Y129.402 E7.9452
G1 X96.086 Y129.232 E7.9701
G1 X96.041 Y129.203 E7.9742
G1 X95.049 Y128.502 E8.0667
G1 X95.006 Y128.470 E8.0708
G1 X94.753 Y128.263 E8.0957
G1 X94.712 Y128.228 E8.0998
G1 X93.825 Y127.399 E8.1922
G1 X93.787 Y127.361 E8.1963
G1 X93.564 Y127.122 E8.2212
G1 X93.528 Y127.082 E8.2253
G1 X92.762 Y126.140 E8.3177
G1 X92.729 Y126.097 E8.3218
G1 X92.541 Y125.830 E8.3467
G1 X92.511 Y125.785 E8.3508
G1 X91.880 Y124.747 E8.4433
G1 X91.854 Y124.700 E8.4474
G1 X91.704 Y124.410 E8.4723
G1 X91.680 Y124.362 E8.4763
G1 X91.197 Y123.248 E8.5688
G1 X91.177 Y123.198 E8.5729
G1 X91.067 Y122.890 E8.5978
G1 X91.051 Y122.838 E8.6019
G1 X90.724 Y121.669 E8.6943
G1 X90.711 Y121.617 E8.6984
G1 X90.644 Y121.297 E8.7233
G1 X90.635 Y121.244 E8.7274
G1 X90.470 Y120.041 E8.8199
G1 X90.464 Y119.987 E8.8239
G1 X90.442 Y119.661 E8.8488
G1 X90.440 Y119.607 E8.8529
G1 X90.440 Y118.393 E8.9454
G1 X90.442 Y118.339 E8.9495
G1 X90.464 Y118.013 E8.9744
G1 X90.470 Y117.959 E8.9785
G1 X90.635 Y116.756 E9.0709
G1 X90.644 Y116.703 E9.0750
G1 X90.711 Y116.383 E9.0999
G1 X90.724 Y116.331 E9.1040
G1 X91.051 Y115.162 E9.1964
G1 X91.067 Y115.110 E9.2005
G1 X91.177 Y114.802 E9.2254
G1 X91.197 Y114.752 E9.2295
G1 X91.680 Y113.638 E9.3220
G1 X91.704 Y113.590 E9.3261
G1 X91.854 Y113.299 E9.3510
G1 X91.880 Y113.253 E9.3551
G1 X92.511 Y112.215 E9.4475
G1 X92.541 Y112.170 E9.4516
G1 X92.729 Y111.903 E9.4765
G1 X92.762 Y111.860 E9.4806
G1 X93.528 Y110.918 E9.5730
G1 X93.564 Y110.878 E9.5771
G1 X93.787 Y110.639 E9.6020
G1 X93.825 Y110.601 E9.6061
G1 X94.468 Y110.000 E9.6731
G1 X93.825 Y109.399 E9.7401
G1 X93.787 Y109.361 E9.7442
G1 X93.564 Y109.122 E9.7691
G1 X93.528 Y109.082 E9.7732
G1 X92.762 Y108.140 E9.8656
G1 X92.729 Y108.097 E9.8697
G1 X92.541 Y107.830 E9.8946
G1 X92.511 Y107.785 E9.8987
G1 X91.880 Y106.747 E9.9912
G1 X91.854 Y106.700 E9.9952
G1 X91.704 Y106.410 E10.0201
G1 X91.680 Y106.361 E10.0242
G1 X91.197 Y105.248 E10.1167
G1 X91.177 Y105.198 E10.1208
G1 X91.067 Y104.890 E10.1457
G1 X91.051 Y104.838 E10.1498
G1 X90.724 Y103.669 E10.2422
G1 X90.711 Y103.617 E10.2463
G1 X90.644 Y103.297 E10.2712
G1 X90.635 Y103.244 E10.2753
G1 X90.470 Y102.041 E10.3677
G1 X90.464 Y101.987 E10.3718
G1 X90.442 Y101.661 E10.3967
G1 X90.440 Y101.607 E10.4008
G1 X90.440 Y100.393 E10.4933
G1 X90.442 Y100.339 E10.4974
G1 X90.464 Y100.013 E10.5223
G1 X90.470 Y99.959 E10.5264
G1 X90.635 Y98.756 E10.6188
G1 X90.644 Y98.703 E10.6229
G1 X90.711 Y98.383 E10.6478
G1 X90.724 Y98.331 E10.6519
G1 X91.051 Y97.162 E10.7443
G1 X91.067 Y97.110 E10.7484
G1 X91.177 Y96.802 E10.7733
G1 X91.197 Y96.752 E10.7774
G1 X91.680 Y95.639 E10.8699
G1 X91.704 Y95.590 E10.8739
G1 X91.854 Y95.300 E10.8989
G1 X91.880 Y95.253 E10.9029
G1 X92.511 Y94.215 E10.9954
G1 X92.541 Y94.170 E10.9995
G1 X92.558 Y94.146 E11.0017
G1 X92.729 Y93.903 F1800
G1 X92.762 Y93.860 F1800
G1 X93.528 Y92.918 F1800
G1 X93.564 Y92.878 F1800
G1 X93.787 Y92.639 F1800
G1 X93.825 Y92.601 F1800
G1 X94.138 Y92.924 F4800
G92 E0
G1 X95.014 Y92.106 E0.0913 F1800
G1 X95.043 Y92.081 E0.0942
G1 X95.284 Y91.884 E0.1179
G1 X95.315 Y91.861 E0.1209
G1 X96.295 Y91.169 E0.2121
G1 X96.327 Y91.148 E0.2150
G1 X96.593 Y90.986 E0.2388
G1 X96.626 Y90.968 E0.2417
G1 X97.691 Y90.416 E0.3330
G1 X97.726 Y90.400 E0.3359
G1 X98.012 Y90.275 E0.3596
G1 X98.047 Y90.261 E0.3625
G1 X99.177 Y89.860 E0.4538
G1 X99.214 Y89.848 E0.4567
G1 X99.514 Y89.764 E0.4805
G1 X99.551 Y89.755 E0.4834
G1 X100.725 Y89.511 E0.5747
G1 X100.763 Y89.504 E0.5776
G1 X101.072 Y89.462 E0.6013
G1 X101.110 Y89.458 E0.6043
G1 X102.228 Y89.382 E0.6896
G1 X102.247 Y89.381 E0.6910
G1 X102.403 Y89.375 E0.7029
G1 X102.422 Y89.375 E0.7044
G1 X117.578 Y89.375 E1.8582
G1 X117.597 Y89.375 E1.8596
G1 X117.753 Y89.381 E1.8715
G1 X117.772 Y89.382 E1.8730
G1 X118.890 Y89.458 E1.9583
G1 X118.928 Y89.462 E1.9612
G1 X119.237 Y89.504 E1.9850
G1 X119.275 Y89.511 E1.9879
G1 X120.449 Y89.755 E2.0792
G1 X120.486 Y89.764 E2.0821
