; G-Code generated by Simplify3D(R) Version 4.0.0
; Mar 24, 2018 at 5:32:55 PM
; Settings Summary
;   processName,Process1
;   applyToModels,encoder_join_exagonal
;   profileName,Anettina (modified)
;   profileVersion,2018-01-26 14:48:52
;   baseProfile,Default
;   printMaterial,PLA
;   printQuality,Fast
;   printExtruders,
;   extruderName,Extruder
;   extruderToolheadNumber,0
;   extruderDiameter,0.4
;   extruderAutoWidth,0
;   extruderWidth,0.45
;   extrusionMultiplier,1
;   extruderUseRetract,1
;   extruderRetractionDistance,7
;   extruderExtraRestartDistance,0
;   extruderRetractionZLift,0
;   extruderRetractionSpeed,1200
;   extruderUseCoasting,1
;   extruderCoastingDistance,2
;   extruderUseWipe,1
;   extruderWipeDistance,5
;   primaryExtruder,0
;   layerHeight,0.32
;   topSolidLayers,3
;   bottomSolidLayers,3
;   perimeterOutlines,3
;   printPerimetersInsideOut,1
;   startPointOption,2
;   startPointOriginX,0
;   startPointOriginY,0
;   sequentialIslands,0
;   spiralVaseMode,0
;   firstLayerHeightPercentage,100
;   firstLayerWidthPercentage,120
;   firstLayerUnderspeed,0.5
;   useRaft,0
;   raftExtruder,0
;   raftTopLayers,3
;   raftBaseLayers,2
;   raftOffset,3
;   raftSeparationDistance,0.14
;   raftTopInfill,100
;   aboveRaftSpeedMultiplier,0.3
;   useSkirt,1
;   skirtExtruder,0
;   skirtLayers,1
;   skirtOutlines,4
;   skirtOffset,4
;   usePrimePillar,0
;   primePillarExtruder,999
;   primePillarWidth,12
;   primePillarLocation,7
;   primePillarSpeedMultiplier,1
;   useOozeShield,0
;   oozeShieldExtruder,999
;   oozeShieldOffset,2
;   oozeShieldOutlines,1
;   oozeShieldSidewallShape,1
;   oozeShieldSidewallAngle,30
;   oozeShieldSpeedMultiplier,1
;   infillExtruder,0
;   internalInfillPattern,Rectilinear
;   externalInfillPattern,Rectilinear
;   infillPercentage,15
;   outlineOverlapPercentage,20
;   infillExtrusionWidthPercentage,100
;   minInfillLength,5
;   infillLayerInterval,1
;   internalInfillAngles,45,-45
;   overlapInternalInfillAngles,0
;   externalInfillAngles,45,-45
;   generateSupport,0
;   supportExtruder,0
;   supportInfillPercentage,25
;   supportExtraInflation,0
;   supportBaseLayers,1
;   denseSupportExtruder,0
;   denseSupportLayers,0
;   denseSupportInfillPercentage,70
;   supportLayerInterval,1
;   supportHorizontalPartOffset,0.3
;   supportUpperSeparationLayers,1
;   supportLowerSeparationLayers,1
;   supportType,0
;   supportGridSpacing,4
;   maxOverhangAngle,45
;   supportAngles,0
;   temperatureName,Extruder,Heated Bed
;   temperatureNumber,0,0
;   temperatureSetpointCount,1,1
;   temperatureSetpointLayers,1,1
;   temperatureSetpointTemperatures,200,60
;   temperatureStabilizeAtStartup,1,1
;   temperatureHeatedBed,0,1
;   temperatureRelayBetweenLayers,0,0
;   temperatureRelayBetweenLoops,0,0
;   fanLayers,1,2
;   fanSpeeds,0,100
;   blipFanToFullPower,0
;   adjustSpeedForCooling,1
;   minSpeedLayerTime,15
;   minCoolingSpeedSlowdown,20
;   increaseFanForCooling,0
;   minFanLayerTime,45
;   maxCoolingFanSpeed,100
;   increaseFanForBridging,0
;   bridgingFanSpeed,100
;   use5D,1
;   relativeEdistances,0
;   allowEaxisZeroing,1
;   independentExtruderAxes,0
;   includeM10123,0
;   stickySupport,1
;   applyToolheadOffsets,0
;   gcodeXoffset,0
;   gcodeYoffset,0
;   gcodeZoffset,0
;   overrideMachineDefinition,1
;   machineTypeOverride,0
;   strokeXoverride,220
;   strokeYoverride,220
;   strokeZoverride,240
;   originOffsetXoverride,0
;   originOffsetYoverride,0
;   originOffsetZoverride,0
;   homeXdirOverride,-1
;   homeYdirOverride,-1
;   homeZdirOverride,-1
;   flipXoverride,1
;   flipYoverride,-1
;   flipZoverride,1
;   toolheadOffsets,0,0|0,0|0,0|0,0|0,0|0,0
;   overrideFirmwareConfiguration,0
;   firmwareTypeOverride,RepRap (Marlin/Repetier/Sprinter)
;   GPXconfigOverride,r2
;   baudRateOverride,115200
;   overridePrinterModels,0
;   printerModelsOverride
;   startingGcode,G21 ;metric values,G90 ;absolute positioning,M82 ;set extruder to absolute mode,M107 ;start with the fan off,G28 X0 Y0 ;move X/Y to min endstops,G28 Z0 ;move Z to min endstops,G1 Z15.0 F9000 ;move the platform down 15mm,G92 E0 ;zero the extruded length,G1 F200 E3 ;extrude 3mm of feed stock,G92 E0 ;zero the extruded length again,G1 F9000,M117 Printing...
;   layerChangeGcode,
;   retractionGcode,
;   toolChangeGcode,
;   endingGcode,M104 S0 ; turn off extruder,M140 S0 ; turn off bed,G91 ;relative positioning,G1 E-1 F300  ;retract the filament a bit before lifting the nozzle, to release some of the pressure,G1 Z+0.5 E-5 X-20 Y-20 F9000 ;move Z up a bit and retract filament even more,G28 X0 Y0 ;move X/Y to min endstops, so the head is out of the way,G90 ;absolute positioning,G1 Y190 F9000 ;use this line if you want the bed to move to the front. delete if not.,M84 ;steppers off,M107 ; shut off fan,
;   exportFileFormat,gcode
;   celebration,0
;   celebrationSong,Random Song
;   postProcessing,
;   defaultSpeed,3600
;   outlineUnderspeed,0.5
;   solidInfillUnderspeed,0.8
;   supportUnderspeed,0.8
;   rapidXYspeed,4800
;   rapidZspeed,1002
;   minBridgingArea,50
;   bridgingExtraInflation,0
;   bridgingExtrusionMultiplier,1
;   bridgingSpeedMultiplier,1
;   useFixedBridgingAngle,0
;   fixedBridgingAngle,0
;   applyBridgingToPerimeters,0
;   filamentDiameters,1.7|1.7|1.7|1.7|1.7|1.7
;   filamentPricesPerKg,20|20|20|20|20|20
;   filamentDensities,1.25|1.25|1.25|1.25|1.25|1.25
;   useMinPrintHeight,0
;   minPrintHeight,0
;   useMaxPrintHeight,0
;   maxPrintHeight,0
;   useDiaphragm,0
;   diaphragmLayerInterval,20
;   robustSlicing,1
;   mergeAllIntoSolid,0
;   onlyRetractWhenCrossingOutline,1
;   retractBetweenLayers,1
;   useRetractionMinTravel,0
;   retractionMinTravel,3
;   retractWhileWiping,0
;   onlyWipeOutlines,1
;   avoidCrossingOutline,0
;   maxMovementDetourFactor,3
;   toolChangeRetractionDistance,12
;   toolChangeExtraRestartDistance,-0.5
;   toolChangeRetractionSpeed,600
;   externalThinWallType,0
;   internalThinWallType,2
;   thinWallAllowedOverlapPercentage,10
;   singleExtrusionMinLength,1
;   singleExtrusionMinPrintingWidthPercentage,50
;   singleExtrusionMaxPrintingWidthPercentage,200
;   singleExtrusionEndpointExtension,0.2
;   horizontalSizeCompensation,0
G90
M82
M106 S0
M140 S60
M190 S60
M104 S200 T0
M109 S200 T0
G21 ;metric values
G90 ;absolute positioning
M82 ;set extruder to absolute mode
M107 ;start with the fan off
G28 X0 Y0 ;move X/Y to min endstops
G28 Z0 ;move Z to min endstops
G1 Z15.0 F9000 ;move the platform down 15mm
G92 E0 ;zero the extruded length
G1 F200 E3 ;extrude 3mm of feed stock
G92 E0 ;zero the extruded length again
G1 F9000
M117 Printing...
G92 E0
G1 E-7.0000 F1200
G1 Z0.320 F1002
; process Process1
; layer 1, Z = 0.320
T0
; tool H0.320 W0.540
; skirt
G1 X100.577 Y100.229 F4800
G1 E0.0000 F360
G92 E0
G1 X100.615 Y100.191 E0.0041 F1689
G1 X100.854 Y99.967 E0.0290
G1 X100.894 Y99.932 E0.0331
G1 X101.996 Y99.035 E0.1412
G1 X102.040 Y99.003 E0.1454
G1 X102.309 Y98.812 E0.1705
G1 X102.355 Y98.783 E0.1746
G1 X103.582 Y98.039 E0.2839
G1 X103.628 Y98.013 E0.2879
G1 X103.919 Y97.863 E0.3128
G1 X103.967 Y97.840 E0.3169
G1 X105.265 Y97.278 E0.4245
G1 X105.314 Y97.258 E0.4286
G1 X105.621 Y97.150 E0.4534
G1 X105.672 Y97.134 E0.4575
G1 X107.030 Y96.754 E0.5648
G1 X107.082 Y96.741 E0.5688
G1 X107.401 Y96.675 E0.5937
G1 X107.454 Y96.666 E0.5977
G1 X108.858 Y96.473 E0.7056
G1 X108.911 Y96.468 E0.7097
G1 X109.237 Y96.445 E0.7346
G1 X109.291 Y96.444 E0.7387
G1 X110.709 Y96.444 E0.8466
G1 X110.763 Y96.445 E0.8507
G1 X111.089 Y96.468 E0.8756
G1 X111.142 Y96.473 E0.8797
G1 X112.546 Y96.666 E0.9876
G1 X112.599 Y96.675 E0.9917
G1 X112.918 Y96.741 E1.0165
G1 X112.970 Y96.754 E1.0206
G1 X114.328 Y97.134 E1.1279
G1 X114.380 Y97.150 E1.1320
G1 X114.687 Y97.259 E1.1569
G1 X114.737 Y97.279 E1.1610
G1 X116.049 Y97.847 E1.2698
G1 X116.097 Y97.870 E1.2739
G1 X116.390 Y98.022 E1.2989
G1 X116.437 Y98.048 E1.3031
G1 X117.650 Y98.786 E1.4111
G1 X117.695 Y98.815 E1.4152
G1 X117.962 Y99.004 E1.4401
G1 X118.005 Y99.036 E1.4442
G1 X119.106 Y99.932 E1.5523
G1 X119.146 Y99.967 E1.5564
G1 X119.385 Y100.191 E1.5813
G1 X119.423 Y100.229 E1.5854
G1 X120.392 Y101.266 E1.6934
G1 X120.427 Y101.306 E1.6975
G1 X120.633 Y101.560 E1.7224
G1 X120.666 Y101.603 E1.7265
G1 X121.484 Y102.762 E1.8345
G1 X121.514 Y102.807 E1.8386
G1 X121.684 Y103.086 E1.8635
G1 X121.710 Y103.133 E1.8676
G1 X122.363 Y104.393 E1.9756
G1 X122.386 Y104.442 E1.9797
G1 X122.516 Y104.742 E2.0046
G1 X122.536 Y104.792 E2.0087
G1 X123.011 Y106.129 E2.1167
G1 X123.027 Y106.180 E2.1208
G1 X123.116 Y106.495 E2.1457
G1 X123.128 Y106.547 E2.1498
G1 X123.417 Y107.936 E2.2578
G1 X123.426 Y107.989 E2.2619
G1 X123.471 Y108.314 E2.2868
G1 X123.476 Y108.367 E2.2909
G1 X123.573 Y109.783 E2.3990
G1 X123.575 Y109.836 E2.4030
G1 X123.575 Y110.164 E2.4279
G1 X123.573 Y110.217 E2.4320
G1 X123.476 Y111.633 E2.5401
G1 X123.471 Y111.686 E2.5442
G1 X123.426 Y112.011 E2.5691
G1 X123.417 Y112.064 E2.5732
G1 X123.128 Y113.453 E2.6812
G1 X123.116 Y113.505 E2.6853
G1 X123.027 Y113.820 E2.7102
G1 X123.011 Y113.871 E2.7143
G1 X122.536 Y115.208 E2.8223
G1 X122.516 Y115.258 E2.8264
G1 X122.386 Y115.558 E2.8513
G1 X122.363 Y115.607 E2.8554
G1 X121.710 Y116.867 E2.9634
G1 X121.684 Y116.914 E2.9675
G1 X121.514 Y117.193 E2.9924
G1 X121.484 Y117.238 E2.9965
G1 X120.666 Y118.397 E3.1045
G1 X120.633 Y118.440 E3.1086
G1 X120.427 Y118.694 E3.1335
G1 X120.392 Y118.734 E3.1376
G1 X119.423 Y119.771 E3.2456
G1 X119.385 Y119.809 E3.2497
G1 X119.146 Y120.033 E3.2746
G1 X119.106 Y120.068 E3.2787
G1 X118.005 Y120.964 E3.3868
G1 X117.962 Y120.996 E3.3909
G1 X117.695 Y121.185 E3.4158
G1 X117.650 Y121.214 E3.4198
G1 X116.438 Y121.951 E3.5278
G1 X116.391 Y121.977 E3.5319
G1 X116.102 Y122.127 E3.5567
G1 X116.053 Y122.150 E3.5608
G1 X114.767 Y122.710 E3.6676
G1 X114.718 Y122.730 E3.6716
G1 X114.411 Y122.839 E3.6964
G1 X114.360 Y122.855 E3.7005
G1 X112.978 Y123.244 E3.8098
G1 X112.926 Y123.257 E3.8139
G1 X112.602 Y123.324 E3.8391
G1 X112.548 Y123.334 E3.8432
G1 X111.142 Y123.527 E3.9513
G1 X111.089 Y123.532 E3.9554
G1 X110.763 Y123.555 E3.9803
G1 X110.709 Y123.556 E3.9843
G1 X109.291 Y123.556 E4.0923
G1 X109.237 Y123.555 E4.0964
G1 X108.911 Y123.532 E4.1213
G1 X108.858 Y123.527 E4.1253
G1 X107.452 Y123.334 E4.2334
G1 X107.398 Y123.324 E4.2376
G1 X107.074 Y123.257 E4.2627
G1 X107.022 Y123.244 E4.2668
G1 X105.640 Y122.855 E4.3762
G1 X105.589 Y122.839 E4.3802
G1 X105.282 Y122.730 E4.4050
G1 X105.233 Y122.710 E4.4090
G1 X103.947 Y122.150 E4.5158
G1 X103.898 Y122.127 E4.5199
G1 X103.609 Y121.977 E4.5447
G1 X103.562 Y121.951 E4.5488
G1 X102.350 Y121.214 E4.6568
G1 X102.305 Y121.185 E4.6609
G1 X102.038 Y120.996 E4.6858
G1 X101.995 Y120.964 E4.6899
G1 X100.894 Y120.068 E4.7979
G1 X100.854 Y120.033 E4.8020
G1 X100.615 Y119.809 E4.8269
G1 X100.577 Y119.771 E4.8310
G1 X99.608 Y118.734 E4.9390
G1 X99.573 Y118.694 E4.9431
G1 X99.367 Y118.440 E4.9680
G1 X99.334 Y118.397 E4.9721
G1 X98.516 Y117.238 E5.0801
G1 X98.486 Y117.193 E5.0842
G1 X98.316 Y116.914 E5.1091
G1 X98.290 Y116.867 E5.1132
G1 X97.637 Y115.607 E5.2212
G1 X97.614 Y115.558 E5.2253
G1 X97.484 Y115.258 E5.2502
G1 X97.464 Y115.208 E5.2543
G1 X96.989 Y113.871 E5.3624
G1 X96.973 Y113.820 E5.3665
G1 X96.884 Y113.505 E5.3914
G1 X96.872 Y113.453 E5.3954
G1 X96.583 Y112.064 E5.5035
G1 X96.574 Y112.010 E5.5076
G1 X96.529 Y111.686 E5.5325
G1 X96.524 Y111.633 E5.5366
G1 X96.427 Y110.217 E5.6446
G1 X96.425 Y110.164 E5.6487
G1 X96.425 Y109.836 E5.6736
G1 X96.427 Y109.783 E5.6777
G1 X96.524 Y108.367 E5.7857
G1 X96.529 Y108.314 E5.7898
G1 X96.574 Y107.990 E5.8147
G1 X96.583 Y107.936 E5.8188
G1 X96.872 Y106.547 E5.9268
G1 X96.884 Y106.495 E5.9309
G1 X96.973 Y106.180 E5.9558
G1 X96.989 Y106.129 E5.9599
G1 X97.464 Y104.792 E6.0679
G1 X97.484 Y104.742 E6.0720
G1 X97.614 Y104.442 E6.0969
G1 X97.637 Y104.393 E6.1010
G1 X98.286 Y103.140 E6.2084
G1 X98.312 Y103.094 E6.2125
G1 X98.481 Y102.816 E6.2373
G1 X98.510 Y102.771 E6.2413
G1 X99.250 Y101.722 E6.3390
G1 X99.332 Y101.606 F1689
G1 X99.364 Y101.563 F1689
G1 X99.572 Y101.307 F1689
G1 X99.608 Y101.266 F1689
G1 X100.577 Y100.229 F1689
G1 X100.900 Y100.541 F4800
G92 E0
G1 X100.928 Y100.514 E0.0029 F1689
G1 X101.155 Y100.301 E0.0267
G1 X101.184 Y100.276 E0.0296
G1 X102.274 Y99.389 E0.1365
G1 X102.305 Y99.366 E0.1395
G1 X102.562 Y99.185 E0.1635
G1 X102.595 Y99.163 E0.1664
G1 X103.808 Y98.428 E0.2744
G1 X103.842 Y98.409 E0.2774
G1 X104.119 Y98.266 E0.3011
G1 X104.153 Y98.249 E0.3040
G1 X105.436 Y97.694 E0.4105
G1 X105.472 Y97.680 E0.4134
G1 X105.764 Y97.576 E0.4370
G1 X105.801 Y97.565 E0.4399
G1 X107.143 Y97.190 E0.5460
G1 X107.181 Y97.180 E0.5489
G1 X107.485 Y97.117 E0.5726
G1 X107.523 Y97.111 E0.5755
G1 X108.912 Y96.920 E0.6822
G1 X108.950 Y96.916 E0.6852
G1 X109.260 Y96.895 E0.7089
G1 X109.299 Y96.894 E0.7118
G1 X110.701 Y96.894 E0.8186
G1 X110.740 Y96.895 E0.8215
G1 X111.050 Y96.916 E0.8452
G1 X111.088 Y96.920 E0.8481
G1 X112.477 Y97.111 E0.9549
G1 X112.515 Y97.117 E0.9578
G1 X112.819 Y97.180 E0.9814
G1 X112.857 Y97.190 E0.9843
G1 X114.200 Y97.565 E1.0905
G1 X114.236 Y97.577 E1.0934
G1 X114.530 Y97.681 E1.1171
G1 X114.565 Y97.695 E1.1200
G1 X115.863 Y98.257 E1.2277
G1 X115.897 Y98.274 E1.2306
G1 X116.176 Y98.418 E1.2545
G1 X116.209 Y98.437 E1.2574
G1 X117.409 Y99.166 E1.3643
G1 X117.442 Y99.187 E1.3673
G1 X117.696 Y99.367 E1.3910
G1 X117.727 Y99.390 E1.3939
G1 X118.816 Y100.276 E1.5008
G1 X118.845 Y100.301 E1.5037
G1 X119.072 Y100.514 E1.5274
G1 X119.100 Y100.541 E1.5304
G1 X120.058 Y101.567 E1.6372
G1 X120.083 Y101.596 E1.6401
G1 X120.280 Y101.838 E1.6639
G1 X120.303 Y101.868 E1.6668
G1 X121.112 Y103.015 E1.7737
G1 X121.133 Y103.047 E1.7766
G1 X121.295 Y103.314 E1.8003
G1 X121.314 Y103.347 E1.8032
G1 X121.960 Y104.593 E1.9101
G1 X121.976 Y104.628 E1.9130
G1 X122.100 Y104.914 E1.9367
G1 X122.115 Y104.950 E1.9397
G1 X122.585 Y106.272 E2.0465
G1 X122.596 Y106.309 E2.0494
G1 X122.680 Y106.609 E2.0732
G1 X122.689 Y106.646 E2.0761
G1 X122.975 Y108.021 E2.1830
G1 X122.982 Y108.058 E2.1859
G1 X123.024 Y108.367 E2.2096
G1 X123.028 Y108.405 E2.2125
G1 X123.124 Y109.806 E2.3194
G1 X123.125 Y109.844 E2.3223
G1 X123.125 Y110.156 E2.3460
G1 X123.124 Y110.194 E2.3490
G1 X123.028 Y111.595 E2.4558
G1 X123.024 Y111.633 E2.4588
G1 X122.982 Y111.942 E2.4825
G1 X122.975 Y111.979 E2.4854
G1 X122.689 Y113.354 E2.5923
G1 X122.680 Y113.391 E2.5952
G1 X122.596 Y113.691 E2.6189
G1 X122.585 Y113.728 E2.6218
G1 X122.115 Y115.050 E2.7287
G1 X122.100 Y115.086 E2.7316
G1 X121.976 Y115.372 E2.7554
G1 X121.960 Y115.407 E2.7583
G1 X121.314 Y116.653 E2.8651
G1 X121.295 Y116.686 E2.8681
G1 X121.133 Y116.953 E2.8918
G1 X121.112 Y116.985 E2.8947
G1 X120.303 Y118.132 E3.0016
G1 X120.280 Y118.162 E3.0045
G1 X120.083 Y118.404 E3.0282
G1 X120.058 Y118.433 E3.0311
G1 X119.100 Y119.459 E3.1380
G1 X119.072 Y119.486 E3.1409
G1 X118.845 Y119.699 E3.1647
G1 X118.816 Y119.724 E3.1676
G1 X117.727 Y120.610 E3.2744
G1 X117.696 Y120.633 E3.2774
G1 X117.442 Y120.813 E3.3011
G1 X117.409 Y120.834 E3.3040
G1 X116.211 Y121.563 E3.4108
G1 X116.177 Y121.581 E3.4137
G1 X115.901 Y121.724 E3.4374
G1 X115.867 Y121.741 E3.4403
G1 X114.595 Y122.294 E3.5459
G1 X114.559 Y122.308 E3.5488
G1 X114.267 Y122.412 E3.5724
G1 X114.231 Y122.424 E3.5753
G1 X112.864 Y122.809 E3.6835
G1 X112.826 Y122.818 E3.6864
G1 X112.518 Y122.882 E3.7104
G1 X112.480 Y122.889 E3.7133
G1 X111.088 Y123.080 E3.8202
G1 X111.050 Y123.084 E3.8232
G1 X110.740 Y123.105 E3.8469
G1 X110.701 Y123.106 E3.8498
G1 X109.299 Y123.106 E3.9566
G1 X109.260 Y123.105 E3.9595
G1 X108.950 Y123.084 E3.9832
G1 X108.912 Y123.080 E3.9861
G1 X107.520 Y122.889 E4.0930
G1 X107.482 Y122.882 E4.0960
G1 X107.174 Y122.818 E4.1200
G1 X107.136 Y122.809 E4.1229
G1 X105.769 Y122.424 E4.2310
G1 X105.733 Y122.412 E4.2340
G1 X105.441 Y122.308 E4.2575
G1 X105.405 Y122.294 E4.2604
G1 X104.133 Y121.741 E4.3661
G1 X104.098 Y121.724 E4.3690
G1 X103.823 Y121.581 E4.3926
G1 X103.789 Y121.563 E4.3955
G1 X102.591 Y120.834 E4.5023
G1 X102.558 Y120.813 E4.5053
G1 X102.304 Y120.633 E4.5290
G1 X102.273 Y120.610 E4.5319
G1 X101.184 Y119.724 E4.6388
