; G-Code generated by Simplify3D(R) Version 4.0.0
; Mar 26, 2018 at 7:48:07 PM
; Settings Summary
;   processName,Process1
;   applyToModels,axis_join_rev4
;   profileName,Anettina (modified)
;   profileVersion,2018-01-26 14:48:52
;   baseProfile,Default
;   printMaterial,PLA
;   printQuality,Fast
;   printExtruders,
;   extruderName,Extruder
;   extruderToolheadNumber,0
;   extruderDiameter,0.4
;   extruderAutoWidth,0
;   extruderWidth,0.45
;   extrusionMultiplier,1
;   extruderUseRetract,1
;   extruderRetractionDistance,7
;   extruderExtraRestartDistance,0
;   extruderRetractionZLift,0
;   extruderRetractionSpeed,1200
;   extruderUseCoasting,1
;   extruderCoastingDistance,2
;   extruderUseWipe,1
;   extruderWipeDistance,5
;   primaryExtruder,0
;   layerHeight,0.32
;   topSolidLayers,3
;   bottomSolidLayers,3
;   perimeterOutlines,3
;   printPerimetersInsideOut,1
;   startPointOption,2
;   startPointOriginX,0
;   startPointOriginY,0
;   sequentialIslands,0
;   spiralVaseMode,0
;   firstLayerHeightPercentage,100
;   firstLayerWidthPercentage,120
;   firstLayerUnderspeed,0.5
;   useRaft,0
;   raftExtruder,0
;   raftTopLayers,3
;   raftBaseLayers,2
;   raftOffset,3
;   raftSeparationDistance,0.14
;   raftTopInfill,100
;   aboveRaftSpeedMultiplier,0.3
;   useSkirt,1
;   skirtExtruder,0
;   skirtLayers,1
;   skirtOutlines,4
;   skirtOffset,4
;   usePrimePillar,0
;   primePillarExtruder,999
;   primePillarWidth,12
;   primePillarLocation,7
;   primePillarSpeedMultiplier,1
;   useOozeShield,0
;   oozeShieldExtruder,999
;   oozeShieldOffset,2
;   oozeShieldOutlines,1
;   oozeShieldSidewallShape,1
;   oozeShieldSidewallAngle,30
;   oozeShieldSpeedMultiplier,1
;   infillExtruder,0
;   internalInfillPattern,Rectilinear
;   externalInfillPattern,Rectilinear
;   infillPercentage,15
;   outlineOverlapPercentage,20
;   infillExtrusionWidthPercentage,100
;   minInfillLength,5
;   infillLayerInterval,1
;   internalInfillAngles,45,-45
;   overlapInternalInfillAngles,0
;   externalInfillAngles,45,-45
;   generateSupport,0
;   supportExtruder,0
;   supportInfillPercentage,25
;   supportExtraInflation,0
;   supportBaseLayers,1
;   denseSupportExtruder,0
;   denseSupportLayers,0
;   denseSupportInfillPercentage,70
;   supportLayerInterval,1
;   supportHorizontalPartOffset,0.3
;   supportUpperSeparationLayers,1
;   supportLowerSeparationLayers,1
;   supportType,0
;   supportGridSpacing,4
;   maxOverhangAngle,45
;   supportAngles,0
;   temperatureName,Extruder,Heated Bed
;   temperatureNumber,0,0
;   temperatureSetpointCount,1,1
;   temperatureSetpointLayers,1,1
;   temperatureSetpointTemperatures,200,60
;   temperatureStabilizeAtStartup,1,1
;   temperatureHeatedBed,0,1
;   temperatureRelayBetweenLayers,0,0
;   temperatureRelayBetweenLoops,0,0
;   fanLayers,1,2
;   fanSpeeds,0,100
;   blipFanToFullPower,0
;   adjustSpeedForCooling,1
;   minSpeedLayerTime,15
;   minCoolingSpeedSlowdown,20
;   increaseFanForCooling,0
;   minFanLayerTime,45
;   maxCoolingFanSpeed,100
;   increaseFanForBridging,0
;   bridgingFanSpeed,100
;   use5D,1
;   relativeEdistances,0
;   allowEaxisZeroing,1
;   independentExtruderAxes,0
;   includeM10123,0
;   stickySupport,1
;   applyToolheadOffsets,0
;   gcodeXoffset,0
;   gcodeYoffset,0
;   gcodeZoffset,0
;   overrideMachineDefinition,1
;   machineTypeOverride,0
;   strokeXoverride,220
;   strokeYoverride,220
;   strokeZoverride,240
;   originOffsetXoverride,0
;   originOffsetYoverride,0
;   originOffsetZoverride,0
;   homeXdirOverride,-1
;   homeYdirOverride,-1
;   homeZdirOverride,-1
;   flipXoverride,1
;   flipYoverride,-1
;   flipZoverride,1
;   toolheadOffsets,0,0|0,0|0,0|0,0|0,0|0,0
;   overrideFirmwareConfiguration,0
;   firmwareTypeOverride,RepRap (Marlin/Repetier/Sprinter)
;   GPXconfigOverride,r2
;   baudRateOverride,115200
;   overridePrinterModels,0
;   printerModelsOverride
;   startingGcode,G21 ;metric values,G90 ;absolute positioning,M82 ;set extruder to absolute mode,M107 ;start with the fan off,G28 X0 Y0 ;move X/Y to min endstops,G28 Z0 ;move Z to min endstops,G1 Z15.0 F9000 ;move the platform down 15mm,G92 E0 ;zero the extruded length,G1 F200 E3 ;extrude 3mm of feed stock,G92 E0 ;zero the extruded length again,G1 F9000,M117 Printing...
;   layerChangeGcode,
;   retractionGcode,
;   toolChangeGcode,
;   endingGcode,M104 S0 ; turn off extruder,M140 S0 ; turn off bed,G91 ;relative positioning,G1 E-1 F300  ;retract the filament a bit before lifting the nozzle, to release some of the pressure,G1 Z+0.5 E-5 X-20 Y-20 F9000 ;move Z up a bit and retract filament even more,G28 X0 Y0 ;move X/Y to min endstops, so the head is out of the way,G90 ;absolute positioning,G1 Y190 F9000 ;use this line if you want the bed to move to the front. delete if not.,M84 ;steppers off,M107 ; shut off fan,
;   exportFileFormat,gcode
;   celebration,0
;   celebrationSong,Random Song
;   postProcessing,
;   defaultSpeed,3600
;   outlineUnderspeed,0.5
;   solidInfillUnderspeed,0.8
;   supportUnderspeed,0.8
;   rapidXYspeed,4800
;   rapidZspeed,1002
;   minBridgingArea,50
;   bridgingExtraInflation,0
;   bridgingExtrusionMultiplier,1
;   bridgingSpeedMultiplier,1
;   useFixedBridgingAngle,0
;   fixedBridgingAngle,0
;   applyBridgingToPerimeters,0
;   filamentDiameters,1.7|1.7|1.7|1.7|1.7|1.7
;   filamentPricesPerKg,20|20|20|20|20|20
;   filamentDensities,1.25|1.25|1.25|1.25|1.25|1.25
;   useMinPrintHeight,0
;   minPrintHeight,0
;   useMaxPrintHeight,0
;   maxPrintHeight,0
;   useDiaphragm,0
;   diaphragmLayerInterval,20
;   robustSlicing,1
;   mergeAllIntoSolid,0
;   onlyRetractWhenCrossingOutline,1
;   retractBetweenLayers,1
;   useRetractionMinTravel,0
;   retractionMinTravel,3
;   retractWhileWiping,0
;   onlyWipeOutlines,1
;   avoidCrossingOutline,0
;   maxMovementDetourFactor,3
;   toolChangeRetractionDistance,12
;   toolChangeExtraRestartDistance,-0.5
;   toolChangeRetractionSpeed,600
;   externalThinWallType,0
;   internalThinWallType,2
;   thinWallAllowedOverlapPercentage,10
;   singleExtrusionMinLength,1
;   singleExtrusionMinPrintingWidthPercentage,50
;   singleExtrusionMaxPrintingWidthPercentage,200
;   singleExtrusionEndpointExtension,0.2
;   horizontalSizeCompensation,0
G90
M82
M106 S0
M140 S60
M190 S60
M104 S200 T0
M109 S200 T0
G21 ;metric values
G90 ;absolute positioning
M82 ;set extruder to absolute mode
M107 ;start with the fan off
G28 X0 Y0 ;move X/Y to min endstops
G28 Z0 ;move Z to min endstops
G1 Z15.0 F9000 ;move the platform down 15mm
G92 E0 ;zero the extruded length
G1 F200 E3 ;extrude 3mm of feed stock
G92 E0 ;zero the extruded length again
G1 F9000
M117 Printing...
G92 E0
G1 E-7.0000 F1200
G1 Z0.320 F1002
; process Process1
; layer 1, Z = 0.320
T0
; tool H0.320 W0.540
; skirt
G1 X94.488 Y64.805 F4800
G1 E0.0000 F360
G92 E0
G1 X95.978 Y62.678 E0.1977 F1800
G1 X96.019 Y62.623 E0.2029
G1 X96.288 Y62.303 E0.2348
G1 X96.335 Y62.253 E0.2400
G1 X98.171 Y60.416 E0.4377
G1 X98.222 Y60.370 E0.4429
G1 X98.542 Y60.101 E0.4748
G1 X98.596 Y60.059 E0.4800
G1 X100.724 Y58.570 E0.6777
G1 X100.781 Y58.533 E0.6829
G1 X101.143 Y58.324 E0.7147
G1 X101.204 Y58.292 E0.7200
G1 X103.558 Y57.195 E0.9177
G1 X103.622 Y57.168 E0.9229
G1 X104.014 Y57.025 E0.9547
G1 X104.080 Y57.005 E0.9600
G1 X106.588 Y56.333 E1.1577
G1 X106.655 Y56.318 E1.1629
G1 X107.067 Y56.245 E1.1947
G1 X107.135 Y56.236 E1.2000
G1 X109.722 Y56.010 E1.3977
G1 X109.791 Y56.007 E1.4029
G1 X110.209 Y56.007 E1.4347
G1 X110.278 Y56.010 E1.4400
G1 X112.865 Y56.236 E1.6377
G1 X112.933 Y56.245 E1.6429
G1 X113.345 Y56.318 E1.6747
G1 X113.412 Y56.333 E1.6799
G1 X115.920 Y57.005 E1.8777
G1 X115.986 Y57.025 E1.8829
G1 X116.378 Y57.168 E1.9147
G1 X116.442 Y57.195 E1.9199
G1 X118.796 Y58.292 E2.1176
G1 X118.856 Y58.324 E2.1229
G1 X119.218 Y58.533 E2.1547
G1 X119.276 Y58.570 E2.1599
G1 X121.404 Y60.059 E2.3576
G1 X121.458 Y60.101 E2.3629
G1 X121.778 Y60.370 E2.3947
G1 X121.829 Y60.416 E2.3999
G1 X123.665 Y62.253 E2.5976
G1 X123.712 Y62.303 E2.6029
G1 X123.981 Y62.623 E2.6347
G1 X124.022 Y62.678 E2.6399
G1 X125.512 Y64.805 E2.8376
G1 X125.549 Y64.863 E2.8429
G1 X125.758 Y65.225 E2.8747
G1 X125.790 Y65.286 E2.8799
G1 X126.887 Y67.640 E3.0776
G1 X126.913 Y67.703 E3.0828
G1 X127.056 Y68.096 E3.1147
G1 X127.077 Y68.162 E3.1199
G1 X127.749 Y70.670 E3.3176
G1 X127.764 Y70.737 E3.3228
G1 X127.837 Y71.149 E3.3547
G1 X127.846 Y71.217 E3.3599
G1 X128.063 Y73.700 E3.5496
G1 X128.065 Y73.734 E3.5523
G1 X128.074 Y73.943 E3.5682
G1 X128.075 Y73.977 E3.5708
G1 X128.075 Y146.023 E9.0556
G1 X128.074 Y146.057 E9.0582
G1 X128.065 Y146.266 E9.0741
G1 X128.063 Y146.300 E9.0767
G1 X127.846 Y148.783 E9.2665
G1 X127.837 Y148.851 E9.2717
G1 X127.764 Y149.263 E9.3035
G1 X127.749 Y149.330 E9.3088
G1 X127.077 Y151.838 E9.5065
G1 X127.056 Y151.904 E9.5117
G1 X126.913 Y152.297 E9.5435
G1 X126.887 Y152.360 E9.5488
G1 X125.790 Y154.714 E9.7465
G1 X125.758 Y154.775 E9.7517
G1 X125.549 Y155.137 E9.7835
G1 X125.512 Y155.195 E9.7887
G1 X124.022 Y157.322 E9.9864
G1 X123.981 Y157.376 E9.9917
G1 X123.712 Y157.697 E10.0235
G1 X123.665 Y157.747 E10.0287
G1 X121.829 Y159.584 E10.2264
G1 X121.779 Y159.630 E10.2317
G1 X121.458 Y159.899 E10.2635
G1 X121.404 Y159.941 E10.2687
G1 X119.276 Y161.430 E10.4664
G1 X119.219 Y161.467 E10.4717
G1 X118.856 Y161.676 E10.5035
G1 X118.796 Y161.708 E10.5087
G1 X116.442 Y162.805 E10.7064
G1 X116.378 Y162.832 E10.7117
G1 X115.986 Y162.975 E10.7435
G1 X115.920 Y162.995 E10.7487
G1 X113.412 Y163.667 E10.9464
G1 X113.345 Y163.682 E10.9517
G1 X112.933 Y163.755 E10.9835
G1 X112.865 Y163.764 E10.9887
G1 X110.278 Y163.990 E11.1864
G1 X110.209 Y163.993 E11.1916
G1 X109.791 Y163.993 E11.2235
G1 X109.722 Y163.990 E11.2287
G1 X107.135 Y163.764 E11.4264
G1 X107.067 Y163.755 E11.4316
G1 X106.656 Y163.682 E11.4635
G1 X106.588 Y163.667 E11.4687
G1 X104.080 Y162.995 E11.6664
G1 X104.014 Y162.975 E11.6716
G1 X103.622 Y162.832 E11.7034
G1 X103.558 Y162.805 E11.7087
G1 X101.204 Y161.708 E11.9064
G1 X101.143 Y161.676 E11.9116
G1 X100.781 Y161.467 E11.9434
G1 X100.724 Y161.430 E11.9487
G1 X98.596 Y159.941 E12.1464
G1 X98.542 Y159.899 E12.1516
G1 X98.222 Y159.630 E12.1834
G1 X98.171 Y159.584 E12.1887
G1 X96.335 Y157.747 E12.3864
G1 X96.288 Y157.697 E12.3916
G1 X96.019 Y157.376 E12.4234
G1 X95.978 Y157.322 E12.4287
G1 X94.488 Y155.195 E12.6264
G1 X94.451 Y155.137 E12.6316
G1 X94.242 Y154.775 E12.6634
G1 X94.210 Y154.714 E12.6687
G1 X93.113 Y152.360 E12.8664
G1 X93.087 Y152.297 E12.8716
G1 X92.944 Y151.904 E12.9034
G1 X92.923 Y151.838 E12.9086
G1 X92.251 Y149.330 E13.1063
G1 X92.236 Y149.263 E13.1116
G1 X92.163 Y148.851 E13.1434
G1 X92.154 Y148.783 E13.1486
G1 X91.937 Y146.300 E13.3384
G1 X91.935 Y146.266 E13.3410
G1 X91.926 Y146.057 E13.3569
G1 X91.925 Y146.023 E13.3595
G1 X91.925 Y73.977 E18.8443
G1 X91.926 Y73.943 E18.8469
G1 X91.935 Y73.734 E18.8629
G1 X91.937 Y73.700 E18.8655
G1 X92.154 Y71.217 E19.0552
G1 X92.163 Y71.149 E19.0604
G1 X92.236 Y70.737 E19.0923
G1 X92.251 Y70.670 E19.0975
G1 X92.923 Y68.162 E19.2952
G1 X92.944 Y68.096 E19.3004
G1 X93.087 Y67.703 E19.3323
G1 X93.113 Y67.640 E19.3375
G1 X93.600 Y66.595 E19.4252
G1 X94.210 Y65.286 F1800
G1 X94.242 Y65.225 F1800
G1 X94.451 Y64.863 F1800
G1 X94.488 Y64.805 F1800
G1 X94.862 Y65.055 F4800
G92 E0
G1 X96.341 Y62.944 E0.1962 F1800
G1 X96.370 Y62.905 E0.1999
G1 X96.626 Y62.600 E0.2303
G1 X96.660 Y62.564 E0.2340
G1 X98.482 Y60.741 E0.4302
G1 X98.518 Y60.708 E0.4340
G1 X98.823 Y60.452 E0.4643
G1 X98.862 Y60.422 E0.4680
G1 X100.974 Y58.944 E0.6642
G1 X101.015 Y58.918 E0.6680
G1 X101.360 Y58.718 E0.6983
G1 X101.404 Y58.696 E0.7020
G1 X103.739 Y57.607 E0.8982
G1 X103.785 Y57.588 E0.9020
G1 X104.159 Y57.452 E0.9323
G1 X104.206 Y57.437 E0.9360
G1 X106.695 Y56.770 E1.1323
G1 X106.743 Y56.759 E1.1360
G1 X107.136 Y56.690 E1.1663
G1 X107.184 Y56.684 E1.1701
G1 X109.752 Y56.459 E1.3663
G1 X109.801 Y56.457 E1.3700
G1 X110.199 Y56.457 E1.4003
G1 X110.248 Y56.459 E1.4041
G1 X112.816 Y56.684 E1.6003
G1 X112.864 Y56.690 E1.6040
G1 X113.257 Y56.759 E1.6343
G1 X113.305 Y56.770 E1.6381
G1 X115.794 Y57.437 E1.8343
G1 X115.841 Y57.452 E1.8380
G1 X116.215 Y57.588 E1.8684
G1 X116.261 Y57.607 E1.8721
G1 X118.596 Y58.696 E2.0683
G1 X118.640 Y58.718 E2.0720
G1 X118.985 Y58.918 E2.1024
G1 X119.026 Y58.944 E2.1061
G1 X121.138 Y60.422 E2.3023
G1 X121.177 Y60.452 E2.3061
G1 X121.482 Y60.708 E2.3364
G1 X121.518 Y60.741 E2.3401
G1 X123.340 Y62.564 E2.5363
G1 X123.373 Y62.600 E2.5401
G1 X123.630 Y62.905 E2.5704
G1 X123.659 Y62.944 E2.5741
G1 X125.138 Y65.055 E2.7703
G1 X125.164 Y65.097 E2.7741
G1 X125.363 Y65.442 E2.8044
G1 X125.386 Y65.485 E2.8081
G1 X126.475 Y67.821 E3.0044
G1 X126.494 Y67.866 E3.0081
G1 X126.630 Y68.241 E3.0384
G1 X126.645 Y68.288 E3.0422
G1 X127.312 Y70.777 E3.2384
G1 X127.323 Y70.825 E3.2421
G1 X127.392 Y71.217 E3.2724
G1 X127.398 Y71.266 E3.2762
G1 X127.614 Y73.734 E3.4648
G1 X127.616 Y73.759 E3.4667
G1 X127.624 Y73.958 E3.4818
G1 X127.625 Y73.982 E3.4837
G1 X127.625 Y146.018 E8.9678
G1 X127.624 Y146.042 E8.9696
G1 X127.616 Y146.241 E8.9848
G1 X127.614 Y146.266 E8.9867
G1 X127.398 Y148.734 E9.1753
G1 X127.392 Y148.783 E9.1790
G1 X127.323 Y149.175 E9.2093
G1 X127.312 Y149.223 E9.2131
G1 X126.645 Y151.712 E9.4093
G1 X126.630 Y151.759 E9.4130
G1 X126.494 Y152.133 E9.4434
G1 X126.475 Y152.179 E9.4471
G1 X125.386 Y154.515 E9.6433
G1 X125.363 Y154.558 E9.6470
G1 X125.164 Y154.903 E9.6774
G1 X125.138 Y154.945 E9.6811
G1 X123.659 Y157.056 E9.8773
G1 X123.630 Y157.095 E9.8810
G1 X123.373 Y157.400 E9.9114
G1 X123.340 Y157.436 E9.9151
G1 X121.518 Y159.259 E10.1113
G1 X121.482 Y159.292 E10.1151
G1 X121.177 Y159.548 E10.1454
G1 X121.138 Y159.578 E10.1491
G1 X119.026 Y161.056 E10.3453
G1 X118.985 Y161.082 E10.3491
G1 X118.640 Y161.281 E10.3794
G1 X118.596 Y161.304 E10.3831
G1 X116.261 Y162.393 E10.5793
G1 X116.215 Y162.412 E10.5831
G1 X115.841 Y162.548 E10.6134
G1 X115.794 Y162.563 E10.6172
G1 X113.305 Y163.230 E10.8134
G1 X113.257 Y163.241 E10.8171
G1 X112.864 Y163.310 E10.8474
G1 X112.816 Y163.316 E10.8512
G1 X110.248 Y163.541 E11.0474
G1 X110.199 Y163.543 E11.0511
G1 X109.801 Y163.543 E11.0814
G1 X109.752 Y163.541 E11.0852
G1 X107.184 Y163.316 E11.2814
G1 X107.136 Y163.310 E11.2851
G1 X106.743 Y163.241 E11.3154
G1 X106.695 Y163.230 E11.3192
G1 X104.206 Y162.563 E11.5154
G1 X104.159 Y162.548 E11.5191
G1 X103.785 Y162.412 E11.5495
G1 X103.739 Y162.393 E11.5532
G1 X101.404 Y161.304 E11.7494
G1 X101.360 Y161.281 E11.7531
G1 X101.015 Y161.082 E11.7835
G1 X100.974 Y161.056 E11.7872
G1 X98.862 Y159.578 E11.9834
G1 X98.823 Y159.548 E11.9872
G1 X98.518 Y159.292 E12.0175
G1 X98.482 Y159.259 E12.0212
G1 X96.660 Y157.436 E12.2174
G1 X96.626 Y157.400 E12.2212
G1 X96.370 Y157.095 E12.2515
G1 X96.341 Y157.056 E12.2552
G1 X94.862 Y154.945 E12.4514
G1 X94.836 Y154.903 E12.4552
G1 X94.637 Y154.558 E12.4855
G1 X94.614 Y154.515 E12.4892
G1 X93.525 Y152.179 E12.6855
G1 X93.506 Y152.133 E12.6892
G1 X93.370 Y151.759 E12.7195
G1 X93.355 Y151.712 E12.7233
G1 X92.688 Y149.223 E12.9195
G1 X92.677 Y149.175 E12.9232
G1 X92.608 Y148.783 E12.9535
G1 X92.602 Y148.734 E12.9573
G1 X92.386 Y146.266 E13.1459
G1 X92.384 Y146.241 E13.1478
G1 X92.376 Y146.042 E13.1629
G1 X92.375 Y146.018 E13.1648
G1 X92.375 Y73.982 E18.6489
G1 X92.376 Y73.958 E18.6507
G1 X92.384 Y73.759 E18.6659
G1 X92.386 Y73.734 E18.6678
G1 X92.602 Y71.266 E18.8564
G1 X92.608 Y71.217 E18.8601
G1 X92.677 Y70.825 E18.8904
G1 X92.688 Y70.777 E18.8942
G1 X93.355 Y68.288 E19.0904
G1 X93.370 Y68.241 E19.0941
G1 X93.506 Y67.866 E19.1245
G1 X93.525 Y67.821 E19.1282
G1 X93.979 Y66.848 E19.2099
G1 X94.614 Y65.485 F1800
G1 X94.637 Y65.442 F1800
G1 X94.836 Y65.097 F1800
G1 X94.862 Y65.055 F1800
G1 X95.237 Y65.305 F4800
G92 E0
G1 X96.704 Y63.210 E0.1947 F1800
G1 X96.721 Y63.187 E0.1970
G1 X96.965 Y62.897 E0.2258
G1 X96.985 Y62.875 E0.2280
G1 X98.793 Y61.067 E0.4227
G1 X98.815 Y61.047 E0.4250
G1 X99.105 Y60.803 E0.4538
G1 X99.129 Y60.785 E0.4561
G1 X101.224 Y59.318 E0.6508
G1 X101.249 Y59.302 E0.6530
G1 X101.576 Y59.113 E0.6819
G1 X101.603 Y59.100 E0.6841
G1 X103.921 Y58.019 E0.8788
G1 X103.948 Y58.007 E0.8811
