; G-Code generated by Simplify3D(R) Version 4.0.0
; Mar 20, 2018 at 9:25:17 PM
; Settings Summary
;   processName,Process1
;   applyToModels,wheel_lock
;   profileName,Anettina (modified)
;   profileVersion,2018-01-26 14:48:52
;   baseProfile,Default
;   printMaterial,PLA
;   printQuality,Fast
;   printExtruders,
;   extruderName,Extruder
;   extruderToolheadNumber,0
;   extruderDiameter,0.4
;   extruderAutoWidth,0
;   extruderWidth,0.45
;   extrusionMultiplier,1
;   extruderUseRetract,1
;   extruderRetractionDistance,7
;   extruderExtraRestartDistance,0
;   extruderRetractionZLift,0
;   extruderRetractionSpeed,1200
;   extruderUseCoasting,1
;   extruderCoastingDistance,2
;   extruderUseWipe,1
;   extruderWipeDistance,5
;   primaryExtruder,0
;   layerHeight,0.28
;   topSolidLayers,3
;   bottomSolidLayers,3
;   perimeterOutlines,3
;   printPerimetersInsideOut,1
;   startPointOption,2
;   startPointOriginX,0
;   startPointOriginY,0
;   sequentialIslands,0
;   spiralVaseMode,0
;   firstLayerHeightPercentage,100
;   firstLayerWidthPercentage,120
;   firstLayerUnderspeed,0.5
;   useRaft,0
;   raftExtruder,0
;   raftTopLayers,3
;   raftBaseLayers,2
;   raftOffset,3
;   raftSeparationDistance,0.14
;   raftTopInfill,100
;   aboveRaftSpeedMultiplier,0.3
;   useSkirt,1
;   skirtExtruder,0
;   skirtLayers,1
;   skirtOutlines,4
;   skirtOffset,4
;   usePrimePillar,0
;   primePillarExtruder,999
;   primePillarWidth,12
;   primePillarLocation,7
;   primePillarSpeedMultiplier,1
;   useOozeShield,0
;   oozeShieldExtruder,999
;   oozeShieldOffset,2
;   oozeShieldOutlines,1
;   oozeShieldSidewallShape,1
;   oozeShieldSidewallAngle,30
;   oozeShieldSpeedMultiplier,1
;   infillExtruder,0
;   internalInfillPattern,Rectilinear
;   externalInfillPattern,Rectilinear
;   infillPercentage,15
;   outlineOverlapPercentage,20
;   infillExtrusionWidthPercentage,100
;   minInfillLength,5
;   infillLayerInterval,1
;   internalInfillAngles,45,-45
;   overlapInternalInfillAngles,0
;   externalInfillAngles,45,-45
;   generateSupport,0
;   supportExtruder,0
;   supportInfillPercentage,25
;   supportExtraInflation,0
;   supportBaseLayers,1
;   denseSupportExtruder,0
;   denseSupportLayers,0
;   denseSupportInfillPercentage,70
;   supportLayerInterval,1
;   supportHorizontalPartOffset,0.3
;   supportUpperSeparationLayers,1
;   supportLowerSeparationLayers,1
;   supportType,0
;   supportGridSpacing,4
;   maxOverhangAngle,45
;   supportAngles,0
;   temperatureName,Extruder,Heated Bed
;   temperatureNumber,0,0
;   temperatureSetpointCount,1,1
;   temperatureSetpointLayers,1,1
;   temperatureSetpointTemperatures,220,65
;   temperatureStabilizeAtStartup,1,1
;   temperatureHeatedBed,0,1
;   temperatureRelayBetweenLayers,0,0
;   temperatureRelayBetweenLoops,0,0
;   fanLayers,1,2
;   fanSpeeds,0,100
;   blipFanToFullPower,0
;   adjustSpeedForCooling,1
;   minSpeedLayerTime,15
;   minCoolingSpeedSlowdown,20
;   increaseFanForCooling,0
;   minFanLayerTime,45
;   maxCoolingFanSpeed,100
;   increaseFanForBridging,0
;   bridgingFanSpeed,100
;   use5D,1
;   relativeEdistances,0
;   allowEaxisZeroing,1
;   independentExtruderAxes,0
;   includeM10123,0
;   stickySupport,1
;   applyToolheadOffsets,0
;   gcodeXoffset,0
;   gcodeYoffset,0
;   gcodeZoffset,0
;   overrideMachineDefinition,1
;   machineTypeOverride,0
;   strokeXoverride,220
;   strokeYoverride,220
;   strokeZoverride,240
;   originOffsetXoverride,0
;   originOffsetYoverride,0
;   originOffsetZoverride,0
;   homeXdirOverride,-1
;   homeYdirOverride,-1
;   homeZdirOverride,-1
;   flipXoverride,1
;   flipYoverride,-1
;   flipZoverride,1
;   toolheadOffsets,0,0|0,0|0,0|0,0|0,0|0,0
;   overrideFirmwareConfiguration,0
;   firmwareTypeOverride,RepRap (Marlin/Repetier/Sprinter)
;   GPXconfigOverride,r2
;   baudRateOverride,115200
;   overridePrinterModels,0
;   printerModelsOverride
;   startingGcode,G21 ;metric values,G90 ;absolute positioning,M82 ;set extruder to absolute mode,M107 ;start with the fan off,G28 X0 Y0 ;move X/Y to min endstops,G28 Z0 ;move Z to min endstops,G1 Z15.0 F9000 ;move the platform down 15mm,G92 E0 ;zero the extruded length,G1 F200 E3 ;extrude 3mm of feed stock,G92 E0 ;zero the extruded length again,G1 F9000,M117 Printing...
;   layerChangeGcode,
;   retractionGcode,
;   toolChangeGcode,
;   endingGcode,M104 S0 ; turn off extruder,M140 S0 ; turn off bed,G91 ;relative positioning,G1 E-1 F300  ;retract the filament a bit before lifting the nozzle, to release some of the pressure,G1 Z+0.5 E-5 X-20 Y-20 F9000 ;move Z up a bit and retract filament even more,G28 X0 Y0 ;move X/Y to min endstops, so the head is out of the way,G90 ;absolute positioning,G1 Y190 F9000 ;use this line if you want the bed to move to the front. delete if not.,M84 ;steppers off,M107 ; shut off fan,
;   exportFileFormat,gcode
;   celebration,0
;   celebrationSong,Random Song
;   postProcessing,
;   defaultSpeed,3600
;   outlineUnderspeed,0.5
;   solidInfillUnderspeed,0.8
;   supportUnderspeed,0.8
;   rapidXYspeed,4800
;   rapidZspeed,1002
;   minBridgingArea,50
;   bridgingExtraInflation,0
;   bridgingExtrusionMultiplier,1
;   bridgingSpeedMultiplier,1
;   useFixedBridgingAngle,0
;   fixedBridgingAngle,0
;   applyBridgingToPerimeters,0
;   filamentDiameters,1.7|1.7|1.7|1.7|1.7|1.7
;   filamentPricesPerKg,20|20|20|20|20|20
;   filamentDensities,1.25|1.25|1.25|1.25|1.25|1.25
;   useMinPrintHeight,0
;   minPrintHeight,0
;   useMaxPrintHeight,0
;   maxPrintHeight,0
;   useDiaphragm,0
;   diaphragmLayerInterval,20
;   robustSlicing,1
;   mergeAllIntoSolid,0
;   onlyRetractWhenCrossingOutline,1
;   retractBetweenLayers,1
;   useRetractionMinTravel,0
;   retractionMinTravel,3
;   retractWhileWiping,0
;   onlyWipeOutlines,1
;   avoidCrossingOutline,0
;   maxMovementDetourFactor,3
;   toolChangeRetractionDistance,12
;   toolChangeExtraRestartDistance,-0.5
;   toolChangeRetractionSpeed,600
;   externalThinWallType,0
;   internalThinWallType,2
;   thinWallAllowedOverlapPercentage,10
;   singleExtrusionMinLength,1
;   singleExtrusionMinPrintingWidthPercentage,50
;   singleExtrusionMaxPrintingWidthPercentage,200
;   singleExtrusionEndpointExtension,0.2
;   horizontalSizeCompensation,0
G90
M82
M106 S0
M140 S65
M190 S65
M104 S220 T0
M109 S220 T0
G21 ;metric values
G90 ;absolute positioning
M82 ;set extruder to absolute mode
M107 ;start with the fan off
G28 X0 Y0 ;move X/Y to min endstops
G28 Z0 ;move Z to min endstops
G1 Z15.0 F9000 ;move the platform down 15mm
G92 E0 ;zero the extruded length
G1 F200 E3 ;extrude 3mm of feed stock
G92 E0 ;zero the extruded length again
G1 F9000
M117 Printing...
G92 E0
G1 E-7.0000 F1200
G1 Z0.280 F1002
; process Process1
; layer 1, Z = 0.280
T0
; tool H0.280 W0.540
; skirt
G1 X94.822 Y96.110 F4800
G1 E0.0000 F360
G92 E0
G1 X96.110 Y94.822 E0.1213 F1800
G1 X96.139 Y94.794 E0.1240
G1 X96.326 Y94.626 E0.1407
G1 X96.357 Y94.599 E0.1435
G1 X97.772 Y93.453 E0.2648
G1 X97.805 Y93.428 E0.2675
G1 X98.008 Y93.281 E0.2842
G1 X98.042 Y93.257 E0.2870
G1 X99.569 Y92.266 E0.4083
G1 X99.604 Y92.244 E0.4110
G1 X99.821 Y92.119 E0.4277
G1 X99.857 Y92.099 E0.4305
G1 X101.480 Y91.273 E0.5517
G1 X101.517 Y91.255 E0.5545
G1 X101.746 Y91.153 E0.5712
G1 X101.784 Y91.137 E0.5739
G1 X103.484 Y90.485 E0.6952
G1 X103.523 Y90.471 E0.6980
G1 X103.761 Y90.393 E0.7147
G1 X103.801 Y90.382 E0.7174
G1 X105.559 Y89.910 E0.8387
G1 X105.600 Y89.901 E0.8415
G1 X105.845 Y89.849 E0.8582
G1 X105.885 Y89.841 E0.8609
G1 X107.684 Y89.556 E0.9822
G1 X107.725 Y89.551 E0.9850
G1 X107.974 Y89.525 E1.0017
G1 X108.015 Y89.521 E1.0044
G1 X109.833 Y89.426 E1.1257
G1 X109.875 Y89.425 E1.1284
G1 X110.125 Y89.425 E1.1451
G1 X110.167 Y89.426 E1.1479
G1 X111.985 Y89.521 E1.2692
G1 X112.026 Y89.525 E1.2719
G1 X112.275 Y89.551 E1.2886
G1 X112.316 Y89.556 E1.2914
G1 X114.115 Y89.841 E1.4127
G1 X114.155 Y89.849 E1.4154
G1 X114.400 Y89.901 E1.4321
G1 X114.441 Y89.910 E1.4349
G1 X116.199 Y90.382 E1.5561
G1 X116.239 Y90.393 E1.5589
G1 X116.477 Y90.471 E1.5756
G1 X116.516 Y90.485 E1.5783
G1 X118.216 Y91.137 E1.6996
G1 X118.254 Y91.153 E1.7024
G1 X118.483 Y91.255 E1.7191
G1 X118.520 Y91.273 E1.7218
G1 X120.143 Y92.099 E1.8431
G1 X120.179 Y92.119 E1.8459
G1 X120.396 Y92.244 E1.8626
G1 X120.431 Y92.266 E1.8653
G1 X121.958 Y93.257 E1.9866
G1 X121.992 Y93.281 E1.9894
G1 X122.195 Y93.428 E2.0061
G1 X122.228 Y93.453 E2.0088
G1 X123.643 Y94.599 E2.1301
G1 X123.674 Y94.626 E2.1328
G1 X123.861 Y94.794 E2.1495
G1 X123.890 Y94.822 E2.1523
G1 X125.178 Y96.110 E2.2736
G1 X125.206 Y96.139 E2.2763
G1 X125.374 Y96.326 E2.2930
G1 X125.401 Y96.357 E2.2958
G1 X126.547 Y97.772 E2.4171
G1 X126.572 Y97.805 E2.4198
G1 X126.719 Y98.008 E2.4365
G1 X126.743 Y98.042 E2.4393
G1 X127.734 Y99.569 E2.5606
G1 X127.756 Y99.604 E2.5633
G1 X127.881 Y99.821 E2.5800
G1 X127.901 Y99.857 E2.5827
G1 X128.727 Y101.480 E2.7040
G1 X128.745 Y101.517 E2.7068
G1 X128.847 Y101.746 E2.7235
G1 X128.863 Y101.784 E2.7262
G1 X129.515 Y103.484 E2.8475
G1 X129.529 Y103.523 E2.8503
G1 X129.607 Y103.761 E2.8670
G1 X129.618 Y103.801 E2.8697
G1 X130.090 Y105.559 E2.9910
G1 X130.099 Y105.600 E2.9938
G1 X130.151 Y105.845 E3.0105
G1 X130.159 Y105.885 E3.0132
G1 X130.444 Y107.684 E3.1345
G1 X130.449 Y107.725 E3.1372
G1 X130.475 Y107.974 E3.1539
G1 X130.479 Y108.015 E3.1567
G1 X130.574 Y109.833 E3.2780
G1 X130.575 Y109.875 E3.2807
G1 X130.575 Y110.125 E3.2974
G1 X130.574 Y110.167 E3.3002
G1 X130.479 Y111.985 E3.4215
G1 X130.475 Y112.026 E3.4242
G1 X130.449 Y112.275 E3.4409
G1 X130.444 Y112.316 E3.4437
G1 X130.159 Y114.115 E3.5650
G1 X130.151 Y114.155 E3.5677
G1 X130.099 Y114.400 E3.5844
G1 X130.090 Y114.441 E3.5871
G1 X129.618 Y116.199 E3.7084
G1 X129.607 Y116.239 E3.7112
G1 X129.529 Y116.477 E3.7279
G1 X129.515 Y116.516 E3.7306
G1 X128.863 Y118.216 E3.8519
G1 X128.847 Y118.254 E3.8547
G1 X128.745 Y118.483 E3.8714
G1 X128.727 Y118.520 E3.8741
G1 X127.901 Y120.143 E3.9954
G1 X127.881 Y120.179 E3.9982
G1 X127.756 Y120.396 E4.0149
G1 X127.734 Y120.431 E4.0176
G1 X126.743 Y121.958 E4.1389
G1 X126.719 Y121.992 E4.1416
G1 X126.572 Y122.195 E4.1583
G1 X126.547 Y122.228 E4.1611
G1 X125.401 Y123.643 E4.2824
G1 X125.374 Y123.674 E4.2851
G1 X125.206 Y123.861 E4.3018
G1 X125.178 Y123.890 E4.3046
G1 X123.890 Y125.178 E4.4259
G1 X123.861 Y125.206 E4.4286
G1 X123.674 Y125.374 E4.4453
G1 X123.643 Y125.401 E4.4481
G1 X122.228 Y126.547 E4.5694
G1 X122.195 Y126.572 E4.5721
G1 X121.992 Y126.719 E4.5888
G1 X121.958 Y126.743 E4.5915
G1 X120.431 Y127.734 E4.7128
G1 X120.396 Y127.756 E4.7156
G1 X120.179 Y127.881 E4.7323
G1 X120.143 Y127.901 E4.7350
G1 X118.520 Y128.727 E4.8563
G1 X118.483 Y128.745 E4.8591
G1 X118.254 Y128.847 E4.8758
G1 X118.216 Y128.863 E4.8785
G1 X116.516 Y129.515 E4.9998
G1 X116.477 Y129.529 E5.0026
G1 X116.239 Y129.607 E5.0193
G1 X116.199 Y129.618 E5.0220
G1 X114.441 Y130.090 E5.1433
G1 X114.400 Y130.099 E5.1460
G1 X114.155 Y130.151 E5.1627
G1 X114.115 Y130.159 E5.1655
G1 X112.316 Y130.444 E5.2868
G1 X112.275 Y130.449 E5.2895
G1 X112.026 Y130.475 E5.3062
G1 X111.985 Y130.479 E5.3090
G1 X110.167 Y130.574 E5.4303
G1 X110.125 Y130.575 E5.4330
G1 X109.875 Y130.575 E5.4497
G1 X109.833 Y130.574 E5.4525
G1 X108.015 Y130.479 E5.5738
G1 X107.974 Y130.475 E5.5765
G1 X107.725 Y130.449 E5.5932
G1 X107.684 Y130.444 E5.5959
G1 X105.885 Y130.159 E5.7172
G1 X105.845 Y130.151 E5.7200
G1 X105.600 Y130.099 E5.7367
G1 X105.559 Y130.090 E5.7394
G1 X103.801 Y129.618 E5.8607
G1 X103.761 Y129.607 E5.8635
G1 X103.523 Y129.529 E5.8802
G1 X103.484 Y129.515 E5.8829
G1 X101.784 Y128.863 E6.0042
G1 X101.746 Y128.847 E6.0070
G1 X101.517 Y128.745 E6.0237
G1 X101.480 Y128.727 E6.0264
G1 X99.857 Y127.901 E6.1477
G1 X99.821 Y127.881 E6.1504
G1 X99.604 Y127.756 E6.1671
G1 X99.569 Y127.734 E6.1699
G1 X98.042 Y126.743 E6.2912
G1 X98.008 Y126.719 E6.2939
G1 X97.805 Y126.572 E6.3106
G1 X97.772 Y126.547 E6.3134
G1 X96.357 Y125.401 E6.4347
G1 X96.326 Y125.374 E6.4374
G1 X96.139 Y125.206 E6.4541
G1 X96.110 Y125.178 E6.4569
G1 X94.822 Y123.890 E6.5782
G1 X94.794 Y123.861 E6.5809
G1 X94.626 Y123.674 E6.5976
G1 X94.599 Y123.643 E6.6003
G1 X93.453 Y122.228 E6.7216
G1 X93.428 Y122.195 E6.7244
G1 X93.281 Y121.992 E6.7411
G1 X93.257 Y121.958 E6.7438
G1 X92.266 Y120.431 E6.8651
G1 X92.244 Y120.396 E6.8679
G1 X92.119 Y120.179 E6.8846
G1 X92.099 Y120.143 E6.8873
G1 X91.273 Y118.520 E7.0086
G1 X91.255 Y118.483 E7.0114
G1 X91.153 Y118.254 E7.0281
G1 X91.137 Y118.216 E7.0308
G1 X90.485 Y116.516 E7.1521
G1 X90.471 Y116.477 E7.1548
G1 X90.393 Y116.239 E7.1715
G1 X90.382 Y116.199 E7.1743
G1 X89.910 Y114.441 E7.2956
G1 X89.901 Y114.400 E7.2983
G1 X89.849 Y114.155 E7.3150
G1 X89.841 Y114.115 E7.3178
G1 X89.556 Y112.316 E7.4391
G1 X89.551 Y112.275 E7.4418
G1 X89.525 Y112.026 E7.4585
G1 X89.521 Y111.985 E7.4613
G1 X89.426 Y110.167 E7.5826
G1 X89.425 Y110.125 E7.5853
G1 X89.425 Y109.875 E7.6020
G1 X89.426 Y109.833 E7.6047
G1 X89.521 Y108.015 E7.7260
G1 X89.525 Y107.974 E7.7288
G1 X89.551 Y107.725 E7.7455
G1 X89.556 Y107.684 E7.7482
G1 X89.841 Y105.885 E7.8695
G1 X89.849 Y105.845 E7.8723
G1 X89.901 Y105.600 E7.8890
G1 X89.910 Y105.559 E7.8917
G1 X90.382 Y103.801 E8.0130
G1 X90.393 Y103.761 E8.0158
G1 X90.471 Y103.523 E8.0325
G1 X90.485 Y103.484 E8.0352
G1 X91.137 Y101.784 E8.1565
G1 X91.153 Y101.746 E8.1592
G1 X91.255 Y101.517 E8.1759
G1 X91.273 Y101.480 E8.1787
G1 X92.099 Y99.857 E8.3000
G1 X92.119 Y99.821 E8.3027
G1 X92.244 Y99.604 E8.3194
G1 X92.266 Y99.569 E8.3222
G1 X93.257 Y98.042 E8.4435
G1 X93.281 Y98.008 E8.4462
G1 X93.428 Y97.805 E8.4629
G1 X93.453 Y97.772 E8.4657
G1 X93.550 Y97.653 E8.4759
G1 X94.599 Y96.357 F1800
G1 X94.626 Y96.326 F1800
G1 X94.794 Y96.139 F1800
G1 X94.822 Y96.110 F1800
G1 X95.144 Y96.424 F4800
G92 E0
G1 X96.424 Y95.144 E0.1205 F1800
G1 X96.445 Y95.124 E0.1225
G1 X96.623 Y94.964 E0.1384
G1 X96.645 Y94.945 E0.1403
G1 X98.051 Y93.807 E0.2609
G1 X98.074 Y93.789 E0.2628
G1 X98.267 Y93.648 E0.2787
G1 X98.292 Y93.632 E0.2807
G1 X99.809 Y92.646 E0.4012
G1 X99.834 Y92.631 E0.4032
G1 X100.041 Y92.511 E0.4191
G1 X100.067 Y92.497 E0.4210
G1 X101.679 Y91.676 E0.5415
G1 X101.705 Y91.663 E0.5435
G1 X101.924 Y91.566 E0.5594
G1 X101.951 Y91.555 E0.5614
G1 X103.640 Y90.907 E0.6819
G1 X103.667 Y90.897 E0.6839
G1 X103.895 Y90.823 E0.6998
G1 X103.923 Y90.815 E0.7017
G1 X105.670 Y90.346 E0.8222
G1 X105.699 Y90.340 E0.8242
G1 X105.933 Y90.290 E0.8401
G1 X105.962 Y90.285 E0.8421
G1 X107.748 Y90.002 E0.9626
G1 X107.778 Y89.998 E0.9645
G1 X108.015 Y89.973 E0.9805
G1 X108.045 Y89.970 E0.9824
G1 X109.851 Y89.876 E1.1029
G1 X109.881 Y89.875 E1.1049
G1 X110.119 Y89.875 E1.1208
G1 X110.149 Y89.876 E1.1228
G1 X111.955 Y89.970 E1.2433
G1 X111.985 Y89.973 E1.2452
G1 X112.222 Y89.998 E1.2612
G1 X112.252 Y90.002 E1.2631
G1 X114.038 Y90.285 E1.3836
G1 X114.067 Y90.290 E1.3856
G1 X114.301 Y90.340 E1.4015
G1 X114.330 Y90.346 E1.4035
G1 X116.077 Y90.815 E1.5240
G1 X116.105 Y90.823 E1.5259
G1 X116.333 Y90.897 E1.5418
G1 X116.360 Y90.907 E1.5438
G1 X118.049 Y91.555 E1.6643
G1 X118.076 Y91.566 E1.6663
G1 X118.295 Y91.663 E1.6822
G1 X118.321 Y91.676 E1.6842
G1 X119.933 Y92.497 E1.8047
G1 X119.959 Y92.512 E1.8066
G1 X120.166 Y92.631 E1.8225
G1 X120.191 Y92.646 E1.8245
G1 X121.708 Y93.632 E1.9450
G1 X121.733 Y93.648 E1.9470
G1 X121.926 Y93.789 E1.9629
G1 X121.949 Y93.807 E1.9649
G1 X123.355 Y94.945 E2.0854
G1 X123.377 Y94.964 E2.0873
G1 X123.555 Y95.124 E2.1032
G1 X123.576 Y95.144 E2.1052
G1 X124.856 Y96.424 E2.2257
G1 X124.876 Y96.445 E2.2277
G1 X125.036 Y96.623 E2.2436
G1 X125.055 Y96.645 E2.2455
G1 X126.193 Y98.051 E2.3661
G1 X126.211 Y98.074 E2.3680
G1 X126.352 Y98.267 E2.3839
G1 X126.368 Y98.292 E2.3859
G1 X127.354 Y99.809 E2.5064
G1 X127.369 Y99.834 E2.5084
G1 X127.488 Y100.041 E2.5243
G1 X127.503 Y100.067 E2.5262
G1 X128.324 Y101.679 E2.6467
G1 X128.336 Y101.705 E2.6487
G1 X128.434 Y101.924 E2.6646
G1 X128.445 Y101.951 E2.6666
G1 X129.093 Y103.640 E2.7871
G1 X129.103 Y103.667 E2.7891
G1 X129.177 Y103.895 E2.8050
G1 X129.185 Y103.923 E2.8069
G1 X129.654 Y105.670 E2.9274
G1 X129.660 Y105.699 E2.9294
G1 X129.710 Y105.933 E2.9453
G1 X129.715 Y105.962 E2.9473
G1 X129.998 Y107.748 E3.0678
