; G-Code generated by Simplify3D(R) Version 4.0.0
; Mar 22, 2018 at 8:16:40 PM
; Settings Summary
;   processName,Process1
;   applyToModels,wheel_lock_exagonal
;   profileName,Anettina (modified)
;   profileVersion,2018-01-26 14:48:52
;   baseProfile,Default
;   printMaterial,PLA
;   printQuality,Fast
;   printExtruders,
;   extruderName,Extruder
;   extruderToolheadNumber,0
;   extruderDiameter,0.4
;   extruderAutoWidth,0
;   extruderWidth,0.45
;   extrusionMultiplier,1
;   extruderUseRetract,1
;   extruderRetractionDistance,7
;   extruderExtraRestartDistance,0
;   extruderRetractionZLift,0
;   extruderRetractionSpeed,1200
;   extruderUseCoasting,1
;   extruderCoastingDistance,2
;   extruderUseWipe,1
;   extruderWipeDistance,5
;   primaryExtruder,0
;   layerHeight,0.28
;   topSolidLayers,3
;   bottomSolidLayers,3
;   perimeterOutlines,3
;   printPerimetersInsideOut,1
;   startPointOption,2
;   startPointOriginX,0
;   startPointOriginY,0
;   sequentialIslands,0
;   spiralVaseMode,0
;   firstLayerHeightPercentage,100
;   firstLayerWidthPercentage,120
;   firstLayerUnderspeed,0.5
;   useRaft,0
;   raftExtruder,0
;   raftTopLayers,3
;   raftBaseLayers,2
;   raftOffset,3
;   raftSeparationDistance,0.14
;   raftTopInfill,100
;   aboveRaftSpeedMultiplier,0.3
;   useSkirt,1
;   skirtExtruder,0
;   skirtLayers,1
;   skirtOutlines,4
;   skirtOffset,4
;   usePrimePillar,0
;   primePillarExtruder,999
;   primePillarWidth,12
;   primePillarLocation,7
;   primePillarSpeedMultiplier,1
;   useOozeShield,0
;   oozeShieldExtruder,999
;   oozeShieldOffset,2
;   oozeShieldOutlines,1
;   oozeShieldSidewallShape,1
;   oozeShieldSidewallAngle,30
;   oozeShieldSpeedMultiplier,1
;   infillExtruder,0
;   internalInfillPattern,Rectilinear
;   externalInfillPattern,Rectilinear
;   infillPercentage,15
;   outlineOverlapPercentage,20
;   infillExtrusionWidthPercentage,100
;   minInfillLength,5
;   infillLayerInterval,1
;   internalInfillAngles,45,-45
;   overlapInternalInfillAngles,0
;   externalInfillAngles,45,-45
;   generateSupport,0
;   supportExtruder,0
;   supportInfillPercentage,25
;   supportExtraInflation,0
;   supportBaseLayers,1
;   denseSupportExtruder,0
;   denseSupportLayers,0
;   denseSupportInfillPercentage,70
;   supportLayerInterval,1
;   supportHorizontalPartOffset,0.3
;   supportUpperSeparationLayers,1
;   supportLowerSeparationLayers,1
;   supportType,0
;   supportGridSpacing,4
;   maxOverhangAngle,45
;   supportAngles,0
;   temperatureName,Extruder,Heated Bed
;   temperatureNumber,0,0
;   temperatureSetpointCount,1,1
;   temperatureSetpointLayers,1,1
;   temperatureSetpointTemperatures,200,65
;   temperatureStabilizeAtStartup,1,1
;   temperatureHeatedBed,0,1
;   temperatureRelayBetweenLayers,0,0
;   temperatureRelayBetweenLoops,0,0
;   fanLayers,1,2
;   fanSpeeds,0,100
;   blipFanToFullPower,0
;   adjustSpeedForCooling,1
;   minSpeedLayerTime,15
;   minCoolingSpeedSlowdown,20
;   increaseFanForCooling,0
;   minFanLayerTime,45
;   maxCoolingFanSpeed,100
;   increaseFanForBridging,0
;   bridgingFanSpeed,100
;   use5D,1
;   relativeEdistances,0
;   allowEaxisZeroing,1
;   independentExtruderAxes,0
;   includeM10123,0
;   stickySupport,1
;   applyToolheadOffsets,0
;   gcodeXoffset,0
;   gcodeYoffset,0
;   gcodeZoffset,0
;   overrideMachineDefinition,1
;   machineTypeOverride,0
;   strokeXoverride,220
;   strokeYoverride,220
;   strokeZoverride,240
;   originOffsetXoverride,0
;   originOffsetYoverride,0
;   originOffsetZoverride,0
;   homeXdirOverride,-1
;   homeYdirOverride,-1
;   homeZdirOverride,-1
;   flipXoverride,1
;   flipYoverride,-1
;   flipZoverride,1
;   toolheadOffsets,0,0|0,0|0,0|0,0|0,0|0,0
;   overrideFirmwareConfiguration,0
;   firmwareTypeOverride,RepRap (Marlin/Repetier/Sprinter)
;   GPXconfigOverride,r2
;   baudRateOverride,115200
;   overridePrinterModels,0
;   printerModelsOverride
;   startingGcode,G21 ;metric values,G90 ;absolute positioning,M82 ;set extruder to absolute mode,M107 ;start with the fan off,G28 X0 Y0 ;move X/Y to min endstops,G28 Z0 ;move Z to min endstops,G1 Z15.0 F9000 ;move the platform down 15mm,G92 E0 ;zero the extruded length,G1 F200 E3 ;extrude 3mm of feed stock,G92 E0 ;zero the extruded length again,G1 F9000,M117 Printing...
;   layerChangeGcode,
;   retractionGcode,
;   toolChangeGcode,
;   endingGcode,M104 S0 ; turn off extruder,M140 S0 ; turn off bed,G91 ;relative positioning,G1 E-1 F300  ;retract the filament a bit before lifting the nozzle, to release some of the pressure,G1 Z+0.5 E-5 X-20 Y-20 F9000 ;move Z up a bit and retract filament even more,G28 X0 Y0 ;move X/Y to min endstops, so the head is out of the way,G90 ;absolute positioning,G1 Y190 F9000 ;use this line if you want the bed to move to the front. delete if not.,M84 ;steppers off,M107 ; shut off fan,
;   exportFileFormat,gcode
;   celebration,0
;   celebrationSong,Random Song
;   postProcessing,
;   defaultSpeed,3600
;   outlineUnderspeed,0.5
;   solidInfillUnderspeed,0.8
;   supportUnderspeed,0.8
;   rapidXYspeed,4800
;   rapidZspeed,1002
;   minBridgingArea,50
;   bridgingExtraInflation,0
;   bridgingExtrusionMultiplier,1
;   bridgingSpeedMultiplier,1
;   useFixedBridgingAngle,0
;   fixedBridgingAngle,0
;   applyBridgingToPerimeters,0
;   filamentDiameters,1.7|1.7|1.7|1.7|1.7|1.7
;   filamentPricesPerKg,20|20|20|20|20|20
;   filamentDensities,1.25|1.25|1.25|1.25|1.25|1.25
;   useMinPrintHeight,0
;   minPrintHeight,0
;   useMaxPrintHeight,0
;   maxPrintHeight,0
;   useDiaphragm,0
;   diaphragmLayerInterval,20
;   robustSlicing,1
;   mergeAllIntoSolid,0
;   onlyRetractWhenCrossingOutline,1
;   retractBetweenLayers,1
;   useRetractionMinTravel,0
;   retractionMinTravel,3
;   retractWhileWiping,0
;   onlyWipeOutlines,1
;   avoidCrossingOutline,0
;   maxMovementDetourFactor,3
;   toolChangeRetractionDistance,12
;   toolChangeExtraRestartDistance,-0.5
;   toolChangeRetractionSpeed,600
;   externalThinWallType,0
;   internalThinWallType,2
;   thinWallAllowedOverlapPercentage,10
;   singleExtrusionMinLength,1
;   singleExtrusionMinPrintingWidthPercentage,50
;   singleExtrusionMaxPrintingWidthPercentage,200
;   singleExtrusionEndpointExtension,0.2
;   horizontalSizeCompensation,0
G90
M82
M106 S0
M140 S65
M190 S65
M104 S200 T0
M109 S200 T0
G21 ;metric values
G90 ;absolute positioning
M82 ;set extruder to absolute mode
M107 ;start with the fan off
G28 X0 Y0 ;move X/Y to min endstops
G28 Z0 ;move Z to min endstops
G1 Z15.0 F9000 ;move the platform down 15mm
G92 E0 ;zero the extruded length
G1 F200 E3 ;extrude 3mm of feed stock
G92 E0 ;zero the extruded length again
G1 F9000
M117 Printing...
G92 E0
G1 E-7.0000 F1200
G1 Z0.280 F1002
; process Process1
; layer 1, Z = 0.280
T0
; tool H0.280 W0.540
; skirt
G1 X94.728 Y96.213 F4800
G1 E0.0000 F360
G92 E0
G1 X96.213 Y94.728 E0.1399 F1800
G1 X96.248 Y94.695 E0.1431
G1 X96.465 Y94.503 E0.1624
G1 X96.501 Y94.473 E0.1655
G1 X98.155 Y93.177 E0.3055
G1 X98.193 Y93.149 E0.3086
G1 X98.431 Y92.985 E0.3279
G1 X98.471 Y92.959 E0.3311
G1 X100.269 Y91.872 E0.4710
G1 X100.310 Y91.849 E0.4742
G1 X100.566 Y91.715 E0.4935
G1 X100.609 Y91.694 E0.4966
G1 X102.525 Y90.832 E0.6366
G1 X102.569 Y90.813 E0.6397
G1 X102.839 Y90.711 E0.6590
G1 X102.884 Y90.695 E0.6622
G1 X104.890 Y90.070 E0.8021
G1 X104.936 Y90.057 E0.8053
G1 X105.217 Y89.988 E0.8246
G1 X105.263 Y89.978 E0.8277
G1 X107.329 Y89.600 E0.9677
G1 X107.376 Y89.592 E0.9708
G1 X107.664 Y89.558 E0.9901
G1 X107.711 Y89.553 E0.9933
G1 X109.808 Y89.426 E1.1332
G1 X109.855 Y89.425 E1.1364
G1 X110.145 Y89.425 E1.1556
G1 X110.192 Y89.426 E1.1588
G1 X112.289 Y89.553 E1.2987
G1 X112.336 Y89.558 E1.3019
G1 X112.624 Y89.592 E1.3212
G1 X112.671 Y89.600 E1.3244
G1 X114.737 Y89.978 E1.4643
G1 X114.783 Y89.988 E1.4675
G1 X115.064 Y90.057 E1.4867
G1 X115.110 Y90.070 E1.4899
G1 X117.116 Y90.695 E1.6298
G1 X117.161 Y90.711 E1.6330
G1 X117.431 Y90.813 E1.6523
G1 X117.475 Y90.832 E1.6555
G1 X119.391 Y91.694 E1.7954
G1 X119.434 Y91.715 E1.7986
G1 X119.690 Y91.849 E1.8178
G1 X119.731 Y91.872 E1.8210
G1 X121.529 Y92.959 E1.9609
G1 X121.569 Y92.985 E1.9641
G1 X121.807 Y93.149 E1.9834
G1 X121.845 Y93.177 E1.9865
G1 X123.499 Y94.473 E2.1265
G1 X123.535 Y94.503 E2.1296
G1 X123.752 Y94.695 E2.1489
G1 X123.787 Y94.728 E2.1521
G1 X125.272 Y96.213 E2.2920
G1 X125.305 Y96.248 E2.2952
G1 X125.497 Y96.465 E2.3145
G1 X125.527 Y96.501 E2.3176
G1 X126.823 Y98.155 E2.4576
G1 X126.851 Y98.193 E2.4607
G1 X127.015 Y98.431 E2.4800
G1 X127.041 Y98.471 E2.4832
G1 X128.128 Y100.269 E2.6231
G1 X128.151 Y100.310 E2.6263
G1 X128.285 Y100.566 E2.6455
G1 X128.306 Y100.609 E2.6487
G1 X129.168 Y102.525 E2.7887
G1 X129.187 Y102.569 E2.7918
G1 X129.289 Y102.839 E2.8111
G1 X129.305 Y102.884 E2.8143
G1 X129.930 Y104.890 E2.9542
G1 X129.942 Y104.936 E2.9574
G1 X130.012 Y105.217 E2.9766
G1 X130.022 Y105.263 E2.9798
G1 X130.400 Y107.329 E3.1197
G1 X130.408 Y107.376 E3.1229
G1 X130.442 Y107.664 E3.1422
G1 X130.447 Y107.711 E3.1454
G1 X130.574 Y109.808 E3.2853
G1 X130.575 Y109.855 E3.2885
G1 X130.575 Y110.145 E3.3077
G1 X130.574 Y110.192 E3.3109
G1 X130.447 Y112.289 E3.4508
G1 X130.442 Y112.336 E3.4540
G1 X130.408 Y112.624 E3.4733
G1 X130.400 Y112.671 E3.4764
G1 X130.022 Y114.737 E3.6164
G1 X130.012 Y114.783 E3.6195
G1 X129.942 Y115.064 E3.6388
G1 X129.930 Y115.110 E3.6420
G1 X129.305 Y117.116 E3.7819
G1 X129.289 Y117.161 E3.7851
G1 X129.187 Y117.431 E3.8044
G1 X129.168 Y117.475 E3.8075
G1 X128.306 Y119.391 E3.9475
G1 X128.285 Y119.434 E3.9506
G1 X128.151 Y119.690 E3.9699
G1 X128.128 Y119.731 E3.9731
G1 X127.041 Y121.529 E4.1130
G1 X127.015 Y121.569 E4.1162
G1 X126.851 Y121.807 E4.1355
G1 X126.823 Y121.845 E4.1386
G1 X125.527 Y123.499 E4.2786
G1 X125.497 Y123.535 E4.2817
G1 X125.305 Y123.752 E4.3010
G1 X125.272 Y123.787 E4.3042
G1 X123.787 Y125.272 E4.4441
G1 X123.752 Y125.305 E4.4473
G1 X123.535 Y125.497 E4.4665
G1 X123.499 Y125.527 E4.4697
G1 X121.845 Y126.823 E4.6096
G1 X121.807 Y126.851 E4.6128
G1 X121.569 Y127.015 E4.6321
G1 X121.529 Y127.041 E4.6353
G1 X119.731 Y128.128 E4.7752
G1 X119.690 Y128.151 E4.7784
G1 X119.434 Y128.285 E4.7976
G1 X119.391 Y128.306 E4.8008
G1 X117.475 Y129.168 E4.9407
G1 X117.431 Y129.187 E4.9439
G1 X117.161 Y129.289 E4.9632
G1 X117.116 Y129.305 E4.9664
G1 X115.110 Y129.930 E5.1063
G1 X115.064 Y129.942 E5.1095
G1 X114.783 Y130.012 E5.1287
G1 X114.737 Y130.022 E5.1319
G1 X112.671 Y130.400 E5.2718
G1 X112.624 Y130.408 E5.2750
G1 X112.336 Y130.442 E5.2943
G1 X112.289 Y130.447 E5.2974
G1 X110.192 Y130.574 E5.4374
G1 X110.145 Y130.575 E5.4405
G1 X109.855 Y130.575 E5.4598
G1 X109.808 Y130.574 E5.4630
G1 X107.711 Y130.447 E5.6029
G1 X107.664 Y130.442 E5.6061
G1 X107.376 Y130.408 E5.6254
G1 X107.329 Y130.400 E5.6285
G1 X105.263 Y130.022 E5.7685
G1 X105.217 Y130.012 E5.7716
G1 X104.936 Y129.942 E5.7909
G1 X104.890 Y129.930 E5.7941
G1 X102.884 Y129.305 E5.9340
G1 X102.839 Y129.289 E5.9372
G1 X102.569 Y129.187 E5.9565
G1 X102.525 Y129.168 E5.9596
G1 X100.609 Y128.306 E6.0996
G1 X100.566 Y128.285 E6.1027
G1 X100.310 Y128.151 E6.1220
G1 X100.269 Y128.128 E6.1252
G1 X98.471 Y127.041 E6.2651
G1 X98.431 Y127.015 E6.2683
G1 X98.193 Y126.851 E6.2875
G1 X98.155 Y126.823 E6.2907
G1 X96.501 Y125.527 E6.4306
G1 X96.465 Y125.497 E6.4338
G1 X96.248 Y125.305 E6.4531
G1 X96.213 Y125.272 E6.4563
G1 X94.728 Y123.787 E6.5962
G1 X94.695 Y123.752 E6.5994
G1 X94.503 Y123.535 E6.6186
G1 X94.473 Y123.499 E6.6218
G1 X93.177 Y121.845 E6.7617
G1 X93.149 Y121.807 E6.7649
G1 X92.985 Y121.569 E6.7842
G1 X92.959 Y121.529 E6.7873
G1 X91.872 Y119.731 E6.9273
G1 X91.849 Y119.690 E6.9304
G1 X91.715 Y119.434 E6.9497
G1 X91.694 Y119.391 E6.9529
G1 X90.832 Y117.475 E7.0928
G1 X90.813 Y117.431 E7.0960
G1 X90.711 Y117.161 E7.1153
G1 X90.695 Y117.116 E7.1184
G1 X90.070 Y115.110 E7.2584
G1 X90.057 Y115.064 E7.2615
G1 X89.988 Y114.783 E7.2808
G1 X89.978 Y114.737 E7.2840
G1 X89.600 Y112.671 E7.4239
G1 X89.592 Y112.624 E7.4271
G1 X89.558 Y112.336 E7.4464
G1 X89.553 Y112.289 E7.4495
G1 X89.426 Y110.192 E7.5895
G1 X89.425 Y110.145 E7.5926
G1 X89.425 Y109.855 E7.6119
G1 X89.426 Y109.808 E7.6151
G1 X89.553 Y107.711 E7.7550
G1 X89.558 Y107.664 E7.7582
G1 X89.592 Y107.376 E7.7774
G1 X89.600 Y107.329 E7.7806
G1 X89.978 Y105.263 E7.9205
G1 X89.988 Y105.217 E7.9237
G1 X90.057 Y104.936 E7.9430
G1 X90.070 Y104.890 E7.9462
G1 X90.695 Y102.884 E8.0861
G1 X90.711 Y102.839 E8.0893
G1 X90.813 Y102.569 E8.1085
G1 X90.832 Y102.525 E8.1117
G1 X91.694 Y100.609 E8.2516
G1 X91.715 Y100.566 E8.2548
G1 X91.849 Y100.310 E8.2741
G1 X91.872 Y100.269 E8.2772
G1 X92.959 Y98.471 E8.4172
G1 X92.985 Y98.431 E8.4204
G1 X93.149 Y98.193 E8.4396
G1 X93.177 Y98.155 E8.4428
G1 X93.477 Y97.773 E8.4751
G1 X94.473 Y96.501 F1800
G1 X94.503 Y96.465 F1800
G1 X94.695 Y96.248 F1800
G1 X94.728 Y96.213 F1800
G1 X95.051 Y96.527 F4800
G92 E0
G1 X96.527 Y95.051 E0.1390 F1800
G1 X96.551 Y95.028 E0.1413
G1 X96.758 Y94.845 E0.1597
G1 X96.784 Y94.823 E0.1619
G1 X98.427 Y93.536 E0.3010
G1 X98.454 Y93.516 E0.3032
G1 X98.681 Y93.359 E0.3216
G1 X98.710 Y93.341 E0.3238
G1 X100.496 Y92.261 E0.4629
G1 X100.525 Y92.244 E0.4651
G1 X100.770 Y92.116 E0.4835
G1 X100.800 Y92.101 E0.4858
G1 X102.703 Y91.245 E0.6248
G1 X102.735 Y91.232 E0.6271
G1 X102.992 Y91.134 E0.6454
G1 X103.025 Y91.123 E0.6477
G1 X105.017 Y90.502 E0.7867
G1 X105.050 Y90.493 E0.7890
G1 X105.318 Y90.427 E0.8073
G1 X105.351 Y90.420 E0.8096
G1 X107.404 Y90.043 E0.9486
G1 X107.437 Y90.038 E0.9509
G1 X107.711 Y90.005 E0.9693
G1 X107.745 Y90.002 E0.9715
G1 X109.828 Y89.876 E1.1106
G1 X109.862 Y89.875 E1.1128
G1 X110.138 Y89.875 E1.1312
G1 X110.172 Y89.876 E1.1335
G1 X112.255 Y90.002 E1.2725
G1 X112.289 Y90.005 E1.2748
G1 X112.563 Y90.038 E1.2931
G1 X112.596 Y90.043 E1.2954
G1 X114.649 Y90.420 E1.4344
G1 X114.682 Y90.427 E1.4367
G1 X114.950 Y90.493 E1.4550
G1 X114.983 Y90.502 E1.4573
G1 X116.975 Y91.123 E1.5963
G1 X117.008 Y91.134 E1.5986
G1 X117.265 Y91.232 E1.6170
G1 X117.297 Y91.245 E1.6192
G1 X119.200 Y92.101 E1.7583
G1 X119.230 Y92.116 E1.7605
G1 X119.475 Y92.244 E1.7789
G1 X119.504 Y92.261 E1.7811
G1 X121.290 Y93.341 E1.9202
G1 X121.319 Y93.359 E1.9224
G1 X121.546 Y93.516 E1.9408
G1 X121.573 Y93.536 E1.9431
G1 X123.216 Y94.823 E2.0821
G1 X123.242 Y94.845 E2.0844
G1 X123.449 Y95.028 E2.1027
G1 X123.473 Y95.051 E2.1050
G1 X124.949 Y96.527 E2.2440
G1 X124.972 Y96.551 E2.2463
G1 X125.155 Y96.758 E2.2647
G1 X125.177 Y96.784 E2.2669
G1 X126.464 Y98.427 E2.4059
G1 X126.484 Y98.454 E2.4082
G1 X126.641 Y98.681 E2.4266
G1 X126.659 Y98.710 E2.4288
G1 X127.739 Y100.496 E2.5679
G1 X127.756 Y100.525 E2.5701
G1 X127.884 Y100.770 E2.5885
G1 X127.899 Y100.800 E2.5908
G1 X128.755 Y102.703 E2.7298
G1 X128.768 Y102.735 E2.7321
G1 X128.866 Y102.992 E2.7504
G1 X128.877 Y103.025 E2.7527
G1 X129.498 Y105.017 E2.8917
G1 X129.507 Y105.050 E2.8940
G1 X129.573 Y105.318 E2.9123
G1 X129.580 Y105.351 E2.9146
G1 X129.957 Y107.404 E3.0536
G1 X129.962 Y107.437 E3.0559
G1 X129.995 Y107.711 E3.0743
G1 X129.998 Y107.745 E3.0765
G1 X130.124 Y109.828 E3.2156
G1 X130.125 Y109.862 E3.2178
G1 X130.125 Y110.138 E3.2362
G1 X130.124 Y110.172 E3.2385
G1 X129.998 Y112.255 E3.3775
G1 X129.995 Y112.289 E3.3797
G1 X129.962 Y112.563 E3.3981
G1 X129.957 Y112.596 E3.4004
G1 X129.580 Y114.649 E3.5394
G1 X129.573 Y114.682 E3.5417
G1 X129.507 Y114.950 E3.5600
G1 X129.498 Y114.983 E3.5623
G1 X128.877 Y116.975 E3.7013
G1 X128.866 Y117.008 E3.7036
G1 X128.768 Y117.265 E3.7220
G1 X128.755 Y117.297 E3.7242
G1 X127.899 Y119.200 E3.8633
G1 X127.884 Y119.230 E3.8655
G1 X127.756 Y119.475 E3.8839
G1 X127.739 Y119.504 E3.8861
G1 X126.659 Y121.290 E4.0252
G1 X126.641 Y121.319 E4.0274
G1 X126.484 Y121.546 E4.0458
G1 X126.464 Y121.573 E4.0481
G1 X125.177 Y123.216 E4.1871
G1 X125.155 Y123.242 E4.1894
G1 X124.972 Y123.449 E4.2077
G1 X124.949 Y123.473 E4.2100
G1 X123.473 Y124.949 E4.3490
G1 X123.449 Y124.972 E4.3513
G1 X123.242 Y125.155 E4.3696
G1 X123.216 Y125.177 E4.3719
G1 X121.573 Y126.464 E4.5109
G1 X121.546 Y126.484 E4.5132
G1 X121.319 Y126.641 E4.5316
G1 X121.290 Y126.659 E4.5338
G1 X119.504 Y127.739 E4.6729
G1 X119.475 Y127.756 E4.6751
G1 X119.230 Y127.884 E4.6935
