; G-Code generated by Simplify3D(R) Version 4.0.0
; Mar 27, 2018 at 8:30:28 PM
; Settings Summary
;   processName,Process1
;   applyToModels,wheel_barrier_rev1
;   profileName,Anettina (modified)
;   profileVersion,2018-01-26 14:48:52
;   baseProfile,Default
;   printMaterial,PLA
;   printQuality,Fast
;   printExtruders,
;   extruderName,Extruder
;   extruderToolheadNumber,0
;   extruderDiameter,0.4
;   extruderAutoWidth,0
;   extruderWidth,0.45
;   extrusionMultiplier,1
;   extruderUseRetract,1
;   extruderRetractionDistance,7
;   extruderExtraRestartDistance,0
;   extruderRetractionZLift,0
;   extruderRetractionSpeed,1200
;   extruderUseCoasting,1
;   extruderCoastingDistance,2
;   extruderUseWipe,1
;   extruderWipeDistance,5
;   primaryExtruder,0
;   layerHeight,0.32
;   topSolidLayers,3
;   bottomSolidLayers,3
;   perimeterOutlines,3
;   printPerimetersInsideOut,1
;   startPointOption,2
;   startPointOriginX,0
;   startPointOriginY,0
;   sequentialIslands,0
;   spiralVaseMode,0
;   firstLayerHeightPercentage,100
;   firstLayerWidthPercentage,120
;   firstLayerUnderspeed,0.5
;   useRaft,0
;   raftExtruder,0
;   raftTopLayers,3
;   raftBaseLayers,2
;   raftOffset,3
;   raftSeparationDistance,0.14
;   raftTopInfill,100
;   aboveRaftSpeedMultiplier,0.3
;   useSkirt,1
;   skirtExtruder,0
;   skirtLayers,1
;   skirtOutlines,4
;   skirtOffset,4
;   usePrimePillar,0
;   primePillarExtruder,999
;   primePillarWidth,12
;   primePillarLocation,7
;   primePillarSpeedMultiplier,1
;   useOozeShield,0
;   oozeShieldExtruder,999
;   oozeShieldOffset,2
;   oozeShieldOutlines,1
;   oozeShieldSidewallShape,1
;   oozeShieldSidewallAngle,30
;   oozeShieldSpeedMultiplier,1
;   infillExtruder,0
;   internalInfillPattern,Rectilinear
;   externalInfillPattern,Rectilinear
;   infillPercentage,15
;   outlineOverlapPercentage,20
;   infillExtrusionWidthPercentage,100
;   minInfillLength,5
;   infillLayerInterval,1
;   internalInfillAngles,45,-45
;   overlapInternalInfillAngles,0
;   externalInfillAngles,45,-45
;   generateSupport,0
;   supportExtruder,0
;   supportInfillPercentage,25
;   supportExtraInflation,0
;   supportBaseLayers,1
;   denseSupportExtruder,0
;   denseSupportLayers,0
;   denseSupportInfillPercentage,70
;   supportLayerInterval,1
;   supportHorizontalPartOffset,0.3
;   supportUpperSeparationLayers,1
;   supportLowerSeparationLayers,1
;   supportType,0
;   supportGridSpacing,4
;   maxOverhangAngle,45
;   supportAngles,0
;   temperatureName,Extruder,Heated Bed
;   temperatureNumber,0,0
;   temperatureSetpointCount,1,1
;   temperatureSetpointLayers,1,1
;   temperatureSetpointTemperatures,200,60
;   temperatureStabilizeAtStartup,1,1
;   temperatureHeatedBed,0,1
;   temperatureRelayBetweenLayers,0,0
;   temperatureRelayBetweenLoops,0,0
;   fanLayers,1,2
;   fanSpeeds,0,100
;   blipFanToFullPower,0
;   adjustSpeedForCooling,1
;   minSpeedLayerTime,15
;   minCoolingSpeedSlowdown,20
;   increaseFanForCooling,0
;   minFanLayerTime,45
;   maxCoolingFanSpeed,100
;   increaseFanForBridging,0
;   bridgingFanSpeed,100
;   use5D,1
;   relativeEdistances,0
;   allowEaxisZeroing,1
;   independentExtruderAxes,0
;   includeM10123,0
;   stickySupport,1
;   applyToolheadOffsets,0
;   gcodeXoffset,0
;   gcodeYoffset,0
;   gcodeZoffset,0
;   overrideMachineDefinition,1
;   machineTypeOverride,0
;   strokeXoverride,220
;   strokeYoverride,220
;   strokeZoverride,240
;   originOffsetXoverride,0
;   originOffsetYoverride,0
;   originOffsetZoverride,0
;   homeXdirOverride,-1
;   homeYdirOverride,-1
;   homeZdirOverride,-1
;   flipXoverride,1
;   flipYoverride,-1
;   flipZoverride,1
;   toolheadOffsets,0,0|0,0|0,0|0,0|0,0|0,0
;   overrideFirmwareConfiguration,0
;   firmwareTypeOverride,RepRap (Marlin/Repetier/Sprinter)
;   GPXconfigOverride,r2
;   baudRateOverride,115200
;   overridePrinterModels,0
;   printerModelsOverride
;   startingGcode,G21 ;metric values,G90 ;absolute positioning,M82 ;set extruder to absolute mode,M107 ;start with the fan off,G28 X0 Y0 ;move X/Y to min endstops,G28 Z0 ;move Z to min endstops,G1 Z15.0 F9000 ;move the platform down 15mm,G92 E0 ;zero the extruded length,G1 F200 E3 ;extrude 3mm of feed stock,G92 E0 ;zero the extruded length again,G1 F9000,M117 Printing...
;   layerChangeGcode,
;   retractionGcode,
;   toolChangeGcode,
;   endingGcode,M104 S0 ; turn off extruder,M140 S0 ; turn off bed,G91 ;relative positioning,G1 E-1 F300  ;retract the filament a bit before lifting the nozzle, to release some of the pressure,G1 Z+0.5 E-5 X-20 Y-20 F9000 ;move Z up a bit and retract filament even more,G28 X0 Y0 ;move X/Y to min endstops, so the head is out of the way,G90 ;absolute positioning,G1 Y190 F9000 ;use this line if you want the bed to move to the front. delete if not.,M84 ;steppers off,M107 ; shut off fan,
;   exportFileFormat,gcode
;   celebration,0
;   celebrationSong,Random Song
;   postProcessing,
;   defaultSpeed,3600
;   outlineUnderspeed,0.5
;   solidInfillUnderspeed,0.8
;   supportUnderspeed,0.8
;   rapidXYspeed,4800
;   rapidZspeed,1002
;   minBridgingArea,50
;   bridgingExtraInflation,0
;   bridgingExtrusionMultiplier,1
;   bridgingSpeedMultiplier,1
;   useFixedBridgingAngle,0
;   fixedBridgingAngle,0
;   applyBridgingToPerimeters,0
;   filamentDiameters,1.7|1.7|1.7|1.7|1.7|1.7
;   filamentPricesPerKg,20|20|20|20|20|20
;   filamentDensities,1.25|1.25|1.25|1.25|1.25|1.25
;   useMinPrintHeight,0
;   minPrintHeight,0
;   useMaxPrintHeight,0
;   maxPrintHeight,0
;   useDiaphragm,0
;   diaphragmLayerInterval,20
;   robustSlicing,1
;   mergeAllIntoSolid,0
;   onlyRetractWhenCrossingOutline,1
;   retractBetweenLayers,1
;   useRetractionMinTravel,0
;   retractionMinTravel,3
;   retractWhileWiping,0
;   onlyWipeOutlines,1
;   avoidCrossingOutline,0
;   maxMovementDetourFactor,3
;   toolChangeRetractionDistance,12
;   toolChangeExtraRestartDistance,-0.5
;   toolChangeRetractionSpeed,600
;   externalThinWallType,0
;   internalThinWallType,2
;   thinWallAllowedOverlapPercentage,10
;   singleExtrusionMinLength,1
;   singleExtrusionMinPrintingWidthPercentage,50
;   singleExtrusionMaxPrintingWidthPercentage,200
;   singleExtrusionEndpointExtension,0.2
;   horizontalSizeCompensation,0
G90
M82
M106 S0
M140 S60
M190 S60
M104 S200 T0
M109 S200 T0
G21 ;metric values
G90 ;absolute positioning
M82 ;set extruder to absolute mode
M107 ;start with the fan off
G28 X0 Y0 ;move X/Y to min endstops
G28 Z0 ;move Z to min endstops
G1 Z15.0 F9000 ;move the platform down 15mm
G92 E0 ;zero the extruded length
G1 F200 E3 ;extrude 3mm of feed stock
G92 E0 ;zero the extruded length again
G1 F9000
M117 Printing...
G92 E0
G1 E-7.0000 F1200
G1 Z0.320 F1002
; process Process1
; layer 1, Z = 0.320
T0
; tool H0.320 W0.540
; skirt
G1 X88.809 Y87.451 F4800
G1 E0.0000 F360
G92 E0
G1 X91.596 Y84.665 E0.3000 F1800
G1 X92.175 Y84.425 E0.3477
G1 X127.825 Y84.425 E3.0618
G1 X128.404 Y84.665 E3.1095
G1 X131.191 Y87.451 E3.4095
G1 X131.430 Y88.030 E3.4572
G1 X131.430 Y131.970 E6.8023
G1 X131.191 Y132.549 E6.8500
G1 X128.404 Y135.335 E7.1500
G1 X127.825 Y135.575 E7.1977
G1 X92.175 Y135.575 E9.9118
G1 X91.596 Y135.335 E9.9595
G1 X88.809 Y132.549 E10.2595
G1 X88.570 Y131.970 E10.3072
G1 X88.570 Y89.403 E13.5478
G1 X88.570 Y88.030 F1800
G1 X88.809 Y87.451 F1800
G1 X89.191 Y87.706 F4800
G92 E0
G1 X91.851 Y85.046 E0.2863 F1800
G1 X92.264 Y84.875 E0.3204
G1 X127.736 Y84.875 E3.0209
G1 X128.149 Y85.046 E3.0550
G1 X130.809 Y87.706 E3.3413
G1 X130.980 Y88.119 E3.3754
G1 X130.980 Y131.881 E6.7069
G1 X130.809 Y132.294 E6.7410
G1 X128.149 Y134.954 E7.0273
G1 X127.736 Y135.125 E7.0614
G1 X92.264 Y135.125 E9.7619
G1 X91.851 Y134.954 E9.7960
G1 X89.191 Y132.294 E10.0823
G1 X89.020 Y131.881 E10.1164
G1 X89.020 Y89.672 E13.3297
G1 X89.020 Y88.119 F1800
G1 X89.191 Y87.706 F1800
G1 X89.572 Y87.961 F4800
G92 E0
G1 X92.105 Y85.428 E0.2727 F1800
G1 X92.354 Y85.325 E0.2932
G1 X127.646 Y85.325 E2.9800
G1 X127.895 Y85.428 E3.0005
G1 X130.428 Y87.961 E3.2732
G1 X130.530 Y88.209 E3.2936
G1 X130.530 Y131.791 E6.6115
G1 X130.428 Y132.039 E6.6320
G1 X127.895 Y134.572 E6.9047
G1 X127.646 Y134.675 E6.9251
G1 X92.354 Y134.675 E9.6120
G1 X92.105 Y134.572 E9.6324
G1 X89.572 Y132.039 E9.9051
G1 X89.470 Y131.791 E9.9256
G1 X89.470 Y89.940 E13.1117
G1 X89.470 Y88.209 F1800
G1 X89.572 Y87.961 F1800
G1 X89.954 Y88.216 F4800
G92 E0
G1 X92.360 Y85.809 E0.2591 F1800
G1 X92.443 Y85.775 E0.2659
G1 X127.557 Y85.775 E2.9391
G1 X127.640 Y85.809 E2.9459
G1 X130.046 Y88.216 E3.2050
G1 X130.080 Y88.298 E3.2118
G1 X130.080 Y131.702 E6.5161
G1 X130.046 Y131.784 E6.5229
G1 X127.640 Y134.191 E6.7820
G1 X127.557 Y134.225 E6.7888
G1 X92.443 Y134.225 E9.4621
G1 X92.360 Y134.191 E9.4689
G1 X89.954 Y131.784 E9.7280
G1 X89.920 Y131.702 E9.7348
G1 X89.920 Y90.209 E12.8936
G1 X89.920 Y88.298 F1800
G1 X89.954 Y88.216 F1800
G92 E0
G1 E-7.0000 F1200
; inner perimeter
G1 X95.495 Y91.350 F4800
G1 E0.0000 F1200
G92 E0
G1 X124.505 Y91.350 E2.2086 F1350
G1 X124.505 Y128.650 E5.0482
G1 X95.495 Y128.650 E7.2568
G1 X95.495 Y93.350 E9.9442
G1 X95.495 Y91.350 F1350
G1 X94.955 Y90.810 F4800
G92 E0
G1 X125.045 Y90.810 E2.2908 F1350
G1 X125.045 Y129.190 E5.2127
G1 X94.955 Y129.190 E7.5035
G1 X94.955 Y92.810 E10.2731
G1 X94.955 Y90.810 F1350
; outer perimeter
G1 X94.415 Y90.270 F4800
G92 E0
G1 X125.585 Y90.270 E2.3730 F900
G1 X125.585 Y129.730 E5.3771
G1 X94.415 Y129.730 E7.7501
G1 X94.415 Y92.270 E10.6020
G1 X94.415 Y90.270 F900
G1 X99.415 Y90.270 F3600
; solid layer
G1 X123.856 Y91.782 F4800
G92 E0
G1 X124.073 Y91.999 E0.0234 F1440
G1 X124.073 Y92.763 E0.0815
G1 X123.093 Y91.782 E0.1871
G1 X122.329 Y91.782 E0.2452
G1 X124.073 Y93.526 E0.4330
G1 X124.073 Y94.290 E0.4911
G1 X121.565 Y91.782 E0.7612
G1 X120.802 Y91.782 E0.8193
G1 X124.073 Y95.054 E1.1715
G1 X124.073 Y95.817 E1.2297
G1 X120.038 Y91.782 E1.6641
G1 X119.274 Y91.782 E1.7223
G1 X124.073 Y96.581 E2.2390
G1 X124.073 Y97.345 E2.2971
G1 X118.511 Y91.782 E2.8960
G1 X117.747 Y91.782 E2.9541
G1 X124.073 Y98.108 E3.6353
G1 X124.073 Y98.872 E3.6934
G1 X116.983 Y91.782 E4.4567
G1 X116.220 Y91.782 E4.5149
G1 X124.073 Y99.636 E5.3604
G1 X124.073 Y100.399 E5.4186
G1 X115.456 Y91.782 E6.3464
G1 X114.692 Y91.782 E6.4045
G1 X124.073 Y101.163 E7.4145
G1 X124.073 Y101.927 E7.4726
G1 X113.929 Y91.782 E8.5649
G1 X113.165 Y91.782 E8.6230
G1 X124.073 Y102.690 E9.7974
G1 X124.073 Y103.454 E9.8556
G1 X112.401 Y91.782 E11.1122
G1 X111.638 Y91.782 E11.1704
G1 X124.073 Y104.218 E12.5093
G1 X124.073 Y104.981 E12.5674
G1 X110.874 Y91.782 E13.9885
G1 X110.110 Y91.782 E14.0466
G1 X124.073 Y105.745 E15.5500
G1 X124.073 Y106.509 E15.6081
G1 X109.347 Y91.782 E17.1936
G1 X108.583 Y91.782 E17.2518
G1 X124.073 Y107.272 E18.9196
G1 X124.073 Y108.036 E18.9777
G1 X107.819 Y91.782 E20.7277
G1 X107.056 Y91.782 E20.7858
G1 X124.073 Y108.800 E22.6180
G1 X124.073 Y109.563 E22.6762
G1 X106.292 Y91.782 E24.5906
G1 X105.528 Y91.782 E24.6487
G1 X124.073 Y110.327 E26.6454
G1 X124.073 Y111.091 E26.7035
G1 X104.764 Y91.782 E28.7824
G1 X104.001 Y91.782 E28.8405
G1 X124.073 Y111.854 E31.0016
G1 X124.073 Y112.618 E31.0597
G1 X103.237 Y91.782 E33.3030
G1 X102.473 Y91.782 E33.3612
G1 X124.073 Y113.382 E35.6867
G1 X124.073 Y114.146 E35.7449
G1 X101.710 Y91.782 E38.1526
G1 X100.946 Y91.782 E38.2107
G1 X124.073 Y114.909 E40.7007
G1 X124.073 Y115.673 E40.7589
G1 X100.182 Y91.782 E43.3310
G1 X99.419 Y91.782 E43.3892
G1 X124.073 Y116.437 E46.0436
G1 X124.073 Y117.200 E46.1017
G1 X98.655 Y91.782 E48.8384
G1 X97.891 Y91.782 E48.8965
G1 X124.073 Y117.964 E51.7153
G1 X124.073 Y118.728 E51.7735
G1 X97.128 Y91.782 E54.6746
G1 X96.364 Y91.782 E54.7327
G1 X124.073 Y119.491 E57.7160
G1 X124.073 Y120.255 E57.7741
G1 X95.927 Y92.108 E60.8045
G1 X95.927 Y92.872 E60.8626
G1 X124.073 Y121.019 E63.8930
G1 X124.073 Y121.782 E63.9512
G1 X95.927 Y93.636 E66.9816
G1 X95.927 Y94.399 E67.0397
G1 X124.073 Y122.546 E70.0701
G1 X124.073 Y123.310 E70.1282
G1 X95.927 Y95.163 E73.1586
G1 X95.927 Y95.927 E73.2167
G1 X124.073 Y124.073 E76.2471
G1 X124.073 Y124.837 E76.3053
G1 X95.927 Y96.690 E79.3356
G1 X95.927 Y97.454 E79.3938
G1 X124.073 Y125.601 E82.4242
G1 X124.073 Y126.364 E82.4823
G1 X95.927 Y98.218 E85.5127
G1 X95.927 Y98.981 E85.5708
G1 X124.073 Y127.128 E88.6012
G1 X124.073 Y127.892 E88.6593
G1 X95.927 Y99.745 E91.6897
G1 X95.927 Y100.509 E91.7479
G1 X123.636 Y128.218 E94.7312
G1 X122.872 Y128.218 E94.7893
G1 X95.927 Y101.272 E97.6904
G1 X95.927 Y102.036 E97.7485
G1 X122.109 Y128.218 E100.5674
G1 X121.345 Y128.218 E100.6255
G1 X95.927 Y102.800 E103.3621
G1 X95.927 Y103.563 E103.4203
G1 X120.581 Y128.218 E106.0747
G1 X119.818 Y128.218 E106.1328
G1 X95.927 Y104.327 E108.7050
G1 X95.927 Y105.091 E108.7632
G1 X119.054 Y128.218 E111.2531
G1 X118.290 Y128.218 E111.3113
G1 X95.927 Y105.854 E113.7190
G1 X95.927 Y106.618 E113.7772
G1 X117.527 Y128.218 E116.1027
G1 X116.763 Y128.218 E116.1608
G1 X95.927 Y107.382 E118.4041
G1 X95.927 Y108.145 E118.4623
G1 X115.999 Y128.218 E120.6234
G1 X115.236 Y128.218 E120.6815
G1 X95.927 Y108.909 E122.7604
G1 X95.927 Y109.673 E122.8185
G1 X114.472 Y128.218 E124.8152
G1 X113.708 Y128.218 E124.8733
G1 X95.927 Y110.437 E126.7877
G1 X95.927 Y111.200 E126.8459
G1 X112.945 Y128.218 E128.6781
G1 X112.181 Y128.218 E128.7362
G1 X95.927 Y111.964 E130.4862
G1 X95.927 Y112.728 E130.5443
G1 X111.417 Y128.218 E132.2121
G1 X110.653 Y128.218 E132.2703
G1 X95.927 Y113.491 E133.8558
G1 X95.927 Y114.255 E133.9139
G1 X109.890 Y128.218 E135.4173
G1 X109.126 Y128.218 E135.4754
G1 X95.927 Y115.019 E136.8965
G1 X95.927 Y115.782 E136.9546
G1 X108.362 Y128.218 E138.2935
G1 X107.599 Y128.218 E138.3517
G1 X95.927 Y116.546 E139.6083
G1 X95.927 Y117.310 E139.6665
G1 X106.835 Y128.218 E140.8409
G1 X106.071 Y128.218 E140.8991
G1 X95.927 Y118.073 E141.9913
G1 X95.927 Y118.837 E142.0494
G1 X105.308 Y128.218 E143.0594
G1 X104.544 Y128.218 E143.1176
G1 X95.927 Y119.601 E144.0454
G1 X95.927 Y120.364 E144.1035
G1 X103.780 Y128.218 E144.9491
G1 X103.017 Y128.218 E145.0072
G1 X95.927 Y121.128 E145.7705
G1 X95.927 Y121.892 E145.8287
G1 X102.253 Y128.218 E146.5098
G1 X101.489 Y128.218 E146.5679
G1 X95.927 Y122.655 E147.1668
G1 X95.927 Y123.419 E147.2250
G1 X100.726 Y128.218 E147.7417
G1 X99.962 Y128.218 E147.7998
G1 X95.927 Y124.183 E148.2343
G1 X95.927 Y124.946 E148.2924
G1 X99.198 Y128.218 E148.6446
G1 X98.435 Y128.218 E148.7028
G1 X95.927 Y125.710 E148.9728
G1 X95.927 Y126.474 E149.0309
G1 X97.671 Y128.218 E149.2187
G1 X96.907 Y128.218 E149.2769
G1 X96.584 Y127.895 E149.3117
G1 X95.927 Y127.237 F1440
G1 X95.927 Y128.001 F1440
G1 X96.144 Y128.218 F1440
G92 E0
G1 E-7.0000 F1200
; layer 2, Z = 0.640
M106 S255
; tool H0.320 W0.450
; inner perimeter
G1 X95.270 Y128.875 F4800
G1 Z0.640 F1002
G1 E0.0000 F1200
G92 E0
G1 X95.270 Y91.125 E2.3949 F2700
G1 X124.730 Y91.125 E4.2640
G1 X124.730 Y128.875 E6.6589
G1 X97.270 Y128.875 E8.4010
G1 X95.270 Y128.875 F2700
G1 X94.820 Y129.325 F4800
G92 E0
G1 X94.820 Y90.675 E2.4520 F2700
G1 X125.180 Y90.675 E4.3782
G1 X125.180 Y129.325 E6.8302
G1 X96.820 Y129.325 E8.6294
G1 X94.820 Y129.325 F2700
; outer perimeter
G1 X94.370 Y129.775 F4800
G92 E0
G1 X94.370 Y90.225 E2.5091 F1800
G1 X125.630 Y90.225 E4.4923
G1 X125.630 Y129.775 E7.0015
G1 X96.370 Y129.775 E8.8578
G1 X94.370 Y129.775 F1800
G1 X94.370 Y124.775 F3600
; solid layer
G1 X124.370 Y128.086 F4800
G92 E0
G1 X123.941 Y128.515 E0.0385 F2880
G1 X123.305 Y128.515 E0.0789
G1 X124.370 Y127.450 E0.1745
G1 X124.370 Y126.813 E0.2148
G1 X122.668 Y128.515 E0.3675
G1 X122.032 Y128.515 E0.4079
G1 X124.370 Y126.177 E0.6177
G1 X124.370 Y125.540 E0.6581
G1 X121.396 Y128.515 E0.9250
G1 X120.759 Y128.515 E0.9653
G1 X124.370 Y124.904 E1.2893
G1 X124.370 Y124.268 E1.3297
G1 X120.123 Y128.515 E1.7108
G1 X119.486 Y128.515 E1.7511
G1 X124.370 Y123.631 E2.1893
G1 X124.370 Y122.995 E2.2297
G1 X118.850 Y128.515 E2.7250
G1 X118.214 Y128.515 E2.7654
G1 X124.370 Y122.358 E3.3177
G1 X124.370 Y121.722 E3.3581
G1 X117.577 Y128.515 E3.9676
G1 X116.941 Y128.515 E4.0079
G1 X124.370 Y121.086 E4.6745
G1 X124.370 Y120.449 E4.7149
G1 X116.304 Y128.515 E5.4386
G1 X115.668 Y128.515 E5.4789
