; G-Code generated by Simplify3D(R) Version 4.0.0
; Mar 27, 2018 at 8:31:28 PM
; Settings Summary
;   processName,Process1
;   applyToModels,wheel_barrier_rev1,wheel_barrier_rev1(2)
;   profileName,Anettina (modified)
;   profileVersion,2018-01-26 14:48:52
;   baseProfile,Default
;   printMaterial,PLA
;   printQuality,Fast
;   printExtruders,
;   extruderName,Extruder
;   extruderToolheadNumber,0
;   extruderDiameter,0.4
;   extruderAutoWidth,0
;   extruderWidth,0.45
;   extrusionMultiplier,1
;   extruderUseRetract,1
;   extruderRetractionDistance,7
;   extruderExtraRestartDistance,0
;   extruderRetractionZLift,0
;   extruderRetractionSpeed,1200
;   extruderUseCoasting,1
;   extruderCoastingDistance,2
;   extruderUseWipe,1
;   extruderWipeDistance,5
;   primaryExtruder,0
;   layerHeight,0.32
;   topSolidLayers,3
;   bottomSolidLayers,3
;   perimeterOutlines,3
;   printPerimetersInsideOut,1
;   startPointOption,2
;   startPointOriginX,0
;   startPointOriginY,0
;   sequentialIslands,0
;   spiralVaseMode,0
;   firstLayerHeightPercentage,100
;   firstLayerWidthPercentage,120
;   firstLayerUnderspeed,0.5
;   useRaft,0
;   raftExtruder,0
;   raftTopLayers,3
;   raftBaseLayers,2
;   raftOffset,3
;   raftSeparationDistance,0.14
;   raftTopInfill,100
;   aboveRaftSpeedMultiplier,0.3
;   useSkirt,1
;   skirtExtruder,0
;   skirtLayers,1
;   skirtOutlines,4
;   skirtOffset,4
;   usePrimePillar,0
;   primePillarExtruder,999
;   primePillarWidth,12
;   primePillarLocation,7
;   primePillarSpeedMultiplier,1
;   useOozeShield,0
;   oozeShieldExtruder,999
;   oozeShieldOffset,2
;   oozeShieldOutlines,1
;   oozeShieldSidewallShape,1
;   oozeShieldSidewallAngle,30
;   oozeShieldSpeedMultiplier,1
;   infillExtruder,0
;   internalInfillPattern,Rectilinear
;   externalInfillPattern,Rectilinear
;   infillPercentage,15
;   outlineOverlapPercentage,20
;   infillExtrusionWidthPercentage,100
;   minInfillLength,5
;   infillLayerInterval,1
;   internalInfillAngles,45,-45
;   overlapInternalInfillAngles,0
;   externalInfillAngles,45,-45
;   generateSupport,0
;   supportExtruder,0
;   supportInfillPercentage,25
;   supportExtraInflation,0
;   supportBaseLayers,1
;   denseSupportExtruder,0
;   denseSupportLayers,0
;   denseSupportInfillPercentage,70
;   supportLayerInterval,1
;   supportHorizontalPartOffset,0.3
;   supportUpperSeparationLayers,1
;   supportLowerSeparationLayers,1
;   supportType,0
;   supportGridSpacing,4
;   maxOverhangAngle,45
;   supportAngles,0
;   temperatureName,Extruder,Heated Bed
;   temperatureNumber,0,0
;   temperatureSetpointCount,1,1
;   temperatureSetpointLayers,1,1
;   temperatureSetpointTemperatures,200,60
;   temperatureStabilizeAtStartup,1,1
;   temperatureHeatedBed,0,1
;   temperatureRelayBetweenLayers,0,0
;   temperatureRelayBetweenLoops,0,0
;   fanLayers,1,2
;   fanSpeeds,0,100
;   blipFanToFullPower,0
;   adjustSpeedForCooling,1
;   minSpeedLayerTime,15
;   minCoolingSpeedSlowdown,20
;   increaseFanForCooling,0
;   minFanLayerTime,45
;   maxCoolingFanSpeed,100
;   increaseFanForBridging,0
;   bridgingFanSpeed,100
;   use5D,1
;   relativeEdistances,0
;   allowEaxisZeroing,1
;   independentExtruderAxes,0
;   includeM10123,0
;   stickySupport,1
;   applyToolheadOffsets,0
;   gcodeXoffset,0
;   gcodeYoffset,0
;   gcodeZoffset,0
;   overrideMachineDefinition,1
;   machineTypeOverride,0
;   strokeXoverride,220
;   strokeYoverride,220
;   strokeZoverride,240
;   originOffsetXoverride,0
;   originOffsetYoverride,0
;   originOffsetZoverride,0
;   homeXdirOverride,-1
;   homeYdirOverride,-1
;   homeZdirOverride,-1
;   flipXoverride,1
;   flipYoverride,-1
;   flipZoverride,1
;   toolheadOffsets,0,0|0,0|0,0|0,0|0,0|0,0
;   overrideFirmwareConfiguration,0
;   firmwareTypeOverride,RepRap (Marlin/Repetier/Sprinter)
;   GPXconfigOverride,r2
;   baudRateOverride,115200
;   overridePrinterModels,0
;   printerModelsOverride
;   startingGcode,G21 ;metric values,G90 ;absolute positioning,M82 ;set extruder to absolute mode,M107 ;start with the fan off,G28 X0 Y0 ;move X/Y to min endstops,G28 Z0 ;move Z to min endstops,G1 Z15.0 F9000 ;move the platform down 15mm,G92 E0 ;zero the extruded length,G1 F200 E3 ;extrude 3mm of feed stock,G92 E0 ;zero the extruded length again,G1 F9000,M117 Printing...
;   layerChangeGcode,
;   retractionGcode,
;   toolChangeGcode,
;   endingGcode,M104 S0 ; turn off extruder,M140 S0 ; turn off bed,G91 ;relative positioning,G1 E-1 F300  ;retract the filament a bit before lifting the nozzle, to release some of the pressure,G1 Z+0.5 E-5 X-20 Y-20 F9000 ;move Z up a bit and retract filament even more,G28 X0 Y0 ;move X/Y to min endstops, so the head is out of the way,G90 ;absolute positioning,G1 Y190 F9000 ;use this line if you want the bed to move to the front. delete if not.,M84 ;steppers off,M107 ; shut off fan,
;   exportFileFormat,gcode
;   celebration,0
;   celebrationSong,Random Song
;   postProcessing,
;   defaultSpeed,3600
;   outlineUnderspeed,0.5
;   solidInfillUnderspeed,0.8
;   supportUnderspeed,0.8
;   rapidXYspeed,4800
;   rapidZspeed,1002
;   minBridgingArea,50
;   bridgingExtraInflation,0
;   bridgingExtrusionMultiplier,1
;   bridgingSpeedMultiplier,1
;   useFixedBridgingAngle,0
;   fixedBridgingAngle,0
;   applyBridgingToPerimeters,0
;   filamentDiameters,1.7|1.7|1.7|1.7|1.7|1.7
;   filamentPricesPerKg,20|20|20|20|20|20
;   filamentDensities,1.25|1.25|1.25|1.25|1.25|1.25
;   useMinPrintHeight,0
;   minPrintHeight,0
;   useMaxPrintHeight,0
;   maxPrintHeight,0
;   useDiaphragm,0
;   diaphragmLayerInterval,20
;   robustSlicing,1
;   mergeAllIntoSolid,0
;   onlyRetractWhenCrossingOutline,1
;   retractBetweenLayers,1
;   useRetractionMinTravel,0
;   retractionMinTravel,3
;   retractWhileWiping,0
;   onlyWipeOutlines,1
;   avoidCrossingOutline,0
;   maxMovementDetourFactor,3
;   toolChangeRetractionDistance,12
;   toolChangeExtraRestartDistance,-0.5
;   toolChangeRetractionSpeed,600
;   externalThinWallType,0
;   internalThinWallType,2
;   thinWallAllowedOverlapPercentage,10
;   singleExtrusionMinLength,1
;   singleExtrusionMinPrintingWidthPercentage,50
;   singleExtrusionMaxPrintingWidthPercentage,200
;   singleExtrusionEndpointExtension,0.2
;   horizontalSizeCompensation,0
G90
M82
M106 S0
M140 S60
M190 S60
M104 S200 T0
M109 S200 T0
G21 ;metric values
G90 ;absolute positioning
M82 ;set extruder to absolute mode
M107 ;start with the fan off
G28 X0 Y0 ;move X/Y to min endstops
G28 Z0 ;move Z to min endstops
G1 Z15.0 F9000 ;move the platform down 15mm
G92 E0 ;zero the extruded length
G1 F200 E3 ;extrude 3mm of feed stock
G92 E0 ;zero the extruded length again
G1 F9000
M117 Printing...
G92 E0
G1 E-7.0000 F1200
G1 Z0.320 F1002
; process Process1
; layer 1, Z = 0.320
T0
; tool H0.320 W0.540
; skirt
G1 X88.809 Y64.951 F4800
G1 E0.0000 F360
G92 E0
G1 X91.596 Y62.165 E0.3000 F1800
G1 X92.175 Y61.925 E0.3477
G1 X127.825 Y61.925 E3.0618
G1 X128.404 Y62.165 E3.1095
G1 X131.191 Y64.951 E3.4095
G1 X131.430 Y65.530 E3.4572
G1 X131.430 Y109.470 E6.8023
G1 X131.211 Y110.000 E6.8460
G1 X131.430 Y110.530 E6.8897
G1 X131.430 Y154.470 E10.2348
G1 X131.191 Y155.049 E10.2825
G1 X128.404 Y157.835 E10.5825
G1 X127.825 Y158.075 E10.6302
G1 X92.175 Y158.075 E13.3443
G1 X91.596 Y157.835 E13.3920
G1 X88.809 Y155.049 E13.6920
G1 X88.570 Y154.470 E13.7397
G1 X88.570 Y110.530 E17.0849
G1 X88.789 Y110.000 E17.1285
G1 X88.570 Y109.470 E17.1722
G1 X88.570 Y66.903 E20.4128
G1 X88.570 Y65.530 F1800
G1 X88.809 Y64.951 F1800
G1 X89.191 Y65.206 F4800
G92 E0
G1 X91.851 Y62.546 E0.2863 F1800
G1 X92.264 Y62.375 E0.3204
G1 X127.736 Y62.375 E3.0209
G1 X128.149 Y62.546 E3.0550
G1 X130.809 Y65.206 E3.3413
G1 X130.980 Y65.619 E3.3754
G1 X130.980 Y109.381 E6.7069
G1 X130.809 Y109.794 E6.7410
G1 X130.603 Y110.000 E6.7632
G1 X130.809 Y110.206 E6.7853
G1 X130.980 Y110.619 E6.8194
G1 X130.980 Y154.381 E10.1510
G1 X130.809 Y154.794 E10.1850
G1 X128.149 Y157.454 E10.4714
G1 X127.736 Y157.625 E10.5054
G1 X92.264 Y157.625 E13.2059
G1 X91.851 Y157.454 E13.2400
G1 X89.191 Y154.794 E13.5263
G1 X89.020 Y154.381 E13.5604
G1 X89.020 Y110.619 E16.8920
G1 X89.191 Y110.206 E16.9260
G1 X89.397 Y110.000 E16.9482
G1 X89.191 Y109.794 E16.9704
G1 X89.020 Y109.381 E17.0044
G1 X89.020 Y67.172 E20.2178
G1 X89.020 Y65.619 F1800
G1 X89.191 Y65.206 F1800
G1 X89.572 Y65.461 F4800
G92 E0
G1 X92.105 Y62.928 E0.2727 F1800
G1 X92.354 Y62.825 E0.2932
G1 X127.646 Y62.825 E2.9800
G1 X127.895 Y62.928 E3.0004
G1 X130.428 Y65.461 E3.2732
G1 X130.530 Y65.709 E3.2936
G1 X130.530 Y109.291 E6.6115
G1 X130.428 Y109.539 E6.6320
G1 X129.967 Y110.000 E6.6816
G1 X130.428 Y110.461 E6.7312
G1 X130.530 Y110.709 E6.7516
G1 X130.530 Y154.291 E10.0696
G1 X130.428 Y154.539 E10.0900
G1 X127.895 Y157.072 E10.3627
G1 X127.646 Y157.175 E10.3832
G1 X92.354 Y157.175 E13.0700
G1 X92.105 Y157.072 E13.0904
G1 X89.572 Y154.539 E13.3632
G1 X89.470 Y154.291 E13.3836
G1 X89.470 Y110.709 E16.7015
G1 X89.572 Y110.461 E16.7220
G1 X90.033 Y110.000 E16.7716
G1 X89.572 Y109.539 E16.8212
G1 X89.470 Y109.291 E16.8416
G1 X89.470 Y67.440 E20.0277
G1 X89.470 Y65.709 F1800
G1 X89.572 Y65.461 F1800
G1 X89.954 Y65.716 F4800
G92 E0
G1 X92.360 Y63.309 E0.2591 F1800
G1 X92.443 Y63.275 E0.2659
G1 X127.557 Y63.275 E2.9391
G1 X127.640 Y63.309 E2.9459
G1 X130.046 Y65.716 E3.2050
G1 X130.080 Y65.798 E3.2118
G1 X130.080 Y109.202 E6.5161
G1 X130.046 Y109.284 E6.5229
G1 X129.330 Y110.000 E6.6000
G1 X130.046 Y110.716 E6.6770
G1 X130.080 Y110.798 E6.6839
G1 X130.080 Y154.202 E9.9882
G1 X130.046 Y154.284 E9.9950
G1 X127.640 Y156.691 E10.2541
G1 X127.557 Y156.725 E10.2609
G1 X92.443 Y156.725 E12.9341
G1 X92.360 Y156.691 E12.9409
G1 X89.954 Y154.284 E13.2000
G1 X89.920 Y154.202 E13.2068
G1 X89.920 Y110.798 E16.5111
G1 X89.954 Y110.716 E16.5179
G1 X90.670 Y110.000 E16.5950
G1 X89.954 Y109.284 E16.6720
G1 X89.920 Y109.202 E16.6788
G1 X89.920 Y67.709 E19.8377
G1 X89.920 Y65.798 F1800
G1 X89.954 Y65.716 F1800
G92 E0
G1 E-7.0000 F1200
; inner perimeter
G1 X95.495 Y68.850 F4800
G1 E0.0000 F1200
G92 E0
G1 X124.505 Y68.850 E2.2086 F1350
G1 X124.505 Y106.150 E5.0482
G1 X95.495 Y106.150 E7.2568
G1 X95.495 Y70.850 E9.9442
G1 X95.495 Y68.850 F1350
G1 X94.955 Y68.310 F4800
G92 E0
G1 X125.045 Y68.310 E2.2908 F1350
G1 X125.045 Y106.690 E5.2127
G1 X94.955 Y106.690 E7.5035
G1 X94.955 Y70.310 E10.2731
G1 X94.955 Y68.310 F1350
; outer perimeter
G1 X94.415 Y67.770 F4800
G92 E0
G1 X125.585 Y67.770 E2.3730 F900
G1 X125.585 Y107.230 E5.3771
G1 X94.415 Y107.230 E7.7501
G1 X94.415 Y69.770 E10.6020
G1 X94.415 Y67.770 F900
G1 X99.415 Y67.770 F3600
; solid layer
G1 X123.503 Y69.282 F4800
G92 E0
G1 X124.073 Y69.852 E0.0614 F1440
G1 X124.073 Y70.616 E0.1195
G1 X122.739 Y69.282 E0.2632
G1 X121.976 Y69.282 E0.3213
G1 X124.073 Y71.380 E0.5472
G1 X124.073 Y72.143 E0.6053
G1 X121.212 Y69.282 E0.9134
G1 X120.448 Y69.282 E0.9715
G1 X124.073 Y72.907 E1.3618
G1 X124.073 Y73.671 E1.4199
G1 X119.685 Y69.282 E1.8924
G1 X118.921 Y69.282 E1.9506
G1 X124.073 Y74.434 E2.5053
G1 X124.073 Y75.198 E2.5634
G1 X118.157 Y69.282 E3.2004
G1 X117.394 Y69.282 E3.2585
G1 X124.073 Y75.962 E3.9777
G1 X124.073 Y76.725 E4.0358
G1 X116.630 Y69.282 E4.8372
G1 X115.866 Y69.282 E4.8954
G1 X124.073 Y77.489 E5.7790
G1 X124.073 Y78.253 E5.8371
G1 X115.103 Y69.282 E6.8029
G1 X114.339 Y69.282 E6.8611
G1 X124.073 Y79.016 E7.9091
G1 X124.073 Y79.780 E7.9673
G1 X113.575 Y69.282 E9.0975
G1 X112.812 Y69.282 E9.1557
G1 X124.073 Y80.544 E10.3682
G1 X124.073 Y81.307 E10.4263
G1 X112.048 Y69.282 E11.7210
G1 X111.284 Y69.282 E11.7792
G1 X124.073 Y82.071 E13.1561
G1 X124.073 Y82.835 E13.2142
G1 X110.520 Y69.282 E14.6734
G1 X109.757 Y69.282 E14.7315
G1 X124.073 Y83.599 E16.2729
G1 X124.073 Y84.362 E16.3310
G1 X108.993 Y69.282 E17.9546
G1 X108.229 Y69.282 E18.0128
G1 X124.073 Y85.126 E19.7186
G1 X124.073 Y85.890 E19.7767
G1 X107.466 Y69.282 E21.5648
G1 X106.702 Y69.282 E21.6229
G1 X124.073 Y86.653 E23.4932
G1 X124.073 Y87.417 E23.5513
G1 X105.938 Y69.282 E25.5038
G1 X105.175 Y69.282 E25.5619
G1 X124.073 Y88.181 E27.5966
G1 X124.073 Y88.944 E27.6547
G1 X104.411 Y69.282 E29.7717
G1 X103.647 Y69.282 E29.8298
G1 X124.073 Y89.708 E32.0289
G1 X124.073 Y90.472 E32.0871
G1 X102.884 Y69.282 E34.3684
G1 X102.120 Y69.282 E34.4266
G1 X124.073 Y91.235 E36.7902
G1 X124.073 Y91.999 E36.8483
G1 X101.356 Y69.282 E39.2941
G1 X100.593 Y69.282 E39.3522
G1 X124.073 Y92.763 E41.8802
G1 X124.073 Y93.526 E41.9384
G1 X99.829 Y69.282 E44.5486
G1 X99.065 Y69.282 E44.6068
G1 X124.073 Y94.290 E47.2992
G1 X124.073 Y95.054 E47.3574
G1 X98.302 Y69.282 E50.1320
G1 X97.538 Y69.282 E50.1902
G1 X124.073 Y95.817 E53.0471
G1 X124.073 Y96.581 E53.1052
G1 X96.774 Y69.282 E56.0443
G1 X96.011 Y69.282 E56.1025
G1 X124.073 Y97.345 E59.1238
G1 X124.073 Y98.108 E59.1820
G1 X95.927 Y69.962 E62.2123
G1 X95.927 Y70.725 E62.2705
G1 X124.073 Y98.872 E65.3009
G1 X124.073 Y99.636 E65.3590
G1 X95.927 Y71.489 E68.3894
G1 X95.927 Y72.253 E68.4475
G1 X124.073 Y100.399 E71.4779
G1 X124.073 Y101.163 E71.5360
G1 X95.927 Y73.016 E74.5664
G1 X95.927 Y73.780 E74.6246
G1 X124.073 Y101.927 E77.6549
G1 X124.073 Y102.690 E77.7131
G1 X95.927 Y74.544 E80.7435
G1 X95.927 Y75.307 E80.8016
G1 X124.073 Y103.454 E83.8320
G1 X124.073 Y104.218 E83.8901
G1 X95.927 Y76.071 E86.9205
G1 X95.927 Y76.835 E86.9786
G1 X124.073 Y104.981 E90.0090
G1 X124.073 Y105.718 E90.0651
G1 X124.046 Y105.718 E90.0672
G1 X95.927 Y77.598 E93.0946
G1 X95.927 Y78.362 E93.1528
G1 X123.283 Y105.718 E96.0980
G1 X122.519 Y105.718 E96.1562
G1 X95.927 Y79.126 E99.0192
G1 X95.927 Y79.889 E99.0773
G1 X121.755 Y105.718 E101.8581
G1 X120.992 Y105.718 E101.9163
G1 X95.927 Y80.653 E104.6148
G1 X95.927 Y81.417 E104.6730
G1 X120.228 Y105.718 E107.2894
G1 X119.464 Y105.718 E107.3475
G1 X95.927 Y82.181 E109.8816
G1 X95.927 Y82.944 E109.9398
G1 X118.700 Y105.718 E112.3917
G1 X117.937 Y105.718 E112.4498
G1 X95.927 Y83.708 E114.8195
G1 X95.927 Y84.472 E114.8777
G1 X117.173 Y105.718 E117.1652
G1 X116.409 Y105.718 E117.2233
G1 X95.927 Y85.235 E119.4286
G1 X95.927 Y85.999 E119.4867
G1 X115.646 Y105.718 E121.6097
G1 X114.882 Y105.718 E121.6679
G1 X95.927 Y86.763 E123.7087
G1 X95.927 Y87.526 E123.7668
G1 X114.118 Y105.718 E125.7254
G1 X113.355 Y105.718 E125.7836
G1 X95.927 Y88.290 E127.6600
G1 X95.927 Y89.054 E127.7181
G1 X112.591 Y105.718 E129.5123
G1 X111.827 Y105.718 E129.5704
G1 X95.927 Y89.817 E131.2823
G1 X95.927 Y90.581 E131.3405
G1 X111.064 Y105.718 E132.9702
G1 X110.300 Y105.718 E133.0283
G1 X95.927 Y91.345 E134.5758
G1 X95.927 Y92.108 E134.6340
G1 X109.536 Y105.718 E136.0992
G1 X108.773 Y105.718 E136.1574
G1 X95.927 Y92.872 E137.5404
G1 X95.927 Y93.636 E137.5986
G1 X108.009 Y105.718 E138.8994
G1 X107.245 Y105.718 E138.9575
G1 X95.927 Y94.399 E140.1762
G1 X95.927 Y95.163 E140.2343
G1 X106.482 Y105.718 E141.3707
G1 X105.718 Y105.718 E141.4288
G1 X95.927 Y95.927 E142.4830
G1 X95.927 Y96.690 E142.5412
G1 X104.954 Y105.718 E143.5131
G1 X104.191 Y105.718 E143.5712
G1 X95.927 Y97.454 E144.4610
G1 X95.927 Y98.218 E144.5191
G1 X103.427 Y105.718 E145.3266
G1 X102.663 Y105.718 E145.3848
G1 X95.927 Y98.981 E146.1101
G1 X95.927 Y99.745 E146.1682
G1 X101.900 Y105.718 E146.8113
G1 X101.136 Y105.718 E146.8694
G1 X95.927 Y100.509 E147.4303
G1 X95.927 Y101.272 E147.4884
G1 X100.372 Y105.718 E147.9670
G1 X99.609 Y105.718 E148.0252
G1 X95.927 Y102.036 E148.4216
G1 X95.927 Y102.800 E148.4797
G1 X98.845 Y105.718 E148.7939
G1 X98.081 Y105.718 E148.8521
G1 X95.927 Y103.563 E149.0840
G1 X95.927 Y104.327 E149.1422
G1 X97.071 Y105.471 E149.2653
G1 X97.318 Y105.718 F1440
G1 X96.554 Y105.718 F1440
G1 X95.927 Y105.091 F1440
G92 E0
G1 E-7.0000 F1200
; inner perimeter
G1 X95.495 Y113.850 F4800
G1 E0.0000 F1200
G92 E0
G1 X124.505 Y113.850 E2.2086 F1350
G1 X124.505 Y151.150 E5.0482
G1 X95.495 Y151.150 E7.2568
G1 X95.495 Y115.850 E9.9442
G1 X95.495 Y113.850 F1350
G1 X94.955 Y113.310 F4800
G92 E0
G1 X125.045 Y113.310 E2.2908 F1350
G1 X125.045 Y151.690 E5.2127
G1 X94.955 Y151.690 E7.5035
G1 X94.955 Y115.310 E10.2731
G1 X94.955 Y113.310 F1350
; outer perimeter
G1 X94.415 Y112.770 F4800
G92 E0
G1 X125.585 Y112.770 E2.3730 F900
