; G-Code generated by Simplify3D(R) Version 4.0.0
; Mar 24, 2018 at 2:42:24 PM
; Settings Summary
;   processName,Process1
;   applyToModels,end_axis_encoder
;   profileName,Anettina (modified)
;   profileVersion,2018-01-26 14:48:52
;   baseProfile,Default
;   printMaterial,PLA
;   printQuality,Fast
;   printExtruders,
;   extruderName,Extruder
;   extruderToolheadNumber,0
;   extruderDiameter,0.4
;   extruderAutoWidth,0
;   extruderWidth,0.45
;   extrusionMultiplier,1
;   extruderUseRetract,1
;   extruderRetractionDistance,7
;   extruderExtraRestartDistance,0
;   extruderRetractionZLift,0
;   extruderRetractionSpeed,1200
;   extruderUseCoasting,1
;   extruderCoastingDistance,2
;   extruderUseWipe,1
;   extruderWipeDistance,5
;   primaryExtruder,0
;   layerHeight,0.32
;   topSolidLayers,3
;   bottomSolidLayers,3
;   perimeterOutlines,3
;   printPerimetersInsideOut,1
;   startPointOption,2
;   startPointOriginX,0
;   startPointOriginY,0
;   sequentialIslands,0
;   spiralVaseMode,0
;   firstLayerHeightPercentage,100
;   firstLayerWidthPercentage,120
;   firstLayerUnderspeed,0.5
;   useRaft,0
;   raftExtruder,0
;   raftTopLayers,3
;   raftBaseLayers,2
;   raftOffset,3
;   raftSeparationDistance,0.14
;   raftTopInfill,100
;   aboveRaftSpeedMultiplier,0.3
;   useSkirt,1
;   skirtExtruder,0
;   skirtLayers,1
;   skirtOutlines,4
;   skirtOffset,4
;   usePrimePillar,0
;   primePillarExtruder,999
;   primePillarWidth,12
;   primePillarLocation,7
;   primePillarSpeedMultiplier,1
;   useOozeShield,0
;   oozeShieldExtruder,999
;   oozeShieldOffset,2
;   oozeShieldOutlines,1
;   oozeShieldSidewallShape,1
;   oozeShieldSidewallAngle,30
;   oozeShieldSpeedMultiplier,1
;   infillExtruder,0
;   internalInfillPattern,Rectilinear
;   externalInfillPattern,Rectilinear
;   infillPercentage,15
;   outlineOverlapPercentage,20
;   infillExtrusionWidthPercentage,100
;   minInfillLength,5
;   infillLayerInterval,1
;   internalInfillAngles,45,-45
;   overlapInternalInfillAngles,0
;   externalInfillAngles,45,-45
;   generateSupport,0
;   supportExtruder,0
;   supportInfillPercentage,25
;   supportExtraInflation,0
;   supportBaseLayers,1
;   denseSupportExtruder,0
;   denseSupportLayers,0
;   denseSupportInfillPercentage,70
;   supportLayerInterval,1
;   supportHorizontalPartOffset,0.3
;   supportUpperSeparationLayers,1
;   supportLowerSeparationLayers,1
;   supportType,0
;   supportGridSpacing,4
;   maxOverhangAngle,45
;   supportAngles,0
;   temperatureName,Extruder,Heated Bed
;   temperatureNumber,0,0
;   temperatureSetpointCount,1,1
;   temperatureSetpointLayers,1,1
;   temperatureSetpointTemperatures,200,60
;   temperatureStabilizeAtStartup,1,1
;   temperatureHeatedBed,0,1
;   temperatureRelayBetweenLayers,0,0
;   temperatureRelayBetweenLoops,0,0
;   fanLayers,1,2
;   fanSpeeds,0,100
;   blipFanToFullPower,0
;   adjustSpeedForCooling,1
;   minSpeedLayerTime,15
;   minCoolingSpeedSlowdown,20
;   increaseFanForCooling,0
;   minFanLayerTime,45
;   maxCoolingFanSpeed,100
;   increaseFanForBridging,0
;   bridgingFanSpeed,100
;   use5D,1
;   relativeEdistances,0
;   allowEaxisZeroing,1
;   independentExtruderAxes,0
;   includeM10123,0
;   stickySupport,1
;   applyToolheadOffsets,0
;   gcodeXoffset,0
;   gcodeYoffset,0
;   gcodeZoffset,0
;   overrideMachineDefinition,1
;   machineTypeOverride,0
;   strokeXoverride,220
;   strokeYoverride,220
;   strokeZoverride,240
;   originOffsetXoverride,0
;   originOffsetYoverride,0
;   originOffsetZoverride,0
;   homeXdirOverride,-1
;   homeYdirOverride,-1
;   homeZdirOverride,-1
;   flipXoverride,1
;   flipYoverride,-1
;   flipZoverride,1
;   toolheadOffsets,0,0|0,0|0,0|0,0|0,0|0,0
;   overrideFirmwareConfiguration,0
;   firmwareTypeOverride,RepRap (Marlin/Repetier/Sprinter)
;   GPXconfigOverride,r2
;   baudRateOverride,115200
;   overridePrinterModels,0
;   printerModelsOverride
;   startingGcode,G21 ;metric values,G90 ;absolute positioning,M82 ;set extruder to absolute mode,M107 ;start with the fan off,G28 X0 Y0 ;move X/Y to min endstops,G28 Z0 ;move Z to min endstops,G1 Z15.0 F9000 ;move the platform down 15mm,G92 E0 ;zero the extruded length,G1 F200 E3 ;extrude 3mm of feed stock,G92 E0 ;zero the extruded length again,G1 F9000,M117 Printing...
;   layerChangeGcode,
;   retractionGcode,
;   toolChangeGcode,
;   endingGcode,M104 S0 ; turn off extruder,M140 S0 ; turn off bed,G91 ;relative positioning,G1 E-1 F300  ;retract the filament a bit before lifting the nozzle, to release some of the pressure,G1 Z+0.5 E-5 X-20 Y-20 F9000 ;move Z up a bit and retract filament even more,G28 X0 Y0 ;move X/Y to min endstops, so the head is out of the way,G90 ;absolute positioning,G1 Y190 F9000 ;use this line if you want the bed to move to the front. delete if not.,M84 ;steppers off,M107 ; shut off fan,
;   exportFileFormat,gcode
;   celebration,0
;   celebrationSong,Random Song
;   postProcessing,
;   defaultSpeed,3600
;   outlineUnderspeed,0.5
;   solidInfillUnderspeed,0.8
;   supportUnderspeed,0.8
;   rapidXYspeed,4800
;   rapidZspeed,1002
;   minBridgingArea,50
;   bridgingExtraInflation,0
;   bridgingExtrusionMultiplier,1
;   bridgingSpeedMultiplier,1
;   useFixedBridgingAngle,0
;   fixedBridgingAngle,0
;   applyBridgingToPerimeters,0
;   filamentDiameters,1.7|1.7|1.7|1.7|1.7|1.7
;   filamentPricesPerKg,20|20|20|20|20|20
;   filamentDensities,1.25|1.25|1.25|1.25|1.25|1.25
;   useMinPrintHeight,0
;   minPrintHeight,0
;   useMaxPrintHeight,0
;   maxPrintHeight,0
;   useDiaphragm,0
;   diaphragmLayerInterval,20
;   robustSlicing,1
;   mergeAllIntoSolid,0
;   onlyRetractWhenCrossingOutline,1
;   retractBetweenLayers,1
;   useRetractionMinTravel,0
;   retractionMinTravel,3
;   retractWhileWiping,0
;   onlyWipeOutlines,1
;   avoidCrossingOutline,0
;   maxMovementDetourFactor,3
;   toolChangeRetractionDistance,12
;   toolChangeExtraRestartDistance,-0.5
;   toolChangeRetractionSpeed,600
;   externalThinWallType,0
;   internalThinWallType,2
;   thinWallAllowedOverlapPercentage,10
;   singleExtrusionMinLength,1
;   singleExtrusionMinPrintingWidthPercentage,50
;   singleExtrusionMaxPrintingWidthPercentage,200
;   singleExtrusionEndpointExtension,0.2
;   horizontalSizeCompensation,0
G90
M82
M106 S0
M140 S60
M190 S60
M104 S200 T0
M109 S200 T0
G21 ;metric values
G90 ;absolute positioning
M82 ;set extruder to absolute mode
M107 ;start with the fan off
G28 X0 Y0 ;move X/Y to min endstops
G28 Z0 ;move Z to min endstops
G1 Z15.0 F9000 ;move the platform down 15mm
G92 E0 ;zero the extruded length
G1 F200 E3 ;extrude 3mm of feed stock
G92 E0 ;zero the extruded length again
G1 F9000
M117 Printing...
G92 E0
G1 E-7.0000 F1200
G1 Z0.320 F1002
; process Process1
; layer 1, Z = 0.320
T0
; tool H0.320 W0.540
; skirt
G1 X72.417 Y47.455 F4800
G1 E0.0000 F360
G92 E0
G1 X74.554 Y44.026 E0.3077 F1800
G1 X74.576 Y43.992 E0.3107
G1 X74.715 Y43.793 E0.3292
G1 X74.739 Y43.761 E0.3322
G1 X77.212 Y40.565 E0.6399
G1 X77.237 Y40.534 E0.6429
G1 X77.395 Y40.350 E0.6614
G1 X77.422 Y40.320 E0.6644
G1 X80.207 Y37.391 E0.9721
G1 X80.235 Y37.363 E0.9751
G1 X80.411 Y37.196 E0.9936
G1 X80.440 Y37.169 E0.9966
G1 X83.507 Y34.537 E1.3043
G1 X83.538 Y34.512 E1.3073
G1 X83.730 Y34.363 E1.3258
G1 X83.762 Y34.339 E1.3289
G1 X87.079 Y32.031 E1.6365
G1 X87.112 Y32.009 E1.6396
G1 X87.318 Y31.881 E1.6580
G1 X87.352 Y31.860 E1.6611
G1 X90.886 Y29.899 E1.9687
G1 X90.921 Y29.880 E1.9718
G1 X91.139 Y29.774 E1.9902
G1 X91.175 Y29.757 E1.9933
G1 X94.889 Y28.163 E2.3009
G1 X94.926 Y28.148 E2.3040
G1 X95.154 Y28.064 E2.3225
G1 X95.191 Y28.051 E2.3255
G1 X99.047 Y26.841 E2.6332
G1 X99.086 Y26.830 E2.6362
G1 X99.321 Y26.770 E2.6547
G1 X99.359 Y26.761 E2.6577
G1 X103.318 Y25.947 E2.9654
G1 X103.357 Y25.940 E2.9684
G1 X103.597 Y25.903 E2.9869
G1 X103.637 Y25.898 E2.9899
G1 X107.657 Y25.489 E3.2976
G1 X107.697 Y25.486 E3.3006
G1 X107.939 Y25.474 E3.3191
G1 X107.979 Y25.473 E3.3221
G1 X112.021 Y25.473 E3.6298
G1 X112.061 Y25.474 E3.6328
G1 X112.303 Y25.486 E3.6513
G1 X112.343 Y25.489 E3.6543
G1 X116.363 Y25.898 E3.9620
G1 X116.403 Y25.903 E3.9651
G1 X116.643 Y25.940 E3.9835
G1 X116.682 Y25.947 E3.9866
G1 X120.641 Y26.761 E4.2942
G1 X120.679 Y26.770 E4.2973
G1 X120.914 Y26.830 E4.3157
G1 X120.953 Y26.841 E4.3188
G1 X124.809 Y28.051 E4.6264
G1 X124.846 Y28.064 E4.6295
G1 X125.074 Y28.148 E4.6479
G1 X125.111 Y28.163 E4.6510
G1 X128.825 Y29.757 E4.9587
G1 X128.861 Y29.774 E4.9617
G1 X129.079 Y29.881 E4.9802
G1 X129.114 Y29.899 E4.9832
G1 X132.648 Y31.860 E5.2909
G1 X132.682 Y31.881 E5.2939
G1 X132.888 Y32.009 E5.3124
G1 X132.921 Y32.031 E5.3154
G1 X136.238 Y34.339 E5.6231
G1 X136.270 Y34.363 E5.6261
G1 X136.462 Y34.512 E5.6446
G1 X136.493 Y34.537 E5.6476
G1 X139.560 Y37.169 E5.9553
G1 X139.589 Y37.196 E5.9583
G1 X139.765 Y37.363 E5.9768
G1 X139.793 Y37.391 E5.9798
G1 X142.578 Y40.321 E6.2875
G1 X142.605 Y40.350 E6.2906
G1 X142.763 Y40.534 E6.3090
G1 X142.788 Y40.565 E6.3121
G1 X145.261 Y43.761 E6.6197
G1 X145.285 Y43.793 E6.6228
G1 X145.424 Y43.992 E6.6412
G1 X145.446 Y44.026 E6.6443
G1 X147.583 Y47.455 E6.9519
G1 X147.604 Y47.489 E6.9550
G1 X147.721 Y47.702 E6.9734
G1 X147.740 Y47.737 E6.9765
G1 X149.520 Y51.365 E7.2841
G1 X149.536 Y51.402 E7.2872
G1 X149.632 Y51.625 E7.3057
G1 X149.647 Y51.662 E7.3087
G1 X151.050 Y55.451 E7.6164
G1 X151.063 Y55.489 E7.6194
G1 X151.136 Y55.721 E7.6379
G1 X151.147 Y55.759 E7.6409
G1 X152.160 Y59.671 E7.9486
G1 X152.169 Y59.710 E7.9516
G1 X152.218 Y59.948 E7.9701
G1 X152.225 Y59.987 E7.9731
G1 X152.837 Y63.982 E8.2808
G1 X152.842 Y64.021 E8.2838
G1 X152.866 Y64.263 E8.3023
G1 X152.869 Y64.303 E8.3053
G1 X153.071 Y68.278 E8.6084
G1 X153.072 Y68.298 E8.6099
G1 X153.075 Y68.419 E8.6191
G1 X153.075 Y68.439 E8.6207
G1 X153.075 Y151.561 E14.9487
G1 X153.075 Y151.581 E14.9502
G1 X153.072 Y151.702 E14.9594
G1 X153.071 Y151.722 E14.9610
G1 X152.869 Y155.697 E15.2640
G1 X152.866 Y155.737 E15.2670
G1 X152.842 Y155.979 E15.2855
G1 X152.837 Y156.018 E15.2885
G1 X152.225 Y160.013 E15.5962
G1 X152.218 Y160.052 E15.5993
G1 X152.169 Y160.290 E15.6177
G1 X152.160 Y160.329 E15.6208
G1 X151.147 Y164.241 E15.9284
G1 X151.136 Y164.279 E15.9315
G1 X151.063 Y164.511 E15.9499
G1 X151.050 Y164.549 E15.9530
G1 X149.647 Y168.338 E16.2606
G1 X149.632 Y168.375 E16.2637
G1 X149.536 Y168.598 E16.2821
G1 X149.520 Y168.635 E16.2852
G1 X147.740 Y172.263 E16.5929
G1 X147.721 Y172.298 E16.5959
G1 X147.604 Y172.511 E16.6144
G1 X147.583 Y172.545 E16.6174
G1 X145.446 Y175.975 E16.9251
G1 X145.424 Y176.008 E16.9281
G1 X145.285 Y176.207 E16.9466
G1 X145.261 Y176.239 E16.9496
G1 X142.788 Y179.435 E17.2573
G1 X142.763 Y179.466 E17.2603
G1 X142.605 Y179.650 E17.2788
G1 X142.578 Y179.679 E17.2818
G1 X139.793 Y182.609 E17.5895
G1 X139.765 Y182.637 E17.5925
G1 X139.589 Y182.804 E17.6110
G1 X139.560 Y182.831 E17.6140
G1 X136.493 Y185.463 E17.9217
G1 X136.462 Y185.488 E17.9247
G1 X136.271 Y185.637 E17.9432
G1 X136.238 Y185.661 E17.9463
G1 X132.921 Y187.969 E18.2539
G1 X132.888 Y187.991 E18.2570
G1 X132.682 Y188.120 E18.2754
G1 X132.648 Y188.140 E18.2785
G1 X129.114 Y190.101 E18.5861
G1 X129.079 Y190.119 E18.5892
G1 X128.861 Y190.226 E18.6076
G1 X128.825 Y190.243 E18.6107
G1 X125.111 Y191.837 E18.9183
G1 X125.074 Y191.852 E18.9214
G1 X124.846 Y191.936 E18.9399
G1 X124.809 Y191.949 E18.9429
G1 X120.953 Y193.159 E19.2506
G1 X120.914 Y193.169 E19.2536
G1 X120.679 Y193.230 E19.2721
G1 X120.641 Y193.239 E19.2751
G1 X116.682 Y194.053 E19.5828
G1 X116.643 Y194.060 E19.5858
G1 X116.403 Y194.097 E19.6043
G1 X116.363 Y194.102 E19.6073
G1 X112.343 Y194.511 E19.9150
G1 X112.303 Y194.514 E19.9180
G1 X112.061 Y194.526 E19.9365
G1 X112.021 Y194.527 E19.9395
G1 X107.979 Y194.527 E20.2472
G1 X107.939 Y194.526 E20.2502
G1 X107.697 Y194.514 E20.2687
G1 X107.657 Y194.511 E20.2717
G1 X103.637 Y194.102 E20.5794
G1 X103.597 Y194.097 E20.5825
G1 X103.357 Y194.060 E20.6009
G1 X103.318 Y194.053 E20.6040
G1 X99.359 Y193.239 E20.9116
G1 X99.321 Y193.230 E20.9147
G1 X99.086 Y193.169 E20.9331
G1 X99.047 Y193.159 E20.9362
G1 X95.191 Y191.949 E21.2438
G1 X95.154 Y191.936 E21.2469
G1 X94.926 Y191.852 E21.2654
G1 X94.889 Y191.837 E21.2684
G1 X91.175 Y190.243 E21.5761
G1 X91.139 Y190.226 E21.5791
G1 X90.921 Y190.120 E21.5976
G1 X90.886 Y190.101 E21.6006
G1 X87.352 Y188.140 E21.9083
G1 X87.318 Y188.120 E21.9113
G1 X87.112 Y187.991 E21.9298
G1 X87.079 Y187.969 E21.9328
G1 X83.762 Y185.661 E22.2405
G1 X83.729 Y185.637 E22.2435
G1 X83.538 Y185.488 E22.2620
G1 X83.507 Y185.463 E22.2650
G1 X80.440 Y182.831 E22.5727
G1 X80.411 Y182.804 E22.5757
G1 X80.235 Y182.637 E22.5942
G1 X80.207 Y182.609 E22.5972
G1 X77.422 Y179.680 E22.9049
G1 X77.395 Y179.650 E22.9080
G1 X77.237 Y179.466 E22.9264
G1 X77.212 Y179.435 E22.9295
G1 X74.739 Y176.239 E23.2371
G1 X74.715 Y176.207 E23.2402
G1 X74.576 Y176.008 E23.2586
G1 X74.554 Y175.974 E23.2617
G1 X72.417 Y172.545 E23.5693
G1 X72.396 Y172.510 E23.5724
G1 X72.279 Y172.298 E23.5908
G1 X72.260 Y172.263 E23.5939
G1 X70.480 Y168.635 E23.9015
G1 X70.464 Y168.598 E23.9046
G1 X70.368 Y168.375 E23.9231
G1 X70.353 Y168.338 E23.9261
G1 X68.950 Y164.549 E24.2338
G1 X68.937 Y164.511 E24.2368
G1 X68.864 Y164.279 E24.2553
G1 X68.853 Y164.241 E24.2583
G1 X67.840 Y160.329 E24.5660
G1 X67.831 Y160.290 E24.5690
G1 X67.782 Y160.052 E24.5875
G1 X67.775 Y160.013 E24.5905
G1 X67.163 Y156.018 E24.8982
G1 X67.158 Y155.979 E24.9012
G1 X67.134 Y155.737 E24.9197
G1 X67.131 Y155.697 E24.9227
G1 X66.929 Y151.722 E25.2258
G1 X66.928 Y151.702 E25.2273
G1 X66.925 Y151.581 E25.2365
G1 X66.925 Y151.561 E25.2381
G1 X66.925 Y68.439 E31.5661
G1 X66.925 Y68.419 E31.5676
G1 X66.928 Y68.298 E31.5768
G1 X66.929 Y68.278 E31.5784
G1 X67.131 Y64.303 E31.8814
G1 X67.134 Y64.263 E31.8844
G1 X67.158 Y64.021 E31.9029
G1 X67.163 Y63.982 E31.9060
G1 X67.775 Y59.987 E32.2136
G1 X67.782 Y59.948 E32.2167
G1 X67.831 Y59.710 E32.2351
G1 X67.840 Y59.671 E32.2382
G1 X68.853 Y55.759 E32.5458
G1 X68.864 Y55.721 E32.5489
G1 X68.937 Y55.489 E32.5673
G1 X68.950 Y55.451 E32.5704
G1 X70.353 Y51.662 E32.8780
G1 X70.368 Y51.625 E32.8811
G1 X70.464 Y51.402 E32.8996
G1 X70.480 Y51.365 E32.9026
G1 X71.521 Y49.243 E33.0825
G1 X72.260 Y47.737 F1800
G1 X72.279 Y47.702 F1800
G1 X72.396 Y47.490 F1800
G1 X72.417 Y47.455 F1800
G1 X72.802 Y47.688 F4800
G92 E0
G1 X74.933 Y44.268 E0.3068 F1800
G1 X74.949 Y44.245 E0.3090
G1 X75.081 Y44.055 E0.3266
G1 X75.098 Y44.032 E0.3287
G1 X77.565 Y40.845 E0.6355
G1 X77.583 Y40.823 E0.6377
G1 X77.733 Y40.648 E0.6553
G1 X77.752 Y40.626 E0.6575
G1 X80.529 Y37.706 E0.9643
G1 X80.549 Y37.685 E0.9664
G1 X80.717 Y37.526 E0.9841
G1 X80.738 Y37.507 E0.9862
G1 X83.795 Y34.882 E1.2930
G1 X83.818 Y34.864 E1.2952
G1 X84.000 Y34.722 E1.3128
G1 X84.023 Y34.706 E1.3150
G1 X87.331 Y32.403 E1.6218
G1 X87.355 Y32.388 E1.6239
G1 X87.551 Y32.265 E1.6415
G1 X87.576 Y32.251 E1.6437
G1 X91.099 Y30.295 E1.9505
G1 X91.124 Y30.282 E1.9527
G1 X91.332 Y30.180 E1.9703
G1 X91.358 Y30.168 E1.9724
G1 X95.061 Y28.579 E2.2792
G1 X95.088 Y28.568 E2.2814
G1 X95.305 Y28.488 E2.2990
G1 X95.332 Y28.479 E2.3012
G1 X99.177 Y27.273 E2.6080
G1 X99.204 Y27.265 E2.6102
G1 X99.428 Y27.207 E2.6278
G1 X99.456 Y27.200 E2.6299
G1 X103.403 Y26.389 E2.9367
G1 X103.431 Y26.384 E2.9389
G1 X103.660 Y26.349 E2.9565
G1 X103.688 Y26.345 E2.9587
G1 X107.697 Y25.938 E3.2655
G1 X107.726 Y25.936 E3.2676
G1 X107.957 Y25.924 E3.2852
G1 X107.985 Y25.923 E3.2874
G1 X112.015 Y25.923 E3.5942
G1 X112.043 Y25.924 E3.5964
G1 X112.274 Y25.936 E3.6140
G1 X112.303 Y25.938 E3.6162
G1 X116.312 Y26.345 E3.9230
G1 X116.340 Y26.349 E3.9251
G1 X116.569 Y26.384 E3.9427
G1 X116.597 Y26.389 E3.9449
G1 X120.544 Y27.200 E4.2517
G1 X120.572 Y27.207 E4.2539
G1 X120.796 Y27.265 E4.2715
G1 X120.823 Y27.273 E4.2736
G1 X124.668 Y28.479 E4.5804
G1 X124.695 Y28.488 E4.5826
G1 X124.912 Y28.568 E4.6002
G1 X124.939 Y28.579 E4.6024
G1 X128.642 Y30.168 E4.9092
G1 X128.668 Y30.180 E4.9113
G1 X128.876 Y30.282 E4.9290
G1 X128.901 Y30.295 E4.9311
G1 X132.424 Y32.251 E5.2379
G1 X132.449 Y32.265 E5.2401
G1 X132.645 Y32.388 E5.2577
G1 X132.669 Y32.403 E5.2599
G1 X135.977 Y34.706 E5.5667
G1 X136.000 Y34.722 E5.5688
